(G-CODE GENERATED BY FLATCAM v8.994 - www.flatcam.org - Version Date: 2020/11/7)

(Name: stylophone-Edge_Cuts.gbr_cutout_cnc)
(Type: G-code from Geometry)
(Units: MM)

(Created on Tuesday, 23 January 2024 at 23:36)

(This preprocessor is the default preprocessor used by FlatCAM.)
(It is made to work with MACH3 compatible motion controllers.)

(TOOL DIAMETER: 3.175 mm)
(Feedrate_XY: 10.0 mm/min)
(Feedrate_Z: 10.0 mm/min)
(Feedrate rapids 1500.0 mm/min)

(Z_Cut: -1.8 mm)
(DepthPerCut: 0.6 mm <=>3 passes)
(Z_Move: 2.0 mm)
(Z Start: None mm)
(Z End: 15.0 mm)
(X,Y End: None mm)
(Steps per circle: 64)
(Preprocessor Geometry: default)

(X range:   -0.9575 ...  116.8175  mm)
(Y range:   -2.4975 ...   87.3375  mm)

(Spindle Speed: 0.0 RPM)
G21
G90
G94

G01 F10.00

M5
G00 Z15.0000
G00 X0.0000 Y0.0000
T1
M6    
(MSG, Change to Tool Dia = 3.1750)
M0
G00 Z15.0000

M03
G01 F10.00
G00 X54.4425 Y-2.4975
G01 F10.00
G01 Z-0.6000
G01 F10.00
G01 X5.8600 Y-2.4975
G01 X5.8186 Y-2.4970
G01 X5.7747 Y-2.4954
G01 X5.2768 Y-2.4710
G01 X5.1893 Y-2.4644
G01 X5.1071 Y-2.4543
G01 X4.6140 Y-2.3811
G01 X4.5324 Y-2.3669
G01 X4.4468 Y-2.3478
G01 X3.9632 Y-2.2267
G01 X3.8786 Y-2.2032
G01 X3.8000 Y-2.1772
G01 X3.3306 Y-2.0093
G01 X3.2488 Y-1.9776
G01 X3.1731 Y-1.9440
G01 X2.7224 Y-1.7309
G01 X2.6441 Y-1.6913
G01 X2.5720 Y-1.6505
G01 X2.1444 Y-1.3942
G01 X2.0704 Y-1.3472
G01 X2.0027 Y-1.2995
G01 X1.6022 Y-1.0025
G01 X1.5331 Y-0.9484
G01 X1.4704 Y-0.8943
G01 X1.1010 Y-0.5595
G01 X1.0376 Y-0.4989
G01 X0.9805 Y-0.4390
G01 X0.6457 Y-0.0696
G01 X0.5916 Y-0.0069
G01 X0.5375 Y0.0622
G01 X0.2405 Y0.4627
G01 X0.1901 Y0.5345
G01 X0.1458 Y0.6044
G01 X-0.1105 Y1.0320
G01 X-0.1536 Y1.1084
G01 X-0.1909 Y1.1824
G01 X-0.4040 Y1.6331
G01 X-0.4395 Y1.7133
G01 X-0.4693 Y1.7906
G01 X-0.6372 Y2.2600
G01 X-0.6632 Y2.3386
G01 X-0.6867 Y2.4232
G01 X-0.8078 Y2.9068
G01 X-0.8269 Y2.9924
G01 X-0.8411 Y3.0740
G01 X-0.9143 Y3.5671
G01 X-0.9249 Y3.6542
G01 X-0.9310 Y3.7368
G01 X-0.9554 Y4.2347
G01 X-0.9570 Y4.2786
G01 X-0.9575 Y4.3200
G01 X-0.9575 Y80.5200
G01 X-0.9554 Y80.6053
G01 X-0.9310 Y81.1032
G01 X-0.9249 Y81.1858
G01 X-0.9143 Y81.2729
G01 X-0.8411 Y81.7660
G01 X-0.8269 Y81.8476
G01 X-0.8078 Y81.9332
G01 X-0.6867 Y82.4168
G01 X-0.6646 Y82.4967
G01 X-0.6372 Y82.5800
G01 X-0.4693 Y83.0494
G01 X-0.4376 Y83.1312
G01 X-0.4040 Y83.2069
G01 X-0.1909 Y83.6576
G01 X-0.1513 Y83.7359
G01 X-0.1105 Y83.8080
G01 X0.1458 Y84.2356
G01 X0.1928 Y84.3096
G01 X0.2405 Y84.3773
G01 X0.5375 Y84.7778
G01 X0.5916 Y84.8469
G01 X0.6457 Y84.9096
G01 X0.9805 Y85.2790
G01 X1.0411 Y85.3424
G01 X1.1010 Y85.3995
G01 X1.4704 Y85.7343
G01 X1.5369 Y85.7915
G01 X1.6022 Y85.8425
G01 X2.0027 Y86.1395
G01 X2.0745 Y86.1899
G01 X2.1444 Y86.2342
G01 X2.5720 Y86.4905
G01 X2.6484 Y86.5336
G01 X2.7224 Y86.5709
G01 X3.1731 Y86.7840
G01 X3.2533 Y86.8195
G01 X3.3306 Y86.8493
G01 X3.8000 Y87.0172
G01 X3.8833 Y87.0446
G01 X3.9632 Y87.0667
G01 X4.4468 Y87.1878
G01 X4.5324 Y87.2069
G01 X4.6140 Y87.2211
G01 X5.1071 Y87.2943
G01 X5.1893 Y87.3044
G01 X5.2768 Y87.3110
G01 X5.7747 Y87.3354
G01 X5.8161 Y87.3370
G01 X5.8600 Y87.3375
G01 X54.4425 Y87.3375
G00 X54.4425 Y87.3375
G01 F10.00
G01 Z-1.2000
G01 F10.00
G01 X5.8600 Y87.3375
G01 X5.8161 Y87.3370
G01 X5.7747 Y87.3354
G01 X5.2768 Y87.3110
G01 X5.1893 Y87.3044
G01 X5.1071 Y87.2943
G01 X4.6140 Y87.2211
G01 X4.5324 Y87.2069
G01 X4.4468 Y87.1878
G01 X3.9632 Y87.0667
G01 X3.8833 Y87.0446
G01 X3.8000 Y87.0172
G01 X3.3306 Y86.8493
G01 X3.2533 Y86.8195
G01 X3.1731 Y86.7840
G01 X2.7224 Y86.5709
G01 X2.6484 Y86.5336
G01 X2.5720 Y86.4905
G01 X2.1444 Y86.2342
G01 X2.0745 Y86.1899
G01 X2.0027 Y86.1395
G01 X1.6022 Y85.8425
G01 X1.5369 Y85.7915
G01 X1.4704 Y85.7343
G01 X1.1010 Y85.3995
G01 X1.0411 Y85.3424
G01 X0.9805 Y85.2790
G01 X0.6457 Y84.9096
G01 X0.5916 Y84.8469
G01 X0.5375 Y84.7778
G01 X0.2405 Y84.3773
G01 X0.1928 Y84.3096
G01 X0.1458 Y84.2356
G01 X-0.1105 Y83.8080
G01 X-0.1513 Y83.7359
G01 X-0.1909 Y83.6576
G01 X-0.4040 Y83.2069
G01 X-0.4376 Y83.1312
G01 X-0.4693 Y83.0494
G01 X-0.6372 Y82.5800
G01 X-0.6646 Y82.4967
G01 X-0.6867 Y82.4168
G01 X-0.8078 Y81.9332
G01 X-0.8269 Y81.8476
G01 X-0.8411 Y81.7660
G01 X-0.9143 Y81.2729
G01 X-0.9249 Y81.1858
G01 X-0.9310 Y81.1032
G01 X-0.9554 Y80.6053
G01 X-0.9575 Y80.5200
G01 X-0.9575 Y4.3200
G01 X-0.9570 Y4.2786
G01 X-0.9554 Y4.2347
G01 X-0.9310 Y3.7368
G01 X-0.9249 Y3.6542
G01 X-0.9143 Y3.5671
G01 X-0.8411 Y3.0740
G01 X-0.8269 Y2.9924
G01 X-0.8078 Y2.9068
G01 X-0.6867 Y2.4232
G01 X-0.6632 Y2.3386
G01 X-0.6372 Y2.2600
G01 X-0.4693 Y1.7906
G01 X-0.4395 Y1.7133
G01 X-0.4040 Y1.6331
G01 X-0.1909 Y1.1824
G01 X-0.1536 Y1.1084
G01 X-0.1105 Y1.0320
G01 X0.1458 Y0.6044
G01 X0.1901 Y0.5345
G01 X0.2405 Y0.4627
G01 X0.5375 Y0.0622
G01 X0.5916 Y-0.0069
G01 X0.6457 Y-0.0696
G01 X0.9805 Y-0.4390
G01 X1.0376 Y-0.4989
G01 X1.1010 Y-0.5595
G01 X1.4704 Y-0.8943
G01 X1.5331 Y-0.9484
G01 X1.6022 Y-1.0025
G01 X2.0027 Y-1.2995
G01 X2.0704 Y-1.3472
G01 X2.1444 Y-1.3942
G01 X2.5720 Y-1.6505
G01 X2.6441 Y-1.6913
G01 X2.7224 Y-1.7309
G01 X3.1731 Y-1.9440
G01 X3.2488 Y-1.9776
G01 X3.3306 Y-2.0093
G01 X3.8000 Y-2.1772
G01 X3.8786 Y-2.2032
G01 X3.9632 Y-2.2267
G01 X4.4468 Y-2.3478
G01 X4.5324 Y-2.3669
G01 X4.6140 Y-2.3811
G01 X5.1071 Y-2.4543
G01 X5.1893 Y-2.4644
G01 X5.2768 Y-2.4710
G01 X5.7747 Y-2.4954
G01 X5.8186 Y-2.4970
G01 X5.8600 Y-2.4975
G01 X54.4425 Y-2.4975
G00 X54.4425 Y-2.4975
G01 F10.00
G01 Z-1.8000
G01 F10.00
G01 X5.8600 Y-2.4975
G01 X5.8186 Y-2.4970
G01 X5.7747 Y-2.4954
G01 X5.2768 Y-2.4710
G01 X5.1893 Y-2.4644
G01 X5.1071 Y-2.4543
G01 X4.6140 Y-2.3811
G01 X4.5324 Y-2.3669
G01 X4.4468 Y-2.3478
G01 X3.9632 Y-2.2267
G01 X3.8786 Y-2.2032
G01 X3.8000 Y-2.1772
G01 X3.3306 Y-2.0093
G01 X3.2488 Y-1.9776
G01 X3.1731 Y-1.9440
G01 X2.7224 Y-1.7309
G01 X2.6441 Y-1.6913
G01 X2.5720 Y-1.6505
G01 X2.1444 Y-1.3942
G01 X2.0704 Y-1.3472
G01 X2.0027 Y-1.2995
G01 X1.6022 Y-1.0025
G01 X1.5331 Y-0.9484
G01 X1.4704 Y-0.8943
G01 X1.1010 Y-0.5595
G01 X1.0376 Y-0.4989
G01 X0.9805 Y-0.4390
G01 X0.6457 Y-0.0696
G01 X0.5916 Y-0.0069
G01 X0.5375 Y0.0622
G01 X0.2405 Y0.4627
G01 X0.1901 Y0.5345
G01 X0.1458 Y0.6044
G01 X-0.1105 Y1.0320
G01 X-0.1536 Y1.1084
G01 X-0.1909 Y1.1824
G01 X-0.4040 Y1.6331
G01 X-0.4395 Y1.7133
G01 X-0.4693 Y1.7906
G01 X-0.6372 Y2.2600
G01 X-0.6632 Y2.3386
G01 X-0.6867 Y2.4232
G01 X-0.8078 Y2.9068
G01 X-0.8269 Y2.9924
G01 X-0.8411 Y3.0740
G01 X-0.9143 Y3.5671
G01 X-0.9249 Y3.6542
G01 X-0.9310 Y3.7368
G01 X-0.9554 Y4.2347
G01 X-0.9570 Y4.2786
G01 X-0.9575 Y4.3200
G01 X-0.9575 Y80.5200
G01 X-0.9554 Y80.6053
G01 X-0.9310 Y81.1032
G01 X-0.9249 Y81.1858
G01 X-0.9143 Y81.2729
G01 X-0.8411 Y81.7660
G01 X-0.8269 Y81.8476
G01 X-0.8078 Y81.9332
G01 X-0.6867 Y82.4168
G01 X-0.6646 Y82.4967
G01 X-0.6372 Y82.5800
G01 X-0.4693 Y83.0494
G01 X-0.4376 Y83.1312
G01 X-0.4040 Y83.2069
G01 X-0.1909 Y83.6576
G01 X-0.1513 Y83.7359
G01 X-0.1105 Y83.8080
G01 X0.1458 Y84.2356
G01 X0.1928 Y84.3096
G01 X0.2405 Y84.3773
G01 X0.5375 Y84.7778
G01 X0.5916 Y84.8469
G01 X0.6457 Y84.9096
G01 X0.9805 Y85.2790
G01 X1.0411 Y85.3424
G01 X1.1010 Y85.3995
G01 X1.4704 Y85.7343
G01 X1.5369 Y85.7915
G01 X1.6022 Y85.8425
G01 X2.0027 Y86.1395
G01 X2.0745 Y86.1899
G01 X2.1444 Y86.2342
G01 X2.5720 Y86.4905
G01 X2.6484 Y86.5336
G01 X2.7224 Y86.5709
G01 X3.1731 Y86.7840
G01 X3.2533 Y86.8195
G01 X3.3306 Y86.8493
G01 X3.8000 Y87.0172
G01 X3.8833 Y87.0446
G01 X3.9632 Y87.0667
G01 X4.4468 Y87.1878
G01 X4.5324 Y87.2069
G01 X4.6140 Y87.2211
G01 X5.1071 Y87.2943
G01 X5.1893 Y87.3044
G01 X5.2768 Y87.3110
G01 X5.7747 Y87.3354
G01 X5.8161 Y87.3370
G01 X5.8600 Y87.3375
G01 X54.4425 Y87.3375
G00 Z2.0000
G00 X61.6175 Y87.3375
G01 F10.00
G01 Z-0.6000
G01 F10.00
G01 X110.0000 Y87.3375
G01 X110.0414 Y87.3370
G01 X110.0853 Y87.3354
G01 X110.5832 Y87.3110
G01 X110.6707 Y87.3044
G01 X110.7529 Y87.2943
G01 X111.2460 Y87.2211
G01 X111.3276 Y87.2069
G01 X111.4132 Y87.1878
G01 X111.8968 Y87.0667
G01 X111.9814 Y87.0432
G01 X112.0600 Y87.0172
G01 X112.5294 Y86.8493
G01 X112.6112 Y86.8176
G01 X112.6869 Y86.7840
G01 X113.1376 Y86.5709
G01 X113.2159 Y86.5313
G01 X113.2880 Y86.4905
G01 X113.7156 Y86.2342
G01 X113.7896 Y86.1872
G01 X113.8573 Y86.1395
G01 X114.2578 Y85.8425
G01 X114.3269 Y85.7884
G01 X114.3896 Y85.7343
G01 X114.7590 Y85.3995
G01 X114.8224 Y85.3389
G01 X114.8795 Y85.2790
G01 X115.2143 Y84.9096
G01 X115.2684 Y84.8469
G01 X115.3225 Y84.7778
G01 X115.6195 Y84.3773
G01 X115.6699 Y84.3055
G01 X115.7142 Y84.2356
G01 X115.9705 Y83.8080
G01 X116.0136 Y83.7316
G01 X116.0509 Y83.6576
G01 X116.2640 Y83.2069
G01 X116.2995 Y83.1267
G01 X116.3293 Y83.0494
G01 X116.4972 Y82.5800
G01 X116.5232 Y82.5014
G01 X116.5467 Y82.4168
G01 X116.6678 Y81.9332
G01 X116.6869 Y81.8476
G01 X116.7011 Y81.7660
G01 X116.7743 Y81.2729
G01 X116.7849 Y81.1858
G01 X116.7910 Y81.1032
G01 X116.8154 Y80.6053
G01 X116.8170 Y80.5614
G01 X116.8175 Y80.5200
G01 X116.8175 Y4.3200
G01 X116.8170 Y4.2761
G01 X116.8154 Y4.2347
G01 X116.7910 Y3.7368
G01 X116.7849 Y3.6542
G01 X116.7743 Y3.5671
G01 X116.7011 Y3.0740
G01 X116.6869 Y2.9924
G01 X116.6678 Y2.9068
G01 X116.5467 Y2.4232
G01 X116.5246 Y2.3433
G01 X116.4972 Y2.2600
G01 X116.3293 Y1.7906
G01 X116.2976 Y1.7088
G01 X116.2640 Y1.6331
G01 X116.0509 Y1.1824
G01 X116.0113 Y1.1041
G01 X115.9705 Y1.0320
G01 X115.7142 Y0.6044
G01 X115.6672 Y0.5304
G01 X115.6195 Y0.4627
G01 X115.3225 Y0.0622
G01 X115.2684 Y-0.0069
G01 X115.2143 Y-0.0696
G01 X114.8795 Y-0.4390
G01 X114.8189 Y-0.5024
G01 X114.7590 Y-0.5595
G01 X114.3896 Y-0.8943
G01 X114.3231 Y-0.9515
G01 X114.2578 Y-1.0025
G01 X113.8573 Y-1.2995
G01 X113.7855 Y-1.3499
G01 X113.7156 Y-1.3942
G01 X113.2880 Y-1.6505
G01 X113.2116 Y-1.6936
G01 X113.1376 Y-1.7309
G01 X112.6869 Y-1.9440
G01 X112.6067 Y-1.9795
G01 X112.5294 Y-2.0093
G01 X112.0600 Y-2.1772
G01 X111.9814 Y-2.2032
G01 X111.8968 Y-2.2267
G01 X111.4132 Y-2.3478
G01 X111.3324 Y-2.3660
G01 X111.2460 Y-2.3811
G01 X110.7529 Y-2.4543
G01 X110.6658 Y-2.4649
G01 X110.5832 Y-2.4710
G01 X110.0853 Y-2.4954
G01 X110.0439 Y-2.4970
G01 X110.0000 Y-2.4975
G01 X61.6175 Y-2.4975
G00 X61.6175 Y-2.4975
G01 F10.00
G01 Z-1.2000
G01 F10.00
G01 X110.0000 Y-2.4975
G01 X110.0439 Y-2.4970
G01 X110.0853 Y-2.4954
G01 X110.5832 Y-2.4710
G01 X110.6658 Y-2.4649
G01 X110.7529 Y-2.4543
G01 X111.2460 Y-2.3811
G01 X111.3324 Y-2.3660
G01 X111.4132 Y-2.3478
G01 X111.8968 Y-2.2267
G01 X111.9814 Y-2.2032
G01 X112.0600 Y-2.1772
G01 X112.5294 Y-2.0093
G01 X112.6067 Y-1.9795
G01 X112.6869 Y-1.9440
G01 X113.1376 Y-1.7309
G01 X113.2116 Y-1.6936
G01 X113.2880 Y-1.6505
G01 X113.7156 Y-1.3942
G01 X113.7855 Y-1.3499
G01 X113.8573 Y-1.2995
G01 X114.2578 Y-1.0025
G01 X114.3231 Y-0.9515
G01 X114.3896 Y-0.8943
G01 X114.7590 Y-0.5595
G01 X114.8189 Y-0.5024
G01 X114.8795 Y-0.4390
G01 X115.2143 Y-0.0696
G01 X115.2684 Y-0.0069
G01 X115.3225 Y0.0622
G01 X115.6195 Y0.4627
G01 X115.6672 Y0.5304
G01 X115.7142 Y0.6044
G01 X115.9705 Y1.0320
G01 X116.0113 Y1.1041
G01 X116.0509 Y1.1824
G01 X116.2640 Y1.6331
G01 X116.2976 Y1.7088
G01 X116.3293 Y1.7906
G01 X116.4972 Y2.2600
G01 X116.5246 Y2.3433
G01 X116.5467 Y2.4232
G01 X116.6678 Y2.9068
G01 X116.6869 Y2.9924
G01 X116.7011 Y3.0740
G01 X116.7743 Y3.5671
G01 X116.7849 Y3.6542
G01 X116.7910 Y3.7368
G01 X116.8154 Y4.2347
G01 X116.8170 Y4.2761
G01 X116.8175 Y4.3200
G01 X116.8175 Y80.5200
G01 X116.8170 Y80.5614
G01 X116.8154 Y80.6053
G01 X116.7910 Y81.1032
G01 X116.7849 Y81.1858
G01 X116.7743 Y81.2729
G01 X116.7011 Y81.7660
G01 X116.6869 Y81.8476
G01 X116.6678 Y81.9332
G01 X116.5467 Y82.4168
G01 X116.5232 Y82.5014
G01 X116.4972 Y82.5800
G01 X116.3293 Y83.0494
G01 X116.2995 Y83.1267
G01 X116.2640 Y83.2069
G01 X116.0509 Y83.6576
G01 X116.0136 Y83.7316
G01 X115.9705 Y83.8080
G01 X115.7142 Y84.2356
G01 X115.6699 Y84.3055
G01 X115.6195 Y84.3773
G01 X115.3225 Y84.7778
G01 X115.2684 Y84.8469
G01 X115.2143 Y84.9096
G01 X114.8795 Y85.2790
G01 X114.8224 Y85.3389
G01 X114.7590 Y85.3995
G01 X114.3896 Y85.7343
G01 X114.3269 Y85.7884
G01 X114.2578 Y85.8425
G01 X113.8573 Y86.1395
G01 X113.7896 Y86.1872
G01 X113.7156 Y86.2342
G01 X113.2880 Y86.4905
G01 X113.2159 Y86.5313
G01 X113.1376 Y86.5709
G01 X112.6869 Y86.7840
G01 X112.6112 Y86.8176
G01 X112.5294 Y86.8493
G01 X112.0600 Y87.0172
G01 X111.9814 Y87.0432
G01 X111.8968 Y87.0667
G01 X111.4132 Y87.1878
G01 X111.3276 Y87.2069
G01 X111.2460 Y87.2211
G01 X110.7529 Y87.2943
G01 X110.6707 Y87.3044
G01 X110.5832 Y87.3110
G01 X110.0853 Y87.3354
G01 X110.0414 Y87.3370
G01 X110.0000 Y87.3375
G01 X61.6175 Y87.3375
G00 X61.6175 Y87.3375
G01 F10.00
G01 Z-1.8000
G01 F10.00
G01 X110.0000 Y87.3375
G01 X110.0414 Y87.3370
G01 X110.0853 Y87.3354
G01 X110.5832 Y87.3110
G01 X110.6707 Y87.3044
G01 X110.7529 Y87.2943
G01 X111.2460 Y87.2211
G01 X111.3276 Y87.2069
G01 X111.4132 Y87.1878
G01 X111.8968 Y87.0667
G01 X111.9814 Y87.0432
G01 X112.0600 Y87.0172
G01 X112.5294 Y86.8493
G01 X112.6112 Y86.8176
G01 X112.6869 Y86.7840
G01 X113.1376 Y86.5709
G01 X113.2159 Y86.5313
G01 X113.2880 Y86.4905
G01 X113.7156 Y86.2342
G01 X113.7896 Y86.1872
G01 X113.8573 Y86.1395
G01 X114.2578 Y85.8425
G01 X114.3269 Y85.7884
G01 X114.3896 Y85.7343
G01 X114.7590 Y85.3995
G01 X114.8224 Y85.3389
G01 X114.8795 Y85.2790
G01 X115.2143 Y84.9096
G01 X115.2684 Y84.8469
G01 X115.3225 Y84.7778
G01 X115.6195 Y84.3773
G01 X115.6699 Y84.3055
G01 X115.7142 Y84.2356
G01 X115.9705 Y83.8080
G01 X116.0136 Y83.7316
G01 X116.0509 Y83.6576
G01 X116.2640 Y83.2069
G01 X116.2995 Y83.1267
G01 X116.3293 Y83.0494
G01 X116.4972 Y82.5800
G01 X116.5232 Y82.5014
G01 X116.5467 Y82.4168
G01 X116.6678 Y81.9332
G01 X116.6869 Y81.8476
G01 X116.7011 Y81.7660
G01 X116.7743 Y81.2729
G01 X116.7849 Y81.1858
G01 X116.7910 Y81.1032
G01 X116.8154 Y80.6053
G01 X116.8170 Y80.5614
G01 X116.8175 Y80.5200
G01 X116.8175 Y4.3200
G01 X116.8170 Y4.2761
G01 X116.8154 Y4.2347
G01 X116.7910 Y3.7368
G01 X116.7849 Y3.6542
G01 X116.7743 Y3.5671
G01 X116.7011 Y3.0740
G01 X116.6869 Y2.9924
G01 X116.6678 Y2.9068
G01 X116.5467 Y2.4232
G01 X116.5246 Y2.3433
G01 X116.4972 Y2.2600
G01 X116.3293 Y1.7906
G01 X116.2976 Y1.7088
G01 X116.2640 Y1.6331
G01 X116.0509 Y1.1824
G01 X116.0113 Y1.1041
G01 X115.9705 Y1.0320
G01 X115.7142 Y0.6044
G01 X115.6672 Y0.5304
G01 X115.6195 Y0.4627
G01 X115.3225 Y0.0622
G01 X115.2684 Y-0.0069
G01 X115.2143 Y-0.0696
G01 X114.8795 Y-0.4390
G01 X114.8189 Y-0.5024
G01 X114.7590 Y-0.5595
G01 X114.3896 Y-0.8943
G01 X114.3231 Y-0.9515
G01 X114.2578 Y-1.0025
G01 X113.8573 Y-1.2995
G01 X113.7855 Y-1.3499
G01 X113.7156 Y-1.3942
G01 X113.2880 Y-1.6505
G01 X113.2116 Y-1.6936
G01 X113.1376 Y-1.7309
G01 X112.6869 Y-1.9440
G01 X112.6067 Y-1.9795
G01 X112.5294 Y-2.0093
G01 X112.0600 Y-2.1772
G01 X111.9814 Y-2.2032
G01 X111.8968 Y-2.2267
G01 X111.4132 Y-2.3478
G01 X111.3324 Y-2.3660
G01 X111.2460 Y-2.3811
G01 X110.7529 Y-2.4543
G01 X110.6658 Y-2.4649
G01 X110.5832 Y-2.4710
G01 X110.0853 Y-2.4954
G01 X110.0439 Y-2.4970
G01 X110.0000 Y-2.4975
G01 X61.6175 Y-2.4975
G00 Z2.0000
M05
G00 Z2.0000
G00 Z15.00


