(G-CODE GENERATED BY FLATCAM v8.994 - www.flatcam.org - Version Date: 2020/11/7)

(Name: stylophone-B_Cu.gbr_iso_combined_cnc)
(Type: G-code from Geometry)
(Units: MM)

(Created on Tuesday, 23 January 2024 at 23:37)

(This preprocessor is the default preprocessor used by FlatCAM.)
(It is made to work with MACH3 compatible motion controllers.)

(TOOL DIAMETER: 0.1 mm)
(Feedrate_XY: 100.0 mm/min)
(Feedrate_Z: 30.0 mm/min)
(Feedrate rapids 1500.0 mm/min)

(Z_Cut: 0.0 mm)
(Z_Move: 2.0 mm)
(Z Start: None mm)
(Z End: 15.0 mm)
(X,Y End: None mm)
(Steps per circle: 64)
(Preprocessor Geometry: default)

(X range:    0.4505 ...  115.4095  mm)
(Y range:    4.0705 ...   91.0895  mm)

(Spindle Speed: 0.0 RPM)
G21
G90
G94

G01 F100.00

M5
G00 Z15.0000
G00 X0.0000 Y0.0000
T1
M6    
(MSG, Change to Tool Dia = 0.1000)
M0
G00 Z15.0000

M03
G01 F100.00
G00 X0.5905 Y9.4826
G01 F30.00
G01 Z0.0000
G01 F100.00
G01 X0.5908 Y9.4696
G01 X0.5997 Y9.2548
G01 X0.6056 Y9.1176
G01 X0.6122 Y9.0182
G01 X0.6164 Y8.9803
G01 X0.6375 Y8.8110
G01 X0.6572 Y8.6609
G01 X0.6719 Y8.5667
G01 X0.7135 Y8.3680
G01 X0.7489 Y8.2086
G01 X0.7648 Y8.1432
G01 X0.7689 Y8.1284
G01 X0.8261 Y7.9362
G01 X0.8806 Y7.7635
G01 X0.9007 Y7.7053
G01 X0.9753 Y7.5142
G01 X1.0465 Y7.3422
G01 X1.0656 Y7.2990
G01 X1.1585 Y7.1090
G01 X1.2521 Y6.9290
G01 X1.2670 Y6.9023
G01 X1.3764 Y6.7187
G01 X1.4897 Y6.5407
G01 X1.4989 Y6.5271
G01 X1.6265 Y6.3483
G01 X1.7621 Y6.1719
G01 X1.9103 Y5.9970
G01 X2.0511 Y5.8433
G01 X2.0605 Y5.8335
G01 X2.2135 Y5.6805
G01 X2.2233 Y5.6711
G01 X2.3804 Y5.5272
G01 X2.5483 Y5.3850
G01 X2.5601 Y5.3755
G01 X2.7250 Y5.2490
G01 X2.9071 Y5.1189
G01 X2.9207 Y5.1097
G01 X3.0957 Y4.9982
G01 X3.2919 Y4.8815
G01 X3.3109 Y4.8711
G01 X3.4890 Y4.7785
G01 X3.6756 Y4.6872
G01 X3.7180 Y4.6683
G01 X3.8981 Y4.5938
G01 X4.0853 Y4.5207
G01 X4.0984 Y4.5159
G01 X4.1479 Y4.4991
G01 X4.3178 Y4.4456
G01 X4.5129 Y4.3876
G01 X4.5886 Y4.3689
G01 X4.7502 Y4.3331
G01 X4.9416 Y4.2929
G01 X4.9582 Y4.2899
G01 X5.0409 Y4.2772
G01 X5.1899 Y4.2576
G01 X5.3646 Y4.2359
G01 X5.4035 Y4.2318
G01 X5.4955 Y4.2257
G01 X5.8496 Y4.2108
G01 X5.8626 Y4.2105
G01 X109.9974 Y4.2105
G01 X110.0104 Y4.2108
G01 X110.2253 Y4.2197
G01 X110.3624 Y4.2256
G01 X110.4565 Y4.2318
G01 X110.4997 Y4.2364
G01 X110.6690 Y4.2575
G01 X110.8257 Y4.2782
G01 X110.9017 Y4.2899
G01 X110.9184 Y4.2929
G01 X111.1097 Y4.3330
G01 X111.2740 Y4.3695
G01 X111.3471 Y4.3876
G01 X111.5439 Y4.4461
G01 X111.7121 Y4.4992
G01 X111.7708 Y4.5192
G01 X111.9659 Y4.5953
G01 X112.1395 Y4.6673
G01 X112.1845 Y4.6873
G01 X112.3737 Y4.7798
G01 X112.5491 Y4.8711
G01 X112.5711 Y4.8831
G01 X112.7643 Y4.9982
G01 X112.9392 Y5.1096
G01 X112.9530 Y5.1189
G01 X113.1351 Y5.2491
G01 X113.2999 Y5.3755
G01 X113.3117 Y5.3850
G01 X113.4795 Y5.5272
G01 X113.6367 Y5.6711
G01 X113.6466 Y5.6805
G01 X113.7995 Y5.8334
G01 X113.8089 Y5.8433
G01 X113.9496 Y5.9969
G01 X114.0979 Y6.1718
G01 X114.2335 Y6.3484
G01 X114.3611 Y6.5270
G01 X114.3704 Y6.5408
G01 X114.4837 Y6.7188
G01 X114.5930 Y6.9022
G01 X114.6079 Y6.9291
G01 X114.7016 Y7.1091
G01 X114.7944 Y7.2990
G01 X114.8135 Y7.3423
G01 X114.8846 Y7.5140
G01 X114.9593 Y7.7053
G01 X114.9794 Y7.7635
G01 X115.0344 Y7.9378
G01 X115.0911 Y8.1283
G01 X115.0952 Y8.1433
G01 X115.1111 Y8.2086
G01 X115.1464 Y8.3679
G01 X115.1871 Y8.5616
G01 X115.1901 Y8.5783
G01 X115.2025 Y8.6590
G01 X115.2223 Y8.8090
G01 X115.2436 Y8.9801
G01 X115.2478 Y9.0182
G01 X115.2544 Y9.1176
G01 X115.2604 Y9.2550
G01 X115.2692 Y9.4696
G01 X115.2695 Y9.4826
G01 X115.2695 Y19.0105
G01 X115.2690 Y19.0241
G01 X115.2682 Y19.0331
G01 X115.2661 Y19.0465
G01 X115.2641 Y19.0553
G01 X115.2421 Y19.1311
G01 X115.2376 Y19.1445
G01 X115.2341 Y19.1532
G01 X115.2257 Y19.1701
G01 X115.2184 Y19.1822
G01 X115.2101 Y19.1937
G01 X115.1979 Y19.2081
G01 X115.1842 Y19.2211
G01 X115.1314 Y19.2669
G01 X115.1203 Y19.2758
G01 X115.1086 Y19.2839
G01 X115.0963 Y19.2910
G01 X115.0835 Y19.2972
G01 X115.0702 Y19.3025
G01 X115.0566 Y19.3067
G01 X114.9915 Y19.3211
G01 X114.9781 Y19.3232
G01 X114.9645 Y19.3243
G01 X107.5164 Y19.3245
G01 X107.4726 Y19.3269
G01 X107.4563 Y19.3286
G01 X107.4264 Y19.3334
G01 X107.3219 Y19.3724
G01 X107.2844 Y19.3929
G01 X107.1910 Y19.4628
G01 X102.1968 Y24.4570
G01 X102.1675 Y24.4897
G01 X102.1572 Y24.5024
G01 X102.1395 Y24.5270
G01 X102.0931 Y24.6285
G01 X102.0811 Y24.6694
G01 X102.0645 Y24.7850
G01 X102.0645 Y29.7436
G01 X102.0669 Y29.7874
G01 X102.0686 Y29.8037
G01 X102.0734 Y29.8336
G01 X102.1124 Y29.9381
G01 X102.1329 Y29.9756
G01 X102.2028 Y30.0690
G01 X107.1970 Y35.0632
G01 X107.2297 Y35.0925
G01 X107.2424 Y35.1028
G01 X107.2670 Y35.1205
G01 X107.3685 Y35.1669
G01 X107.4094 Y35.1789
G01 X107.5250 Y35.1955
G01 X114.9645 Y35.1957
G01 X114.9825 Y35.1974
G01 X115.0003 Y35.2009
G01 X115.0761 Y35.2229
G01 X115.0895 Y35.2274
G01 X115.1068 Y35.2349
G01 X115.1192 Y35.2416
G01 X115.1350 Y35.2520
G01 X115.1496 Y35.2639
G01 X115.1630 Y35.2772
G01 X115.2150 Y35.3372
G01 X115.2263 Y35.3524
G01 X115.2337 Y35.3646
G01 X115.2403 Y35.3772
G01 X115.2441 Y35.3859
G01 X115.2504 Y35.4038
G01 X115.2540 Y35.4176
G01 X115.2652 Y35.4691
G01 X115.2669 Y35.4780
G01 X115.2686 Y35.4914
G01 X115.2695 Y35.5095
G01 X115.2695 Y85.6814
G01 X115.2604 Y85.9048
G01 X115.2544 Y86.0424
G01 X115.2482 Y86.1364
G01 X115.2436 Y86.1799
G01 X115.2225 Y86.3489
G01 X115.2018 Y86.5058
G01 X115.1901 Y86.5817
G01 X115.1871 Y86.5984
G01 X115.1470 Y86.7897
G01 X115.1105 Y86.9540
G01 X115.0924 Y87.0271
G01 X115.0338 Y87.2241
G01 X114.9809 Y87.3920
G01 X114.9608 Y87.4508
G01 X114.8846 Y87.6460
G01 X114.8127 Y87.8196
G01 X114.7927 Y87.8645
G01 X114.7002 Y88.0537
G01 X114.6089 Y88.2291
G01 X114.5969 Y88.2511
G01 X114.4818 Y88.4443
G01 X114.3704 Y88.6192
G01 X114.3611 Y88.6330
G01 X114.2335 Y88.8116
G01 X114.1045 Y88.9799
G01 X114.0950 Y88.9917
G01 X113.9528 Y89.1595
G01 X113.8089 Y89.3167
G01 X113.7995 Y89.3266
G01 X113.6436 Y89.4824
G01 X113.4859 Y89.6271
G01 X113.3117 Y89.7750
G01 X113.2999 Y89.7845
G01 X113.1316 Y89.9135
G01 X112.9530 Y90.0411
G01 X112.9392 Y90.0504
G01 X112.7612 Y90.1637
G01 X112.5778 Y90.2730
G01 X112.5509 Y90.2879
G01 X112.3709 Y90.3816
G01 X112.1810 Y90.4744
G01 X112.1377 Y90.4935
G01 X111.9636 Y90.5656
G01 X111.7747 Y90.6393
G01 X111.7165 Y90.6594
G01 X111.5422 Y90.7144
G01 X111.3412 Y90.7740
G01 X111.2714 Y90.7911
G01 X111.1122 Y90.8264
G01 X110.9134 Y90.8681
G01 X110.8210 Y90.8825
G01 X110.6710 Y90.9023
G01 X110.4984 Y90.9238
G01 X110.4523 Y90.9285
G01 X110.3624 Y90.9344
G01 X110.2249 Y90.9404
G01 X110.0014 Y90.9495
G01 X5.8626 Y90.9495
G01 X5.8496 Y90.9492
G01 X5.6351 Y90.9404
G01 X5.4976 Y90.9344
G01 X5.4036 Y90.9282
G01 X5.3601 Y90.9236
G01 X5.1912 Y90.9025
G01 X5.0342 Y90.8818
G01 X4.9583 Y90.8701
G01 X4.9416 Y90.8671
G01 X4.7503 Y90.8270
G01 X4.5860 Y90.7905
G01 X4.5128 Y90.7724
G01 X4.3159 Y90.7138
G01 X4.1480 Y90.6609
G01 X4.0893 Y90.6408
G01 X3.8940 Y90.5646
G01 X3.7223 Y90.4935
G01 X3.6755 Y90.4727
G01 X3.4863 Y90.3802
G01 X3.3109 Y90.2889
G01 X3.2889 Y90.2769
G01 X3.0957 Y90.1618
G01 X2.9208 Y90.0504
G01 X2.9070 Y90.0411
G01 X2.7284 Y89.9135
G01 X2.5601 Y89.7845
G01 X2.5483 Y89.7750
G01 X2.3805 Y89.6328
G01 X2.2233 Y89.4889
G01 X2.2134 Y89.4795
G01 X2.0576 Y89.3236
G01 X1.9128 Y89.1659
G01 X1.7650 Y88.9917
G01 X1.7555 Y88.9799
G01 X1.6265 Y88.8116
G01 X1.4989 Y88.6330
G01 X1.4896 Y88.6192
G01 X1.3763 Y88.4412
G01 X1.2670 Y88.2578
G01 X1.2521 Y88.2309
G01 X1.1584 Y88.0509
G01 X1.0656 Y87.8611
G01 X1.0465 Y87.8177
G01 X0.9744 Y87.6436
G01 X0.9007 Y87.4547
G01 X0.8806 Y87.3965
G01 X0.8256 Y87.2221
G01 X0.7660 Y87.0212
G01 X0.7489 Y86.9514
G01 X0.7135 Y86.7920
G01 X0.6719 Y86.5934
G01 X0.6575 Y86.5011
G01 X0.6377 Y86.3508
G01 X0.6162 Y86.1782
G01 X0.6115 Y86.1323
G01 X0.6056 Y86.0424
G01 X0.5906 Y85.6865
G01 X0.5905 Y9.4826
G00 Z2.0000
G00 X0.6605 Y9.4826
G01 F30.00
G01 Z0.0000
G01 F100.00
G01 X0.6696 Y9.2577
G01 X0.6756 Y9.1206
G01 X0.6820 Y9.0243
G01 X0.6858 Y8.9890
G01 X0.7069 Y8.8197
G01 X0.7266 Y8.6701
G01 X0.7408 Y8.5792
G01 X0.7819 Y8.3832
G01 X0.8170 Y8.2245
G01 X0.8328 Y8.1599
G01 X0.8359 Y8.1483
G01 X0.8930 Y7.9567
G01 X0.9469 Y7.7860
G01 X0.9659 Y7.7308
G01 X1.0403 Y7.5403
G01 X1.1112 Y7.3690
G01 X1.1291 Y7.3285
G01 X1.2210 Y7.1405
G01 X1.3138 Y6.9620
G01 X1.3271 Y6.9381
G01 X1.4359 Y6.7555
G01 X1.5487 Y6.5784
G01 X1.5559 Y6.5678
G01 X1.6828 Y6.3900
G01 X1.8165 Y6.2158
G01 X1.9628 Y6.0432
G01 X2.1100 Y5.8829
G01 X2.2705 Y5.7227
G01 X2.4267 Y5.5798
G01 X2.5936 Y5.4384
G01 X2.6027 Y5.4311
G01 X2.7666 Y5.3053
G01 X2.9478 Y5.1759
G01 X2.9584 Y5.1687
G01 X3.1324 Y5.0578
G01 X3.3255 Y4.9429
G01 X3.3432 Y4.9332
G01 X3.5205 Y4.8410
G01 X3.7063 Y4.7501
G01 X3.7455 Y4.7327
G01 X3.9235 Y4.6590
G01 X4.1108 Y4.5859
G01 X4.1697 Y4.5657
G01 X4.3382 Y4.5125
G01 X4.5312 Y4.4551
G01 X4.6045 Y4.4370
G01 X4.7649 Y4.4015
G01 X4.9560 Y4.3614
G01 X4.9689 Y4.3591
G01 X5.0501 Y4.3466
G01 X5.1989 Y4.3270
G01 X5.3722 Y4.3055
G01 X5.4096 Y4.3015
G01 X5.4993 Y4.2956
G01 X5.8525 Y4.2807
G01 X109.9974 Y4.2805
G01 X110.2224 Y4.2896
G01 X110.3594 Y4.2956
G01 X110.4504 Y4.3015
G01 X110.4910 Y4.3058
G01 X110.6603 Y4.3269
G01 X110.8151 Y4.3474
G01 X110.8911 Y4.3591
G01 X110.9040 Y4.3614
G01 X111.0950 Y4.4015
G01 X111.2581 Y4.4376
G01 X111.3288 Y4.4551
G01 X111.5234 Y4.5131
G01 X111.6903 Y4.5657
G01 X111.7468 Y4.5850
G01 X111.9398 Y4.6603
G01 X112.1109 Y4.7311
G01 X112.1537 Y4.7502
G01 X112.3422 Y4.8423
G01 X112.5167 Y4.9332
G01 X112.5363 Y4.9439
G01 X112.7276 Y5.0578
G01 X112.9016 Y5.1687
G01 X112.9123 Y5.1759
G01 X113.0934 Y5.3053
G01 X113.2573 Y5.4310
G01 X113.2664 Y5.4384
G01 X113.4333 Y5.5797
G01 X113.5894 Y5.7227
G01 X113.7500 Y5.8829
G01 X113.8971 Y6.0432
G01 X114.0434 Y6.2158
G01 X114.1772 Y6.3900
G01 X114.3041 Y6.5677
G01 X114.3113 Y6.5784
G01 X114.4241 Y6.7556
G01 X114.5329 Y6.9380
G01 X114.5462 Y6.9621
G01 X114.6391 Y7.1406
G01 X114.7309 Y7.3284
G01 X114.7488 Y7.3691
G01 X114.8197 Y7.5402
G01 X114.8941 Y7.7307
G01 X114.9131 Y7.7860
G01 X114.9675 Y7.9583
G01 X115.0240 Y8.1483
G01 X115.0272 Y8.1599
G01 X115.0430 Y8.2245
G01 X115.0781 Y8.3830
G01 X115.1186 Y8.5760
G01 X115.1209 Y8.5889
G01 X115.1332 Y8.6689
G01 X115.1529 Y8.8182
G01 X115.1741 Y8.9888
G01 X115.1780 Y9.0243
G01 X115.1844 Y9.1206
G01 X115.1904 Y9.2580
G01 X115.1995 Y9.4826
G01 X115.1995 Y19.0105
G01 X115.1987 Y19.0247
G01 X115.1973 Y19.0332
G01 X115.1954 Y19.0416
G01 X115.1750 Y19.1113
G01 X115.1699 Y19.1253
G01 X115.1660 Y19.1334
G01 X115.1600 Y19.1437
G01 X115.1529 Y19.1533
G01 X115.1449 Y19.1621
G01 X115.1384 Y19.1682
G01 X115.0833 Y19.2159
G01 X115.0762 Y19.2214
G01 X115.0686 Y19.2263
G01 X115.0607 Y19.2306
G01 X115.0525 Y19.2343
G01 X115.0441 Y19.2374
G01 X115.0354 Y19.2399
G01 X114.9782 Y19.2523
G01 X114.9697 Y19.2537
G01 X114.9584 Y19.2545
G01 X107.5146 Y19.2545
G01 X107.4669 Y19.2571
G01 X107.4470 Y19.2592
G01 X107.4084 Y19.2654
G01 X107.2927 Y19.3086
G01 X107.2465 Y19.3339
G01 X107.1450 Y19.4098
G01 X102.1460 Y24.4088
G01 X102.1141 Y24.4443
G01 X102.1015 Y24.4599
G01 X102.0787 Y24.4916
G01 X102.0274 Y24.6039
G01 X102.0125 Y24.6545
G01 X101.9945 Y24.7799
G01 X101.9945 Y29.7454
G01 X101.9971 Y29.7931
G01 X101.9992 Y29.8130
G01 X102.0054 Y29.8516
G01 X102.0486 Y29.9673
G01 X102.0739 Y30.0135
G01 X102.1498 Y30.1150
G01 X107.1488 Y35.1140
G01 X107.1843 Y35.1459
G01 X107.1999 Y35.1585
G01 X107.2316 Y35.1813
G01 X107.3439 Y35.2326
G01 X107.3945 Y35.2475
G01 X107.5199 Y35.2655
G01 X114.9584 Y35.2655
G01 X114.9726 Y35.2667
G01 X114.9838 Y35.2689
G01 X115.0620 Y35.2919
G01 X115.0731 Y35.2963
G01 X115.0836 Y35.3019
G01 X115.0936 Y35.3085
G01 X115.1028 Y35.3160
G01 X115.1132 Y35.3266
G01 X115.1609 Y35.3817
G01 X115.1664 Y35.3888
G01 X115.1728 Y35.3990
G01 X115.1793 Y35.4125
G01 X115.1841 Y35.4267
G01 X115.1968 Y35.4840
G01 X115.1987 Y35.4953
G01 X115.1995 Y35.5095
G01 X115.1995 Y85.6799
G01 X115.1844 Y86.0394
G01 X115.1785 Y86.1303
G01 X115.1741 Y86.1712
G01 X115.1531 Y86.3402
G01 X115.1326 Y86.4951
G01 X115.1209 Y86.5711
G01 X115.1186 Y86.5840
G01 X115.0785 Y86.7749
G01 X115.0423 Y86.9381
G01 X115.0249 Y87.0088
G01 X114.9669 Y87.2036
G01 X114.9143 Y87.3702
G01 X114.8950 Y87.4268
G01 X114.8197 Y87.6199
G01 X114.7488 Y87.7909
G01 X114.7298 Y87.8337
G01 X114.6377 Y88.0222
G01 X114.5468 Y88.1967
G01 X114.5361 Y88.2163
G01 X114.4222 Y88.4076
G01 X114.3113 Y88.5816
G01 X114.3041 Y88.5923
G01 X114.1772 Y88.7700
G01 X114.0490 Y88.9373
G01 X114.0416 Y88.9464
G01 X113.9003 Y89.1132
G01 X113.7500 Y89.2771
G01 X113.5952 Y89.4318
G01 X113.4386 Y89.5755
G01 X113.2664 Y89.7216
G01 X113.2573 Y89.7290
G01 X113.0900 Y89.8572
G01 X112.9123 Y89.9841
G01 X112.9016 Y89.9913
G01 X112.7244 Y90.1041
G01 X112.5420 Y90.2129
G01 X112.5179 Y90.2262
G01 X112.3394 Y90.3191
G01 X112.1516 Y90.4109
G01 X112.1109 Y90.4288
G01 X111.9375 Y90.5006
G01 X111.7493 Y90.5741
G01 X111.6940 Y90.5931
G01 X111.5217 Y90.6475
G01 X111.3229 Y90.7065
G01 X111.2555 Y90.7230
G01 X111.0970 Y90.7581
G01 X110.9009 Y90.7992
G01 X110.8111 Y90.8132
G01 X110.6619 Y90.8329
G01 X110.4903 Y90.8542
G01 X110.4477 Y90.8587
G01 X110.3594 Y90.8644
G01 X109.9999 Y90.8795
G01 X5.8626 Y90.8795
G01 X5.6380 Y90.8704
G01 X5.5006 Y90.8644
G01 X5.4097 Y90.8585
G01 X5.3688 Y90.8541
G01 X5.1998 Y90.8331
G01 X5.0449 Y90.8126
G01 X4.9689 Y90.8009
G01 X4.9560 Y90.7986
G01 X4.7651 Y90.7586
G01 X4.6019 Y90.7223
G01 X4.5312 Y90.7049
G01 X4.3364 Y90.6469
G01 X4.1698 Y90.5943
G01 X4.1132 Y90.5750
G01 X3.9202 Y90.4997
G01 X3.7491 Y90.4288
G01 X3.7063 Y90.4098
G01 X3.5178 Y90.3177
G01 X3.3432 Y90.2268
G01 X3.3237 Y90.2161
G01 X3.1324 Y90.1022
G01 X2.9584 Y89.9913
G01 X2.9477 Y89.9841
G01 X2.7700 Y89.8572
G01 X2.6027 Y89.7290
G01 X2.5936 Y89.7216
G01 X2.4268 Y89.5803
G01 X2.2629 Y89.4300
G01 X2.1082 Y89.2752
G01 X1.9645 Y89.1186
G01 X1.8184 Y88.9464
G01 X1.8110 Y88.9373
G01 X1.6828 Y88.7700
G01 X1.5559 Y88.5923
G01 X1.5487 Y88.5816
G01 X1.4359 Y88.4044
G01 X1.3271 Y88.2220
G01 X1.3138 Y88.1979
G01 X1.2209 Y88.0194
G01 X1.1291 Y87.8316
G01 X1.1111 Y87.7909
G01 X1.0394 Y87.6175
G01 X0.9659 Y87.4293
G01 X0.9469 Y87.3740
G01 X0.8925 Y87.2016
G01 X0.8335 Y87.0029
G01 X0.8170 Y86.9355
G01 X0.7819 Y86.7769
G01 X0.7408 Y86.5808
G01 X0.7268 Y86.4912
G01 X0.7071 Y86.3417
G01 X0.6857 Y86.1701
G01 X0.6813 Y86.1278
G01 X0.6756 Y86.0394
G01 X0.6606 Y85.6850
G01 X0.6605 Y9.4826
G00 Z2.0000
G00 X0.7305 Y9.4826
G01 F30.00
G01 Z0.0000
G01 F100.00
G01 X0.7395 Y9.2606
G01 X0.7455 Y9.1237
G01 X0.7517 Y9.0304
G01 X0.7553 Y8.9976
G01 X0.7764 Y8.8283
G01 X0.7960 Y8.6792
G01 X0.8097 Y8.5917
G01 X0.8502 Y8.3983
G01 X0.8852 Y8.2404
G01 X0.9030 Y8.1683
G01 X0.9600 Y7.9771
G01 X1.0132 Y7.8085
G01 X1.0311 Y7.7562
G01 X1.1052 Y7.5664
G01 X1.1759 Y7.3958
G01 X1.1926 Y7.3580
G01 X1.2835 Y7.1721
G01 X1.3756 Y6.9950
G01 X1.3872 Y6.9739
G01 X1.4955 Y6.7922
G01 X1.6077 Y6.6160
G01 X1.7391 Y6.4317
G01 X1.8710 Y6.2598
G01 X2.0154 Y6.0895
G01 X2.1595 Y5.9324
G01 X2.3178 Y5.7743
G01 X2.4730 Y5.6323
G01 X2.6388 Y5.4918
G01 X2.8083 Y5.3615
G01 X2.9884 Y5.2328
G01 X3.1692 Y5.1174
G01 X3.3592 Y5.0042
G01 X3.3755 Y4.9953
G01 X3.5521 Y4.9035
G01 X3.7371 Y4.8130
G01 X3.7730 Y4.7971
G01 X3.9490 Y4.7242
G01 X4.1362 Y4.6511
G01 X4.1915 Y4.6322
G01 X4.3587 Y4.5795
G01 X4.5495 Y4.5227
G01 X4.6204 Y4.5052
G01 X4.7797 Y4.4699
G01 X4.9795 Y4.4283
G01 X5.0592 Y4.4160
G01 X5.2080 Y4.3965
G01 X5.3799 Y4.3750
G01 X5.4157 Y4.3712
G01 X5.5031 Y4.3655
G01 X5.8554 Y4.3506
G01 X109.9974 Y4.3505
G01 X110.2195 Y4.3595
G01 X110.3563 Y4.3655
G01 X110.4443 Y4.3712
G01 X110.4824 Y4.3753
G01 X110.6517 Y4.3964
G01 X110.8044 Y4.4166
G01 X110.8896 Y4.4299
G01 X111.0802 Y4.4699
G01 X111.2422 Y4.5058
G01 X111.3117 Y4.5230
G01 X111.5029 Y4.5800
G01 X111.6685 Y4.6322
G01 X111.7228 Y4.6507
G01 X111.9137 Y4.7252
G01 X112.0841 Y4.7958
G01 X112.1230 Y4.8130
G01 X112.3106 Y4.9048
G01 X112.4844 Y4.9953
G01 X112.5016 Y5.0047
G01 X112.6909 Y5.1174
G01 X112.8716 Y5.2329
G01 X113.0517 Y5.3616
G01 X113.2212 Y5.4918
G01 X113.3870 Y5.6323
G01 X113.5421 Y5.7743
G01 X113.7005 Y5.9324
G01 X113.8446 Y6.0894
G01 X113.9889 Y6.2597
G01 X114.1210 Y6.4317
G01 X114.2523 Y6.6160
G01 X114.3645 Y6.7923
G01 X114.4727 Y6.9739
G01 X114.4844 Y6.9951
G01 X114.5766 Y7.1722
G01 X114.6674 Y7.3579
G01 X114.6842 Y7.3959
G01 X114.7547 Y7.5663
G01 X114.8289 Y7.7562
G01 X114.8468 Y7.8085
G01 X114.9006 Y7.9788
G01 X114.9570 Y8.1683
G01 X114.9748 Y8.2404
G01 X115.0098 Y8.3982
G01 X115.0517 Y8.5996
G01 X115.0639 Y8.6787
G01 X115.0835 Y8.8273
G01 X115.1047 Y8.9974
G01 X115.1083 Y9.0304
G01 X115.1145 Y9.1237
G01 X115.1205 Y9.2609
G01 X115.1295 Y9.4826
G01 X115.1295 Y19.0105
G01 X115.1290 Y19.0176
G01 X115.1278 Y19.0234
G01 X115.1078 Y19.0916
G01 X115.1057 Y19.0975
G01 X115.1008 Y19.1061
G01 X115.0944 Y19.1137
G01 X115.0398 Y19.1611
G01 X115.0316 Y19.1668
G01 X115.0260 Y19.1696
G01 X115.0189 Y19.1719
G01 X114.9650 Y19.1836
G01 X114.9555 Y19.1845
G01 X107.5127 Y19.1845
G01 X107.4613 Y19.1873
G01 X107.4377 Y19.1898
G01 X107.3904 Y19.1975
G01 X107.2636 Y19.2448
G01 X107.2085 Y19.2748
G01 X107.0991 Y19.3568
G01 X102.0952 Y24.3606
G01 X102.0608 Y24.3989
G01 X102.0458 Y24.4175
G01 X102.0179 Y24.4563
G01 X101.9616 Y24.5794
G01 X101.9440 Y24.6396
G01 X101.9245 Y24.7749
G01 X101.9245 Y29.7473
G01 X101.9273 Y29.7987
G01 X101.9298 Y29.8223
G01 X101.9375 Y29.8696
G01 X101.9848 Y29.9964
G01 X102.0148 Y30.0515
G01 X102.0968 Y30.1609
G01 X107.1006 Y35.1648
G01 X107.1389 Y35.1992
G01 X107.1575 Y35.2142
G01 X107.1963 Y35.2421
G01 X107.3194 Y35.2984
G01 X107.3796 Y35.3160
G01 X107.5149 Y35.3355
G01 X114.9567 Y35.3355
G01 X114.9626 Y35.3360
G01 X114.9684 Y35.3372
G01 X115.0378 Y35.3576
G01 X115.0425 Y35.3593
G01 X115.0480 Y35.3621
G01 X115.0521 Y35.3649
G01 X115.0569 Y35.3689
G01 X115.1061 Y35.4252
G01 X115.1118 Y35.4334
G01 X115.1146 Y35.4390
G01 X115.1169 Y35.4461
G01 X115.1284 Y35.4989
G01 X115.1293 Y35.5047
G01 X115.1295 Y35.5095
G01 X115.1295 Y85.6785
G01 X115.1145 Y86.0363
G01 X115.1088 Y86.1242
G01 X115.1047 Y86.1626
G01 X115.0836 Y86.3315
G01 X115.0634 Y86.4845
G01 X115.0501 Y86.5697
G01 X115.0101 Y86.7602
G01 X114.9742 Y86.9222
G01 X114.9570 Y86.9917
G01 X114.9000 Y87.1831
G01 X114.8478 Y87.3485
G01 X114.8293 Y87.4028
G01 X114.7547 Y87.5938
G01 X114.6842 Y87.7641
G01 X114.6670 Y87.8030
G01 X114.5752 Y87.9906
G01 X114.4847 Y88.1644
G01 X114.4754 Y88.1815
G01 X114.3626 Y88.3709
G01 X114.2471 Y88.5516
G01 X114.1210 Y88.7283
G01 X113.9934 Y88.8947
G01 X113.8478 Y89.0669
G01 X113.7005 Y89.2276
G01 X113.5468 Y89.3812
G01 X113.3913 Y89.5239
G01 X113.2147 Y89.6734
G01 X113.0483 Y89.8010
G01 X112.8716 Y89.9271
G01 X112.6877 Y90.0445
G01 X112.5061 Y90.1527
G01 X112.4849 Y90.1645
G01 X112.3078 Y90.2566
G01 X112.1221 Y90.3474
G01 X112.0841 Y90.3642
G01 X111.9114 Y90.4357
G01 X111.7238 Y90.5089
G01 X111.6715 Y90.5268
G01 X111.5012 Y90.5806
G01 X111.3046 Y90.6389
G01 X111.2396 Y90.6548
G01 X111.0819 Y90.6898
G01 X110.8883 Y90.7303
G01 X110.8012 Y90.7439
G01 X110.6527 Y90.7635
G01 X110.4826 Y90.7847
G01 X110.4432 Y90.7888
G01 X110.3563 Y90.7945
G01 X109.9985 Y90.8095
G01 X5.8626 Y90.8095
G01 X5.6409 Y90.8005
G01 X5.5037 Y90.7945
G01 X5.4158 Y90.7888
G01 X5.3774 Y90.7847
G01 X5.2085 Y90.7636
G01 X5.0555 Y90.7434
G01 X4.9703 Y90.7301
G01 X4.7798 Y90.6901
G01 X4.6178 Y90.6542
G01 X4.5483 Y90.6370
G01 X4.3569 Y90.5800
G01 X4.1915 Y90.5278
G01 X4.1372 Y90.5093
G01 X3.9463 Y90.4347
G01 X3.7759 Y90.3642
G01 X3.7370 Y90.3470
G01 X3.5494 Y90.2552
G01 X3.3755 Y90.1647
G01 X3.3585 Y90.1554
G01 X3.1691 Y90.0426
G01 X2.9884 Y89.9271
G01 X2.8117 Y89.8010
G01 X2.6453 Y89.6734
G01 X2.4730 Y89.5277
G01 X2.3124 Y89.3805
G01 X2.1588 Y89.2268
G01 X2.0161 Y89.0713
G01 X1.8666 Y88.8947
G01 X1.7390 Y88.7283
G01 X1.6129 Y88.5516
G01 X1.4955 Y88.3677
G01 X1.3873 Y88.1861
G01 X1.3755 Y88.1649
G01 X1.2834 Y87.9878
G01 X1.1926 Y87.8021
G01 X1.1758 Y87.7641
G01 X1.1043 Y87.5914
G01 X1.0311 Y87.4038
G01 X1.0132 Y87.3515
G01 X0.9594 Y87.1811
G01 X0.9011 Y86.9846
G01 X0.8852 Y86.9196
G01 X0.8502 Y86.7617
G01 X0.8097 Y86.5683
G01 X0.7961 Y86.4813
G01 X0.7765 Y86.3326
G01 X0.7553 Y86.1624
G01 X0.7512 Y86.1232
G01 X0.7455 Y86.0363
G01 X0.7306 Y85.6836
G01 X0.7305 Y9.4826
G00 Z2.0000
G00 X19.6207 Y43.3020
G01 F30.00
G01 Z0.0000
G01 F100.00
G01 X19.6399 Y43.0823
G01 X19.6970 Y42.8692
G01 X19.7902 Y42.6693
G01 X19.9167 Y42.4887
G01 X20.0727 Y42.3327
G01 X20.2533 Y42.2062
G01 X20.4532 Y42.1130
G01 X20.6663 Y42.0559
G01 X20.8860 Y42.0367
G01 X21.1057 Y42.0559
G01 X21.3188 Y42.1130
G01 X21.5187 Y42.2062
G01 X21.6993 Y42.3327
G01 X21.8553 Y42.4887
G01 X21.8853 Y42.5311
G01 X21.9268 Y42.5710
G01 X21.9348 Y42.5762
G01 X21.9426 Y42.5794
G01 X22.0119 Y42.5998
G01 X22.0189 Y42.6011
G01 X22.0249 Y42.6015
G01 X32.4496 Y42.6014
G01 X32.4568 Y42.6006
G01 X32.5073 Y42.5905
G01 X32.5130 Y42.5886
G01 X32.5173 Y42.5865
G01 X32.5253 Y42.5813
G01 X32.5799 Y42.5377
G01 X32.5843 Y42.5337
G01 X32.5890 Y42.5283
G01 X32.6167 Y42.4887
G01 X32.7727 Y42.3327
G01 X32.9533 Y42.2062
G01 X33.1532 Y42.1130
G01 X33.3663 Y42.0559
G01 X33.5860 Y42.0367
G01 X33.8057 Y42.0559
G01 X34.0188 Y42.1130
G01 X34.2187 Y42.2062
G01 X34.3993 Y42.3327
G01 X34.5553 Y42.4887
G01 X34.5853 Y42.5311
G01 X34.6268 Y42.5710
G01 X34.6348 Y42.5762
G01 X34.6426 Y42.5794
G01 X34.7119 Y42.5998
G01 X34.7189 Y42.6011
G01 X34.7249 Y42.6015
G01 X48.6996 Y42.6015
G01 X48.7117 Y42.6010
G01 X48.7212 Y42.5991
G01 X48.7937 Y42.5731
G01 X48.8019 Y42.5683
G01 X48.8664 Y42.5214
G01 X49.0297 Y42.4487
G01 X49.2046 Y42.4115
G01 X49.3834 Y42.4115
G01 X49.5583 Y42.4487
G01 X49.7216 Y42.5214
G01 X49.7861 Y42.5683
G01 X49.7952 Y42.5744
G01 X49.8005 Y42.5773
G01 X49.8073 Y42.5798
G01 X49.8755 Y42.5998
G01 X49.8813 Y42.6010
G01 X49.8872 Y42.6015
G01 X57.3403 Y42.6015
G01 X57.3488 Y42.6006
G01 X57.3993 Y42.5905
G01 X57.4083 Y42.5871
G01 X57.4135 Y42.5841
G01 X57.4173 Y42.5813
G01 X57.4719 Y42.5377
G01 X57.4763 Y42.5337
G01 X57.4810 Y42.5283
G01 X57.5087 Y42.4887
G01 X57.6647 Y42.3327
G01 X57.8453 Y42.2062
G01 X58.0452 Y42.1130
G01 X58.2583 Y42.0559
G01 X58.4780 Y42.0367
G01 X58.6977 Y42.0559
G01 X58.9108 Y42.1130
G01 X59.1107 Y42.2062
G01 X59.2913 Y42.3327
G01 X59.4473 Y42.4887
G01 X59.4773 Y42.5311
G01 X59.5188 Y42.5710
G01 X59.5268 Y42.5762
G01 X59.5346 Y42.5794
G01 X59.6039 Y42.5998
G01 X59.6098 Y42.6010
G01 X59.6157 Y42.6015
G01 X69.7876 Y42.6014
G01 X69.7948 Y42.6006
G01 X69.8453 Y42.5905
G01 X69.8543 Y42.5871
G01 X69.8595 Y42.5841
G01 X69.8633 Y42.5813
G01 X69.9179 Y42.5377
G01 X69.9223 Y42.5337
G01 X69.9270 Y42.5283
G01 X69.9547 Y42.4887
G01 X70.1107 Y42.3327
G01 X70.2913 Y42.2062
G01 X70.4912 Y42.1130
G01 X70.7043 Y42.0559
G01 X70.9240 Y42.0367
G01 X71.1437 Y42.0559
G01 X71.3568 Y42.1130
G01 X71.5567 Y42.2062
G01 X71.7373 Y42.3327
G01 X71.8933 Y42.4887
G01 X71.9233 Y42.5311
G01 X71.9648 Y42.5710
G01 X71.9728 Y42.5762
G01 X71.9806 Y42.5794
G01 X72.0499 Y42.5998
G01 X72.0558 Y42.6010
G01 X72.0605 Y42.6014
G01 X82.2311 Y42.6015
G01 X82.2396 Y42.6008
G01 X82.2901 Y42.5908
G01 X82.2959 Y42.5890
G01 X82.3003 Y42.5871
G01 X82.3055 Y42.5841
G01 X82.3093 Y42.5813
G01 X82.3639 Y42.5377
G01 X82.3683 Y42.5337
G01 X82.3730 Y42.5283
G01 X82.4007 Y42.4887
G01 X82.5567 Y42.3327
G01 X82.7373 Y42.2062
G01 X82.9372 Y42.1130
G01 X83.1503 Y42.0559
G01 X83.3700 Y42.0367
G01 X83.5897 Y42.0559
G01 X83.8028 Y42.1130
G01 X84.0027 Y42.2062
G01 X84.1833 Y42.3327
G01 X84.3393 Y42.4887
G01 X84.4658 Y42.6693
G01 X84.5590 Y42.8692
G01 X84.6161 Y43.0823
G01 X84.6353 Y43.3020
G01 X84.6161 Y43.5217
G01 X84.5590 Y43.7348
G01 X84.4658 Y43.9347
G01 X84.3393 Y44.1153
G01 X84.1833 Y44.2713
G01 X84.0027 Y44.3978
G01 X83.8028 Y44.4910
G01 X83.5897 Y44.5481
G01 X83.3700 Y44.5673
G01 X83.1503 Y44.5481
G01 X82.9372 Y44.4910
G01 X82.7373 Y44.3978
G01 X82.5567 Y44.2713
G01 X82.4007 Y44.1153
G01 X82.3707 Y44.0729
G01 X82.3292 Y44.0330
G01 X82.3212 Y44.0278
G01 X82.3134 Y44.0246
G01 X82.2441 Y44.0042
G01 X82.2371 Y44.0029
G01 X82.2311 Y44.0025
G01 X72.0604 Y44.0026
G01 X72.0532 Y44.0034
G01 X72.0027 Y44.0135
G01 X71.9938 Y44.0169
G01 X71.9896 Y44.0192
G01 X71.9847 Y44.0227
G01 X71.9301 Y44.0663
G01 X71.9257 Y44.0703
G01 X71.9210 Y44.0757
G01 X71.8933 Y44.1153
G01 X71.7373 Y44.2713
G01 X71.5567 Y44.3978
G01 X71.3568 Y44.4910
G01 X71.1437 Y44.5481
G01 X70.9240 Y44.5673
G01 X70.7043 Y44.5481
G01 X70.4912 Y44.4910
G01 X70.2913 Y44.3978
G01 X70.1107 Y44.2713
G01 X69.9547 Y44.1153
G01 X69.9247 Y44.0729
G01 X69.8832 Y44.0330
G01 X69.8762 Y44.0283
G01 X69.8674 Y44.0246
G01 X69.7981 Y44.0042
G01 X69.7911 Y44.0029
G01 X69.7851 Y44.0025
G01 X59.6144 Y44.0026
G01 X59.6072 Y44.0034
G01 X59.5567 Y44.0135
G01 X59.5510 Y44.0154
G01 X59.5467 Y44.0175
G01 X59.5387 Y44.0227
G01 X59.4841 Y44.0663
G01 X59.4797 Y44.0703
G01 X59.4750 Y44.0757
G01 X59.4473 Y44.1153
G01 X59.2913 Y44.2713
G01 X59.1107 Y44.3978
G01 X58.9108 Y44.4910
G01 X58.6977 Y44.5481
G01 X58.4780 Y44.5673
G01 X58.2583 Y44.5481
G01 X58.0452 Y44.4910
G01 X57.8453 Y44.3978
G01 X57.6647 Y44.2713
G01 X57.5087 Y44.1153
G01 X57.4787 Y44.0729
G01 X57.4372 Y44.0330
G01 X57.4302 Y44.0283
G01 X57.4214 Y44.0246
G01 X57.3521 Y44.0042
G01 X57.3462 Y44.0030
G01 X57.3403 Y44.0025
G01 X49.7577 Y44.0025
G01 X49.7484 Y44.0036
G01 X49.6980 Y44.0143
G01 X49.6913 Y44.0162
G01 X49.5583 Y44.0753
G01 X49.3834 Y44.1125
G01 X49.2046 Y44.1125
G01 X49.0297 Y44.0753
G01 X48.8967 Y44.0162
G01 X48.8900 Y44.0143
G01 X48.8396 Y44.0036
G01 X48.8338 Y44.0027
G01 X48.8292 Y44.0025
G01 X34.7237 Y44.0025
G01 X34.7152 Y44.0034
G01 X34.6647 Y44.0135
G01 X34.6558 Y44.0169
G01 X34.6505 Y44.0199
G01 X34.6467 Y44.0227
G01 X34.5921 Y44.0663
G01 X34.5877 Y44.0703
G01 X34.5830 Y44.0757
G01 X34.5553 Y44.1153
G01 X34.3993 Y44.2713
G01 X34.2187 Y44.3978
G01 X34.0188 Y44.4910
G01 X33.8057 Y44.5481
G01 X33.5860 Y44.5673
G01 X33.3663 Y44.5481
G01 X33.1532 Y44.4910
G01 X32.9533 Y44.3978
G01 X32.7727 Y44.2713
G01 X32.6167 Y44.1153
G01 X32.5867 Y44.0729
G01 X32.5452 Y44.0330
G01 X32.5372 Y44.0278
G01 X32.5294 Y44.0246
G01 X32.4601 Y44.0042
G01 X32.4542 Y44.0030
G01 X32.4495 Y44.0026
G01 X22.0249 Y44.0025
G01 X22.0164 Y44.0032
G01 X21.9659 Y44.0132
G01 X21.9601 Y44.0150
G01 X21.9558 Y44.0169
G01 X21.9505 Y44.0199
G01 X21.9467 Y44.0227
G01 X21.8921 Y44.0663
G01 X21.8877 Y44.0703
G01 X21.8830 Y44.0757
G01 X21.8553 Y44.1153
G01 X21.6993 Y44.2713
G01 X21.5187 Y44.3978
G01 X21.3188 Y44.4910
G01 X21.1057 Y44.5481
G01 X20.8860 Y44.5673
G01 X20.6663 Y44.5481
G01 X20.4532 Y44.4910
G01 X20.2533 Y44.3978
G01 X20.0727 Y44.2713
G01 X19.9167 Y44.1153
G01 X19.7902 Y43.9347
G01 X19.6970 Y43.7348
G01 X19.6399 Y43.5217
G01 X19.6207 Y43.3020
G00 Z2.0000
G00 X19.6910 Y43.3020
G01 F30.00
G01 Z0.0000
G01 F100.00
G01 X19.7091 Y43.0945
G01 X19.7630 Y42.8933
G01 X19.8511 Y42.7045
G01 X19.9705 Y42.5338
G01 X20.1178 Y42.3865
G01 X20.2885 Y42.2671
G01 X20.4773 Y42.1790
G01 X20.6785 Y42.1251
G01 X20.8860 Y42.1070
G01 X21.0935 Y42.1251
G01 X21.2947 Y42.1790
G01 X21.4835 Y42.2671
G01 X21.6542 Y42.3865
G01 X21.8015 Y42.5338
G01 X21.8267 Y42.5698
G01 X21.8341 Y42.5789
G01 X21.8401 Y42.5851
G01 X21.8747 Y42.6183
G01 X21.8856 Y42.6277
G01 X21.8927 Y42.6326
G01 X21.9027 Y42.6384
G01 X21.9131 Y42.6432
G01 X21.9213 Y42.6461
G01 X21.9966 Y42.6681
G01 X22.0106 Y42.6707
G01 X22.0249 Y42.6715
G01 X32.4530 Y42.6714
G01 X32.4617 Y42.6706
G01 X32.4703 Y42.6692
G01 X32.5173 Y42.6600
G01 X32.5285 Y42.6572
G01 X32.5393 Y42.6534
G01 X32.5498 Y42.6486
G01 X32.5597 Y42.6427
G01 X32.5668 Y42.6378
G01 X32.6236 Y42.5924
G01 X32.6342 Y42.5828
G01 X32.6400 Y42.5765
G01 X32.6453 Y42.5698
G01 X32.6705 Y42.5338
G01 X32.8178 Y42.3865
G01 X32.9885 Y42.2671
G01 X33.1773 Y42.1790
G01 X33.3785 Y42.1251
G01 X33.5860 Y42.1070
G01 X33.7935 Y42.1251
G01 X33.9947 Y42.1790
G01 X34.1835 Y42.2671
G01 X34.3542 Y42.3865
G01 X34.5015 Y42.5338
G01 X34.5267 Y42.5698
G01 X34.5341 Y42.5789
G01 X34.5401 Y42.5851
G01 X34.5747 Y42.6183
G01 X34.5856 Y42.6277
G01 X34.5952 Y42.6341
G01 X34.6027 Y42.6384
G01 X34.6131 Y42.6432
G01 X34.6213 Y42.6461
G01 X34.6966 Y42.6681
G01 X34.7106 Y42.6707
G01 X34.7249 Y42.6715
G01 X48.6996 Y42.6715
G01 X48.7130 Y42.6711
G01 X48.7217 Y42.6704
G01 X48.7303 Y42.6690
G01 X48.7387 Y42.6669
G01 X48.7470 Y42.6643
G01 X48.8128 Y42.6408
G01 X48.8208 Y42.6377
G01 X48.8310 Y42.6326
G01 X48.8407 Y42.6266
G01 X48.9016 Y42.5823
G01 X49.0515 Y42.5156
G01 X49.2120 Y42.4815
G01 X49.3760 Y42.4815
G01 X49.5365 Y42.5156
G01 X49.6864 Y42.5823
G01 X49.7478 Y42.6269
G01 X49.7610 Y42.6355
G01 X49.7713 Y42.6409
G01 X49.7848 Y42.6461
G01 X49.8573 Y42.6674
G01 X49.8713 Y42.6703
G01 X49.8855 Y42.6715
G01 X57.3420 Y42.6715
G01 X57.3508 Y42.6709
G01 X57.3594 Y42.6698
G01 X57.4093 Y42.6600
G01 X57.4205 Y42.6572
G01 X57.4313 Y42.6534
G01 X57.4418 Y42.6486
G01 X57.4493 Y42.6443
G01 X57.4588 Y42.6378
G01 X57.5156 Y42.5924
G01 X57.5262 Y42.5828
G01 X57.5320 Y42.5765
G01 X57.5373 Y42.5698
G01 X57.5625 Y42.5338
G01 X57.7098 Y42.3865
G01 X57.8805 Y42.2671
G01 X58.0693 Y42.1790
G01 X58.2705 Y42.1251
G01 X58.4780 Y42.1070
G01 X58.6855 Y42.1251
G01 X58.8867 Y42.1790
G01 X59.0755 Y42.2671
G01 X59.2462 Y42.3865
G01 X59.3935 Y42.5338
G01 X59.4187 Y42.5698
G01 X59.4261 Y42.5789
G01 X59.4321 Y42.5851
G01 X59.4667 Y42.6183
G01 X59.4776 Y42.6277
G01 X59.4872 Y42.6341
G01 X59.4947 Y42.6384
G01 X59.5051 Y42.6432
G01 X59.5133 Y42.6461
G01 X59.5886 Y42.6681
G01 X59.5998 Y42.6703
G01 X59.6140 Y42.6715
G01 X69.7910 Y42.6714
G01 X69.7997 Y42.6706
G01 X69.8083 Y42.6692
G01 X69.8553 Y42.6600
G01 X69.8665 Y42.6572
G01 X69.8773 Y42.6534
G01 X69.8878 Y42.6486
G01 X69.8953 Y42.6443
G01 X69.9048 Y42.6378
G01 X69.9616 Y42.5924
G01 X69.9722 Y42.5828
G01 X69.9780 Y42.5765
G01 X69.9833 Y42.5698
G01 X70.0085 Y42.5338
G01 X70.1558 Y42.3865
G01 X70.3265 Y42.2671
G01 X70.5153 Y42.1790
G01 X70.7165 Y42.1251
G01 X70.9240 Y42.1070
G01 X71.1315 Y42.1251
G01 X71.3327 Y42.1790
G01 X71.5215 Y42.2671
G01 X71.6922 Y42.3865
G01 X71.8395 Y42.5338
G01 X71.8647 Y42.5698
G01 X71.8721 Y42.5789
G01 X71.8781 Y42.5851
G01 X71.9127 Y42.6183
G01 X71.9236 Y42.6277
G01 X71.9332 Y42.6341
G01 X71.9407 Y42.6384
G01 X71.9511 Y42.6432
G01 X71.9593 Y42.6461
G01 X72.0318 Y42.6674
G01 X72.0430 Y42.6698
G01 X72.0572 Y42.6714
G01 X82.2311 Y42.6715
G01 X82.2399 Y42.6712
G01 X82.2514 Y42.6698
G01 X82.3013 Y42.6600
G01 X82.3097 Y42.6580
G01 X82.3207 Y42.6545
G01 X82.3312 Y42.6499
G01 X82.3413 Y42.6443
G01 X82.3508 Y42.6378
G01 X82.4076 Y42.5924
G01 X82.4182 Y42.5828
G01 X82.4240 Y42.5765
G01 X82.4293 Y42.5698
G01 X82.4545 Y42.5338
G01 X82.6018 Y42.3865
G01 X82.7725 Y42.2671
G01 X82.9613 Y42.1790
G01 X83.1625 Y42.1251
G01 X83.3700 Y42.1070
G01 X83.5775 Y42.1251
G01 X83.7787 Y42.1790
G01 X83.9675 Y42.2671
G01 X84.1382 Y42.3865
G01 X84.2855 Y42.5338
G01 X84.4049 Y42.7045
G01 X84.4930 Y42.8933
G01 X84.5469 Y43.0945
G01 X84.5650 Y43.3020
G01 X84.5469 Y43.5095
G01 X84.4930 Y43.7107
G01 X84.4049 Y43.8995
G01 X84.2855 Y44.0702
G01 X84.1382 Y44.2175
G01 X83.9675 Y44.3369
G01 X83.7787 Y44.4250
G01 X83.5775 Y44.4789
G01 X83.3700 Y44.4970
G01 X83.1625 Y44.4789
G01 X82.9613 Y44.4250
G01 X82.7725 Y44.3369
G01 X82.6018 Y44.2175
G01 X82.4545 Y44.0702
G01 X82.4293 Y44.0342
G01 X82.4219 Y44.0251
G01 X82.4159 Y44.0189
G01 X82.3813 Y43.9857
G01 X82.3704 Y43.9763
G01 X82.3608 Y43.9699
G01 X82.3533 Y43.9656
G01 X82.3429 Y43.9608
G01 X82.3347 Y43.9579
G01 X82.2594 Y43.9359
G01 X82.2454 Y43.9333
G01 X82.2311 Y43.9325
G01 X72.0570 Y43.9326
G01 X72.0483 Y43.9334
G01 X72.0397 Y43.9348
G01 X71.9927 Y43.9440
G01 X71.9815 Y43.9468
G01 X71.9707 Y43.9506
G01 X71.9602 Y43.9554
G01 X71.9503 Y43.9613
G01 X71.9432 Y43.9662
G01 X71.8864 Y44.0116
G01 X71.8758 Y44.0212
G01 X71.8700 Y44.0275
G01 X71.8647 Y44.0342
G01 X71.8395 Y44.0702
G01 X71.6922 Y44.2175
G01 X71.5215 Y44.3369
G01 X71.3327 Y44.4250
G01 X71.1315 Y44.4789
G01 X70.9240 Y44.4970
G01 X70.7165 Y44.4789
G01 X70.5153 Y44.4250
G01 X70.3265 Y44.3369
G01 X70.1558 Y44.2175
G01 X70.0085 Y44.0702
G01 X69.9833 Y44.0342
G01 X69.9759 Y44.0251
G01 X69.9699 Y44.0189
G01 X69.9353 Y43.9857
G01 X69.9244 Y43.9763
G01 X69.9148 Y43.9699
G01 X69.9073 Y43.9656
G01 X69.8995 Y43.9619
G01 X69.8887 Y43.9579
G01 X69.8134 Y43.9359
G01 X69.7994 Y43.9333
G01 X69.7851 Y43.9325
G01 X59.6110 Y43.9326
G01 X59.6023 Y43.9334
G01 X59.5937 Y43.9348
G01 X59.5467 Y43.9440
G01 X59.5355 Y43.9468
G01 X59.5273 Y43.9495
G01 X59.5168 Y43.9541
G01 X59.5067 Y43.9597
G01 X59.4972 Y43.9662
G01 X59.4404 Y44.0116
G01 X59.4298 Y44.0212
G01 X59.4240 Y44.0275
G01 X59.4187 Y44.0342
G01 X59.3935 Y44.0702
G01 X59.2462 Y44.2175
G01 X59.0755 Y44.3369
G01 X58.8867 Y44.4250
G01 X58.6855 Y44.4789
G01 X58.4780 Y44.4970
G01 X58.2705 Y44.4789
G01 X58.0693 Y44.4250
G01 X57.8805 Y44.3369
G01 X57.7098 Y44.2175
G01 X57.5625 Y44.0702
G01 X57.5373 Y44.0342
G01 X57.5299 Y44.0251
G01 X57.5239 Y44.0189
G01 X57.4893 Y43.9857
G01 X57.4784 Y43.9763
G01 X57.4688 Y43.9699
G01 X57.4613 Y43.9656
G01 X57.4535 Y43.9619
G01 X57.4427 Y43.9579
G01 X57.3674 Y43.9359
G01 X57.3534 Y43.9333
G01 X57.3420 Y43.9325
G01 X49.7560 Y43.9325
G01 X49.7449 Y43.9333
G01 X49.7366 Y43.9346
G01 X49.6834 Y43.9458
G01 X49.6700 Y43.9495
G01 X49.6596 Y43.9536
G01 X49.5365 Y44.0084
G01 X49.3760 Y44.0425
G01 X49.2120 Y44.0425
G01 X49.0515 Y44.0084
G01 X48.9284 Y43.9536
G01 X48.9180 Y43.9495
G01 X48.9046 Y43.9458
G01 X48.8514 Y43.9346
G01 X48.8403 Y43.9330
G01 X48.8292 Y43.9325
G01 X34.7220 Y43.9325
G01 X34.7132 Y43.9331
G01 X34.7046 Y43.9342
G01 X34.6547 Y43.9440
G01 X34.6435 Y43.9468
G01 X34.6327 Y43.9506
G01 X34.6248 Y43.9541
G01 X34.6147 Y43.9597
G01 X34.6052 Y43.9662
G01 X34.5484 Y44.0116
G01 X34.5378 Y44.0212
G01 X34.5320 Y44.0275
G01 X34.5267 Y44.0342
G01 X34.5015 Y44.0702
G01 X34.3542 Y44.2175
G01 X34.1835 Y44.3369
G01 X33.9947 Y44.4250
G01 X33.7935 Y44.4789
G01 X33.5860 Y44.4970
G01 X33.3785 Y44.4789
G01 X33.1773 Y44.4250
G01 X32.9885 Y44.3369
G01 X32.8178 Y44.2175
G01 X32.6705 Y44.0702
G01 X32.6453 Y44.0342
G01 X32.6379 Y44.0251
G01 X32.6319 Y44.0189
G01 X32.5973 Y43.9857
G01 X32.5864 Y43.9763
G01 X32.5793 Y43.9714
G01 X32.5693 Y43.9656
G01 X32.5615 Y43.9619
G01 X32.5507 Y43.9579
G01 X32.4782 Y43.9366
G01 X32.4670 Y43.9342
G01 X32.4528 Y43.9326
G01 X22.0249 Y43.9325
G01 X22.0161 Y43.9328
G01 X22.0046 Y43.9342
G01 X21.9547 Y43.9440
G01 X21.9463 Y43.9460
G01 X21.9353 Y43.9495
G01 X21.9248 Y43.9541
G01 X21.9147 Y43.9597
G01 X21.9052 Y43.9662
G01 X21.8484 Y44.0116
G01 X21.8378 Y44.0212
G01 X21.8320 Y44.0275
G01 X21.8267 Y44.0342
G01 X21.8015 Y44.0702
G01 X21.6542 Y44.2175
G01 X21.4835 Y44.3369
G01 X21.2947 Y44.4250
G01 X21.0935 Y44.4789
G01 X20.8860 Y44.4970
G01 X20.6785 Y44.4789
G01 X20.4773 Y44.4250
G01 X20.2885 Y44.3369
G01 X20.1178 Y44.2175
G01 X19.9705 Y44.0702
G01 X19.8511 Y43.8995
G01 X19.7630 Y43.7107
G01 X19.7091 Y43.5095
G01 X19.6910 Y43.3020
G00 Z2.0000
G00 X19.7612 Y43.3020
G01 F30.00
G01 Z0.0000
G01 F100.00
G01 X19.7783 Y43.1067
G01 X19.8291 Y42.9173
G01 X19.9119 Y42.7396
G01 X20.0244 Y42.5790
G01 X20.1630 Y42.4404
G01 X20.3236 Y42.3279
G01 X20.5013 Y42.2451
G01 X20.6907 Y42.1943
G01 X20.8860 Y42.1772
G01 X21.0813 Y42.1943
G01 X21.2707 Y42.2451
G01 X21.4484 Y42.3279
G01 X21.6090 Y42.4404
G01 X21.7476 Y42.5790
G01 X21.7731 Y42.6150
G01 X21.7820 Y42.6257
G01 X21.7884 Y42.6324
G01 X21.8295 Y42.6719
G01 X21.8364 Y42.6779
G01 X21.8472 Y42.6863
G01 X21.8586 Y42.6938
G01 X21.8705 Y42.7006
G01 X21.8871 Y42.7081
G01 X21.8999 Y42.7128
G01 X21.9713 Y42.7338
G01 X21.9845 Y42.7372
G01 X22.0023 Y42.7402
G01 X22.0113 Y42.7410
G01 X22.0249 Y42.7415
G01 X32.4564 Y42.7413
G01 X32.4702 Y42.7401
G01 X32.4793 Y42.7388
G01 X32.5308 Y42.7287
G01 X32.5485 Y42.7243
G01 X32.5657 Y42.7182
G01 X32.5782 Y42.7126
G01 X32.5902 Y42.7061
G01 X32.6055 Y42.6962
G01 X32.6673 Y42.6470
G01 X32.6743 Y42.6412
G01 X32.6841 Y42.6319
G01 X32.6903 Y42.6253
G01 X32.6990 Y42.6149
G01 X32.7244 Y42.5790
G01 X32.8630 Y42.4404
G01 X33.0236 Y42.3279
G01 X33.2013 Y42.2451
G01 X33.3907 Y42.1943
G01 X33.5860 Y42.1772
G01 X33.7813 Y42.1943
G01 X33.9707 Y42.2451
G01 X34.1484 Y42.3279
G01 X34.3090 Y42.4404
G01 X34.4476 Y42.5790
G01 X34.4731 Y42.6150
G01 X34.4790 Y42.6222
G01 X34.4884 Y42.6324
G01 X34.5295 Y42.6719
G01 X34.5364 Y42.6779
G01 X34.5472 Y42.6863
G01 X34.5586 Y42.6938
G01 X34.5705 Y42.7006
G01 X34.5871 Y42.7081
G01 X34.5999 Y42.7128
G01 X34.6713 Y42.7338
G01 X34.6845 Y42.7372
G01 X34.7023 Y42.7402
G01 X34.7113 Y42.7410
G01 X34.7249 Y42.7415
G01 X48.6996 Y42.7415
G01 X48.7167 Y42.7410
G01 X48.7304 Y42.7398
G01 X48.7440 Y42.7376
G01 X48.7574 Y42.7344
G01 X48.7705 Y42.7302
G01 X48.8363 Y42.7068
G01 X48.8489 Y42.7018
G01 X48.8651 Y42.6937
G01 X48.8767 Y42.6867
G01 X48.9368 Y42.6433
G01 X49.0732 Y42.5826
G01 X49.2193 Y42.5515
G01 X49.3687 Y42.5515
G01 X49.5148 Y42.5826
G01 X49.6512 Y42.6433
G01 X49.7038 Y42.6815
G01 X49.7179 Y42.6912
G01 X49.7298 Y42.6983
G01 X49.7462 Y42.7063
G01 X49.7548 Y42.7098
G01 X49.7678 Y42.7141
G01 X49.8436 Y42.7361
G01 X49.8614 Y42.7396
G01 X49.8748 Y42.7410
G01 X49.8839 Y42.7414
G01 X57.3437 Y42.7414
G01 X57.3576 Y42.7406
G01 X57.3713 Y42.7388
G01 X57.4228 Y42.7287
G01 X57.4405 Y42.7243
G01 X57.4577 Y42.7182
G01 X57.4702 Y42.7126
G01 X57.4861 Y42.7038
G01 X57.4975 Y42.6962
G01 X57.5593 Y42.6470
G01 X57.5696 Y42.6382
G01 X57.5761 Y42.6319
G01 X57.5853 Y42.6219
G01 X57.5910 Y42.6149
G01 X57.6164 Y42.5790
G01 X57.7550 Y42.4404
G01 X57.9156 Y42.3279
G01 X58.0933 Y42.2451
G01 X58.2827 Y42.1943
G01 X58.4780 Y42.1772
G01 X58.6733 Y42.1943
G01 X58.8627 Y42.2451
G01 X59.0404 Y42.3279
G01 X59.2010 Y42.4404
G01 X59.3396 Y42.5790
G01 X59.3651 Y42.6150
G01 X59.3710 Y42.6222
G01 X59.3804 Y42.6324
G01 X59.4215 Y42.6719
G01 X59.4319 Y42.6808
G01 X59.4392 Y42.6863
G01 X59.4506 Y42.6938
G01 X59.4625 Y42.7006
G01 X59.4749 Y42.7064
G01 X59.4919 Y42.7128
G01 X59.5721 Y42.7361
G01 X59.5898 Y42.7396
G01 X59.6033 Y42.7410
G01 X59.6123 Y42.7414
G01 X69.7944 Y42.7413
G01 X69.8036 Y42.7406
G01 X69.8173 Y42.7388
G01 X69.8688 Y42.7287
G01 X69.8865 Y42.7243
G01 X69.9037 Y42.7182
G01 X69.9162 Y42.7126
G01 X69.9321 Y42.7038
G01 X69.9435 Y42.6962
G01 X70.0053 Y42.6470
G01 X70.0156 Y42.6382
G01 X70.0221 Y42.6319
G01 X70.0313 Y42.6219
G01 X70.0370 Y42.6149
G01 X70.0624 Y42.5790
G01 X70.2010 Y42.4404
G01 X70.3616 Y42.3279
G01 X70.5393 Y42.2451
G01 X70.7287 Y42.1943
G01 X70.9240 Y42.1772
G01 X71.1193 Y42.1943
G01 X71.3087 Y42.2451
G01 X71.4864 Y42.3279
G01 X71.6470 Y42.4404
G01 X71.7856 Y42.5790
G01 X71.8111 Y42.6150
G01 X71.8170 Y42.6222
G01 X71.8264 Y42.6324
G01 X71.8675 Y42.6719
G01 X71.8744 Y42.6779
G01 X71.8852 Y42.6863
G01 X71.8966 Y42.6938
G01 X71.9085 Y42.7006
G01 X71.9251 Y42.7081
G01 X71.9379 Y42.7128
G01 X72.0181 Y42.7361
G01 X72.0358 Y42.7396
G01 X72.0538 Y42.7413
G01 X82.2311 Y42.7415
G01 X82.2450 Y42.7410
G01 X82.2633 Y42.7388
G01 X82.3148 Y42.7287
G01 X82.3325 Y42.7243
G01 X82.3497 Y42.7182
G01 X82.3622 Y42.7126
G01 X82.3742 Y42.7061
G01 X82.3895 Y42.6962
G01 X82.4513 Y42.6470
G01 X82.4583 Y42.6412
G01 X82.4681 Y42.6319
G01 X82.4743 Y42.6253
G01 X82.4830 Y42.6149
G01 X82.5084 Y42.5790
G01 X82.6470 Y42.4404
G01 X82.8076 Y42.3279
G01 X82.9853 Y42.2451
G01 X83.1747 Y42.1943
G01 X83.3700 Y42.1772
G01 X83.5653 Y42.1943
G01 X83.7547 Y42.2451
G01 X83.9324 Y42.3279
G01 X84.0930 Y42.4404
G01 X84.2316 Y42.5790
G01 X84.3441 Y42.7396
G01 X84.4269 Y42.9173
G01 X84.4777 Y43.1067
G01 X84.4948 Y43.3020
G01 X84.4777 Y43.4973
G01 X84.4269 Y43.6867
G01 X84.3441 Y43.8644
G01 X84.2316 Y44.0250
G01 X84.0930 Y44.1636
G01 X83.9324 Y44.2761
G01 X83.7547 Y44.3589
G01 X83.5653 Y44.4097
G01 X83.3700 Y44.4268
G01 X83.1747 Y44.4097
G01 X82.9853 Y44.3589
G01 X82.8076 Y44.2761
G01 X82.6470 Y44.1636
G01 X82.5084 Y44.0250
G01 X82.4829 Y43.9890
G01 X82.4770 Y43.9818
G01 X82.4676 Y43.9716
G01 X82.4265 Y43.9321
G01 X82.4196 Y43.9261
G01 X82.4088 Y43.9177
G01 X82.3974 Y43.9102
G01 X82.3855 Y43.9034
G01 X82.3731 Y43.8976
G01 X82.3561 Y43.8912
G01 X82.2847 Y43.8702
G01 X82.2715 Y43.8668
G01 X82.2537 Y43.8638
G01 X82.2402 Y43.8627
G01 X82.2311 Y43.8625
G01 X72.0536 Y43.8627
G01 X72.0398 Y43.8639
G01 X72.0307 Y43.8652
G01 X71.9792 Y43.8753
G01 X71.9615 Y43.8797
G01 X71.9443 Y43.8858
G01 X71.9318 Y43.8914
G01 X71.9198 Y43.8978
G01 X71.9045 Y43.9078
G01 X71.8427 Y43.9570
G01 X71.8324 Y43.9658
G01 X71.8259 Y43.9721
G01 X71.8197 Y43.9787
G01 X71.8110 Y43.9891
G01 X71.7856 Y44.0250
G01 X71.6470 Y44.1636
G01 X71.4864 Y44.2761
G01 X71.3087 Y44.3589
G01 X71.1193 Y44.4097
G01 X70.9240 Y44.4268
G01 X70.7287 Y44.4097
G01 X70.5393 Y44.3589
G01 X70.3616 Y44.2761
G01 X70.2010 Y44.1636
G01 X70.0624 Y44.0250
G01 X70.0369 Y43.9890
G01 X70.0280 Y43.9783
G01 X70.0216 Y43.9716
G01 X69.9805 Y43.9321
G01 X69.9701 Y43.9232
G01 X69.9628 Y43.9177
G01 X69.9514 Y43.9102
G01 X69.9354 Y43.9014
G01 X69.9229 Y43.8959
G01 X69.9101 Y43.8912
G01 X69.8387 Y43.8702
G01 X69.8255 Y43.8668
G01 X69.8166 Y43.8651
G01 X69.8032 Y43.8634
G01 X69.7851 Y43.8625
G01 X59.6076 Y43.8627
G01 X59.5984 Y43.8634
G01 X59.5847 Y43.8652
G01 X59.5332 Y43.8753
G01 X59.5155 Y43.8797
G01 X59.4983 Y43.8858
G01 X59.4858 Y43.8914
G01 X59.4699 Y43.9002
G01 X59.4585 Y43.9078
G01 X59.3967 Y43.9570
G01 X59.3864 Y43.9658
G01 X59.3799 Y43.9721
G01 X59.3737 Y43.9787
G01 X59.3650 Y43.9891
G01 X59.3396 Y44.0250
G01 X59.2010 Y44.1636
G01 X59.0404 Y44.2761
G01 X58.8627 Y44.3589
G01 X58.6733 Y44.4097
G01 X58.4780 Y44.4268
G01 X58.2827 Y44.4097
G01 X58.0933 Y44.3589
G01 X57.9156 Y44.2761
G01 X57.7550 Y44.1636
G01 X57.6164 Y44.0250
G01 X57.5909 Y43.9890
G01 X57.5820 Y43.9783
G01 X57.5756 Y43.9716
G01 X57.5345 Y43.9321
G01 X57.5276 Y43.9261
G01 X57.5168 Y43.9177
G01 X57.5054 Y43.9102
G01 X57.4935 Y43.9034
G01 X57.4769 Y43.8959
G01 X57.4641 Y43.8912
G01 X57.3839 Y43.8679
G01 X57.3662 Y43.8644
G01 X57.3572 Y43.8634
G01 X57.3437 Y43.8626
G01 X49.7544 Y43.8626
G01 X49.7412 Y43.8633
G01 X49.7237 Y43.8658
G01 X49.6646 Y43.8783
G01 X49.6476 Y43.8832
G01 X49.6311 Y43.8896
G01 X49.5148 Y43.9414
G01 X49.3687 Y43.9725
G01 X49.2193 Y43.9725
G01 X49.0732 Y43.9414
G01 X48.9528 Y43.8879
G01 X48.9446 Y43.8847
G01 X48.9320 Y43.8806
G01 X48.9191 Y43.8774
G01 X48.8600 Y43.8650
G01 X48.8424 Y43.8630
G01 X48.8292 Y43.8625
G01 X34.7203 Y43.8626
G01 X34.7064 Y43.8634
G01 X34.6927 Y43.8652
G01 X34.6412 Y43.8753
G01 X34.6235 Y43.8797
G01 X34.6063 Y43.8858
G01 X34.5938 Y43.8914
G01 X34.5818 Y43.8978
G01 X34.5665 Y43.9078
G01 X34.5047 Y43.9570
G01 X34.4944 Y43.9658
G01 X34.4879 Y43.9721
G01 X34.4787 Y43.9821
G01 X34.4730 Y43.9891
G01 X34.4476 Y44.0250
G01 X34.3090 Y44.1636
G01 X34.1484 Y44.2761
G01 X33.9707 Y44.3589
G01 X33.7813 Y44.4097
G01 X33.5860 Y44.4268
G01 X33.3907 Y44.4097
G01 X33.2013 Y44.3589
G01 X33.0236 Y44.2761
G01 X32.8630 Y44.1636
G01 X32.7244 Y44.0250
G01 X32.6989 Y43.9890
G01 X32.6900 Y43.9783
G01 X32.6836 Y43.9716
G01 X32.6425 Y43.9321
G01 X32.6356 Y43.9261
G01 X32.6248 Y43.9177
G01 X32.6134 Y43.9102
G01 X32.6015 Y43.9034
G01 X32.5891 Y43.8976
G01 X32.5721 Y43.8912
G01 X32.4919 Y43.8679
G01 X32.4742 Y43.8644
G01 X32.4562 Y43.8627
G01 X22.0249 Y43.8625
G01 X22.0064 Y43.8634
G01 X21.9927 Y43.8652
G01 X21.9412 Y43.8753
G01 X21.9235 Y43.8797
G01 X21.9063 Y43.8858
G01 X21.8938 Y43.8914
G01 X21.8818 Y43.8978
G01 X21.8665 Y43.9078
G01 X21.8047 Y43.9570
G01 X21.7977 Y43.9628
G01 X21.7879 Y43.9721
G01 X21.7787 Y43.9821
G01 X21.7730 Y43.9891
G01 X21.7476 Y44.0250
G01 X21.6090 Y44.1636
G01 X21.4484 Y44.2761
G01 X21.2707 Y44.3589
G01 X21.0813 Y44.4097
G01 X20.8860 Y44.4268
G01 X20.6907 Y44.4097
G01 X20.5013 Y44.3589
G01 X20.3236 Y44.2761
G01 X20.1630 Y44.1636
G01 X20.0244 Y44.0250
G01 X19.9119 Y43.8644
G01 X19.8291 Y43.6867
G01 X19.7783 Y43.4973
G01 X19.7612 Y43.3020
G00 Z2.0000
G00 X19.8920 Y43.4093
G01 F30.00
G01 Z0.0000
G01 F100.00
G01 X19.8901 Y43.3907
G01 X19.8860 Y43.3020
G01 X19.8908 Y43.2040
G01 X19.9052 Y43.1069
G01 X19.9291 Y43.0117
G01 X19.9621 Y42.9193
G01 X20.0041 Y42.8306
G01 X20.0545 Y42.7464
G01 X20.1073 Y42.6750
G01 X20.1191 Y42.6605
G01 X20.1725 Y42.6016
G01 X20.1856 Y42.5885
G01 X20.2516 Y42.5290
G01 X20.3228 Y42.4759
G01 X20.3383 Y42.4655
G01 X20.4146 Y42.4201
G01 X20.4948 Y42.3819
G01 X20.5120 Y42.3748
G01 X20.5957 Y42.3451
G01 X20.6909 Y42.3212
G01 X20.7880 Y42.3068
G01 X20.8860 Y42.3020
G01 X20.9747 Y42.3061
G01 X20.9933 Y42.3080
G01 X21.0811 Y42.3212
G01 X21.1763 Y42.3451
G01 X21.2600 Y42.3748
G01 X21.2772 Y42.3819
G01 X21.3574 Y42.4201
G01 X21.4377 Y42.4680
G01 X21.4492 Y42.4759
G01 X21.5130 Y42.5233
G01 X21.5275 Y42.5351
G01 X21.5931 Y42.5949
G01 X21.6560 Y42.6640
G01 X21.6647 Y42.6750
G01 X21.7121 Y42.7388
G01 X21.7200 Y42.7503
G01 X21.7657 Y42.8265
G01 X21.7701 Y42.8347
G01 X21.7830 Y42.8619
G01 X32.6890 Y42.8619
G01 X32.7019 Y42.8347
G01 X32.7063 Y42.8265
G01 X32.7520 Y42.7503
G01 X32.7599 Y42.7388
G01 X32.8073 Y42.6750
G01 X32.8160 Y42.6640
G01 X32.8789 Y42.5949
G01 X32.9445 Y42.5351
G01 X32.9590 Y42.5233
G01 X33.0228 Y42.4759
G01 X33.0343 Y42.4680
G01 X33.1146 Y42.4201
G01 X33.1948 Y42.3819
G01 X33.2120 Y42.3748
G01 X33.2957 Y42.3451
G01 X33.3909 Y42.3212
G01 X33.4787 Y42.3080
G01 X33.4973 Y42.3061
G01 X33.5860 Y42.3020
G01 X33.6747 Y42.3061
G01 X33.6933 Y42.3080
G01 X33.7811 Y42.3212
G01 X33.8763 Y42.3451
G01 X33.9600 Y42.3748
G01 X33.9772 Y42.3819
G01 X34.0574 Y42.4201
G01 X34.1377 Y42.4680
G01 X34.1492 Y42.4759
G01 X34.2130 Y42.5233
G01 X34.2275 Y42.5351
G01 X34.2931 Y42.5949
G01 X34.3560 Y42.6640
G01 X34.3647 Y42.6750
G01 X34.4121 Y42.7388
G01 X34.4200 Y42.7503
G01 X34.4657 Y42.8265
G01 X34.4701 Y42.8347
G01 X34.4830 Y42.8619
G01 X48.8610 Y42.8619
G01 X48.8736 Y42.8481
G01 X48.8801 Y42.8416
G01 X48.9161 Y42.8089
G01 X48.9271 Y42.8002
G01 X48.9624 Y42.7741
G01 X48.9741 Y42.7664
G01 X49.0159 Y42.7417
G01 X49.0639 Y42.7187
G01 X49.0769 Y42.7136
G01 X49.1227 Y42.6974
G01 X49.1789 Y42.6833
G01 X49.2362 Y42.6748
G01 X49.2940 Y42.6720
G01 X49.3518 Y42.6748
G01 X49.4091 Y42.6833
G01 X49.4653 Y42.6974
G01 X49.5111 Y42.7136
G01 X49.5241 Y42.7187
G01 X49.5721 Y42.7417
G01 X49.6139 Y42.7664
G01 X49.6256 Y42.7741
G01 X49.6609 Y42.8002
G01 X49.6719 Y42.8089
G01 X49.7079 Y42.8416
G01 X49.7144 Y42.8481
G01 X49.7270 Y42.8619
G01 X57.5810 Y42.8619
G01 X57.5939 Y42.8347
G01 X57.5983 Y42.8265
G01 X57.6440 Y42.7503
G01 X57.6519 Y42.7388
G01 X57.6993 Y42.6750
G01 X57.7080 Y42.6640
G01 X57.7709 Y42.5949
G01 X57.8365 Y42.5351
G01 X57.8510 Y42.5233
G01 X57.9148 Y42.4759
G01 X57.9263 Y42.4680
G01 X58.0066 Y42.4201
G01 X58.0868 Y42.3819
G01 X58.1040 Y42.3748
G01 X58.1877 Y42.3451
G01 X58.2829 Y42.3212
G01 X58.3707 Y42.3080
G01 X58.3893 Y42.3061
G01 X58.4780 Y42.3020
G01 X58.5667 Y42.3061
G01 X58.5853 Y42.3080
G01 X58.6731 Y42.3212
G01 X58.7683 Y42.3451
G01 X58.8520 Y42.3748
G01 X58.8692 Y42.3819
G01 X58.9494 Y42.4201
G01 X59.0297 Y42.4680
G01 X59.0412 Y42.4759
G01 X59.1050 Y42.5233
G01 X59.1195 Y42.5351
G01 X59.1851 Y42.5949
G01 X59.2480 Y42.6640
G01 X59.2567 Y42.6750
G01 X59.3041 Y42.7388
G01 X59.3120 Y42.7503
G01 X59.3577 Y42.8265
G01 X59.3621 Y42.8347
G01 X59.3750 Y42.8619
G01 X70.0270 Y42.8619
G01 X70.0399 Y42.8347
G01 X70.0443 Y42.8265
G01 X70.0900 Y42.7503
G01 X70.0979 Y42.7388
G01 X70.1453 Y42.6750
G01 X70.1540 Y42.6640
G01 X70.2169 Y42.5949
G01 X70.2825 Y42.5351
G01 X70.2970 Y42.5233
G01 X70.3608 Y42.4759
G01 X70.3723 Y42.4680
G01 X70.4526 Y42.4201
G01 X70.5328 Y42.3819
G01 X70.5500 Y42.3748
G01 X70.6337 Y42.3451
G01 X70.7289 Y42.3212
G01 X70.8167 Y42.3080
G01 X70.8353 Y42.3061
G01 X70.9240 Y42.3020
G01 X71.0127 Y42.3061
G01 X71.0313 Y42.3080
G01 X71.1191 Y42.3212
G01 X71.2143 Y42.3451
G01 X71.2980 Y42.3748
G01 X71.3152 Y42.3819
G01 X71.3954 Y42.4201
G01 X71.4757 Y42.4680
G01 X71.4872 Y42.4759
G01 X71.5510 Y42.5233
G01 X71.5655 Y42.5351
G01 X71.6311 Y42.5949
G01 X71.6940 Y42.6640
G01 X71.7027 Y42.6750
G01 X71.7501 Y42.7388
G01 X71.7580 Y42.7503
G01 X71.8037 Y42.8265
G01 X71.8081 Y42.8347
G01 X71.8210 Y42.8619
G01 X82.4730 Y42.8619
G01 X82.4859 Y42.8347
G01 X82.4903 Y42.8265
G01 X82.5360 Y42.7503
G01 X82.5439 Y42.7388
G01 X82.5913 Y42.6750
G01 X82.6000 Y42.6640
G01 X82.6629 Y42.5949
G01 X82.7285 Y42.5351
G01 X82.7430 Y42.5233
G01 X82.8068 Y42.4759
G01 X82.8183 Y42.4680
G01 X82.8986 Y42.4201
G01 X82.9788 Y42.3819
G01 X82.9960 Y42.3748
G01 X83.0797 Y42.3451
G01 X83.1749 Y42.3212
G01 X83.2627 Y42.3080
G01 X83.2813 Y42.3061
G01 X83.3607 Y42.3022
G01 X83.3747 Y42.3021
G01 X83.4680 Y42.3068
G01 X83.5651 Y42.3212
G01 X83.6603 Y42.3451
G01 X83.7527 Y42.3781
G01 X83.8414 Y42.4201
G01 X83.9256 Y42.4705
G01 X84.0044 Y42.5290
G01 X84.0771 Y42.5949
G01 X84.1430 Y42.6676
G01 X84.2015 Y42.7464
G01 X84.2519 Y42.8306
G01 X84.2939 Y42.9193
G01 X84.3269 Y43.0117
G01 X84.3508 Y43.1069
G01 X84.3652 Y43.2040
G01 X84.3700 Y43.3020
G01 X84.3652 Y43.4000
G01 X84.3508 Y43.4971
G01 X84.3269 Y43.5923
G01 X84.2939 Y43.6847
G01 X84.2519 Y43.7734
G01 X84.2015 Y43.8576
G01 X84.1430 Y43.9364
G01 X84.0771 Y44.0091
G01 X84.0044 Y44.0750
G01 X83.9256 Y44.1335
G01 X83.8414 Y44.1839
G01 X83.7527 Y44.2259
G01 X83.6603 Y44.2589
G01 X83.5651 Y44.2828
G01 X83.4680 Y44.2972
G01 X83.3700 Y44.3020
G01 X83.2813 Y44.2979
G01 X83.2627 Y44.2960
G01 X83.1749 Y44.2828
G01 X83.0797 Y44.2589
G01 X82.9960 Y44.2292
G01 X82.9788 Y44.2221
G01 X82.8986 Y44.1839
G01 X82.8183 Y44.1360
G01 X82.8068 Y44.1281
G01 X82.7430 Y44.0807
G01 X82.7285 Y44.0689
G01 X82.6629 Y44.0091
G01 X82.6000 Y43.9400
G01 X82.5913 Y43.9290
G01 X82.5439 Y43.8652
G01 X82.5360 Y43.8537
G01 X82.4903 Y43.7775
G01 X82.4859 Y43.7693
G01 X82.4730 Y43.7421
G01 X71.8210 Y43.7421
G01 X71.8081 Y43.7693
G01 X71.8037 Y43.7775
G01 X71.7580 Y43.8537
G01 X71.7501 Y43.8652
G01 X71.7027 Y43.9290
G01 X71.6940 Y43.9400
G01 X71.6311 Y44.0091
G01 X71.5655 Y44.0689
G01 X71.5510 Y44.0807
G01 X71.4872 Y44.1281
G01 X71.4757 Y44.1360
G01 X71.3954 Y44.1839
G01 X71.3152 Y44.2221
G01 X71.2980 Y44.2292
G01 X71.2143 Y44.2589
G01 X71.1191 Y44.2828
G01 X71.0313 Y44.2960
G01 X71.0127 Y44.2979
G01 X70.9240 Y44.3020
G01 X70.8353 Y44.2979
G01 X70.8167 Y44.2960
G01 X70.7289 Y44.2828
G01 X70.6337 Y44.2589
G01 X70.5500 Y44.2292
G01 X70.5328 Y44.2221
G01 X70.4526 Y44.1839
G01 X70.3723 Y44.1360
G01 X70.3608 Y44.1281
G01 X70.2970 Y44.0807
G01 X70.2825 Y44.0689
G01 X70.2169 Y44.0091
G01 X70.1540 Y43.9400
G01 X70.1453 Y43.9290
G01 X70.0979 Y43.8652
G01 X70.0900 Y43.8537
G01 X70.0443 Y43.7775
G01 X70.0399 Y43.7693
G01 X70.0270 Y43.7421
G01 X59.3750 Y43.7421
G01 X59.3621 Y43.7693
G01 X59.3577 Y43.7775
G01 X59.3120 Y43.8537
G01 X59.3041 Y43.8652
G01 X59.2567 Y43.9290
G01 X59.2480 Y43.9400
G01 X59.1851 Y44.0091
G01 X59.1195 Y44.0689
G01 X59.1050 Y44.0807
G01 X59.0412 Y44.1281
G01 X59.0297 Y44.1360
G01 X58.9494 Y44.1839
G01 X58.8692 Y44.2221
G01 X58.8520 Y44.2292
G01 X58.7683 Y44.2589
G01 X58.6731 Y44.2828
G01 X58.5853 Y44.2960
G01 X58.5667 Y44.2979
G01 X58.4780 Y44.3020
G01 X58.3893 Y44.2979
G01 X58.3707 Y44.2960
G01 X58.2829 Y44.2828
G01 X58.1877 Y44.2589
G01 X58.1040 Y44.2292
G01 X58.0868 Y44.2221
G01 X58.0066 Y44.1839
G01 X57.9263 Y44.1360
G01 X57.9148 Y44.1281
G01 X57.8510 Y44.0807
G01 X57.8365 Y44.0689
G01 X57.7709 Y44.0091
G01 X57.7080 Y43.9400
G01 X57.6993 Y43.9290
G01 X57.6519 Y43.8652
G01 X57.6440 Y43.8537
G01 X57.5983 Y43.7775
G01 X57.5939 Y43.7693
G01 X57.5810 Y43.7421
G01 X49.6363 Y43.7421
G01 X49.6179 Y43.7551
G01 X49.5802 Y43.7777
G01 X49.5680 Y43.7845
G01 X49.5198 Y43.8071
G01 X49.4697 Y43.8252
G01 X49.4563 Y43.8291
G01 X49.4182 Y43.8386
G01 X49.3999 Y43.8423
G01 X49.3518 Y43.8492
G01 X49.2940 Y43.8520
G01 X49.2362 Y43.8492
G01 X49.1881 Y43.8423
G01 X49.1698 Y43.8386
G01 X49.1317 Y43.8291
G01 X49.1183 Y43.8252
G01 X49.0682 Y43.8071
G01 X49.0200 Y43.7845
G01 X49.0078 Y43.7777
G01 X48.9701 Y43.7551
G01 X48.9518 Y43.7421
G01 X34.4830 Y43.7421
G01 X34.4701 Y43.7693
G01 X34.4657 Y43.7775
G01 X34.4200 Y43.8537
G01 X34.4121 Y43.8652
G01 X34.3647 Y43.9290
G01 X34.3560 Y43.9400
G01 X34.2931 Y44.0091
G01 X34.2275 Y44.0689
G01 X34.2130 Y44.0807
G01 X34.1492 Y44.1281
G01 X34.1377 Y44.1360
G01 X34.0574 Y44.1839
G01 X33.9772 Y44.2221
G01 X33.9600 Y44.2292
G01 X33.8763 Y44.2589
G01 X33.7811 Y44.2828
G01 X33.6933 Y44.2960
G01 X33.6747 Y44.2979
G01 X33.5860 Y44.3020
G01 X33.4973 Y44.2979
G01 X33.4787 Y44.2960
G01 X33.3909 Y44.2828
G01 X33.2957 Y44.2589
G01 X33.2120 Y44.2292
G01 X33.1948 Y44.2221
G01 X33.1146 Y44.1839
G01 X33.0343 Y44.1360
G01 X33.0228 Y44.1281
G01 X32.9590 Y44.0807
G01 X32.9445 Y44.0689
G01 X32.8789 Y44.0091
G01 X32.8160 Y43.9400
G01 X32.8073 Y43.9290
G01 X32.7599 Y43.8652
G01 X32.7520 Y43.8537
G01 X32.7063 Y43.7775
G01 X32.7019 Y43.7693
G01 X32.6890 Y43.7421
G01 X21.7830 Y43.7421
G01 X21.7701 Y43.7693
G01 X21.7657 Y43.7775
G01 X21.7200 Y43.8537
G01 X21.7121 Y43.8652
G01 X21.6647 Y43.9290
G01 X21.6560 Y43.9400
G01 X21.5931 Y44.0091
G01 X21.5275 Y44.0689
G01 X21.5130 Y44.0807
G01 X21.4492 Y44.1281
G01 X21.4377 Y44.1360
G01 X21.3574 Y44.1839
G01 X21.2772 Y44.2221
G01 X21.2600 Y44.2292
G01 X21.1763 Y44.2589
G01 X21.0811 Y44.2828
G01 X20.9933 Y44.2960
G01 X20.9747 Y44.2979
G01 X20.8953 Y44.3018
G01 X20.8813 Y44.3019
G01 X20.7880 Y44.2972
G01 X20.6909 Y44.2828
G01 X20.5957 Y44.2589
G01 X20.5120 Y44.2292
G01 X20.4948 Y44.2221
G01 X20.4146 Y44.1839
G01 X20.3383 Y44.1385
G01 X20.3228 Y44.1281
G01 X20.2590 Y44.0807
G01 X20.2445 Y44.0689
G01 X20.1789 Y44.0091
G01 X20.1130 Y43.9364
G01 X20.0545 Y43.8576
G01 X20.0041 Y43.7734
G01 X19.9621 Y43.6847
G01 X19.9291 Y43.5923
G01 X19.9052 Y43.4971
G01 X19.8920 Y43.4093
G00 Z2.0000
G00 X19.9612 Y43.3990
G01 F30.00
G01 Z0.0000
G01 F100.00
G01 X19.9600 Y43.3873
G01 X19.9560 Y43.3020
G01 X19.9605 Y43.2108
G01 X19.9739 Y43.1206
G01 X19.9960 Y43.0320
G01 X20.0268 Y42.9461
G01 X20.0658 Y42.8636
G01 X20.1127 Y42.7853
G01 X20.1635 Y42.7167
G01 X20.1709 Y42.7076
G01 X20.2243 Y42.6487
G01 X20.2327 Y42.6403
G01 X20.2960 Y42.5831
G01 X20.3645 Y42.5321
G01 X20.3743 Y42.5256
G01 X20.4476 Y42.4818
G01 X20.5247 Y42.4452
G01 X20.5356 Y42.4407
G01 X20.6160 Y42.4120
G01 X20.7046 Y42.3899
G01 X20.7948 Y42.3765
G01 X20.8860 Y42.3720
G01 X20.9713 Y42.3760
G01 X20.9830 Y42.3772
G01 X21.0674 Y42.3899
G01 X21.1560 Y42.4120
G01 X21.2419 Y42.4428
G01 X21.3191 Y42.4792
G01 X21.3295 Y42.4847
G01 X21.4027 Y42.5287
G01 X21.4760 Y42.5831
G01 X21.5393 Y42.6403
G01 X21.5477 Y42.6487
G01 X21.6049 Y42.7120
G01 X21.6559 Y42.7805
G01 X21.6624 Y42.7903
G01 X21.7062 Y42.8636
G01 X21.7386 Y42.9319
G01 X32.7334 Y42.9319
G01 X32.7658 Y42.8636
G01 X32.8096 Y42.7903
G01 X32.8161 Y42.7805
G01 X32.8671 Y42.7120
G01 X32.9243 Y42.6487
G01 X32.9327 Y42.6403
G01 X32.9960 Y42.5831
G01 X33.0693 Y42.5287
G01 X33.1425 Y42.4847
G01 X33.1529 Y42.4792
G01 X33.2301 Y42.4428
G01 X33.3160 Y42.4120
G01 X33.4046 Y42.3899
G01 X33.4890 Y42.3772
G01 X33.5007 Y42.3760
G01 X33.5860 Y42.3720
G01 X33.6713 Y42.3760
G01 X33.6830 Y42.3772
G01 X33.7674 Y42.3899
G01 X33.8560 Y42.4120
G01 X33.9419 Y42.4428
G01 X34.0191 Y42.4792
G01 X34.0295 Y42.4847
G01 X34.1027 Y42.5287
G01 X34.1760 Y42.5831
G01 X34.2393 Y42.6403
G01 X34.2477 Y42.6487
G01 X34.3049 Y42.7120
G01 X34.3559 Y42.7805
G01 X34.3624 Y42.7903
G01 X34.4062 Y42.8636
G01 X34.4386 Y42.9319
G01 X48.8922 Y42.9319
G01 X48.9263 Y42.8943
G01 X48.9597 Y42.8639
G01 X48.9688 Y42.8564
G01 X49.0051 Y42.8296
G01 X49.0437 Y42.8063
G01 X49.0541 Y42.8008
G01 X49.0896 Y42.7840
G01 X49.1005 Y42.7795
G01 X49.1431 Y42.7644
G01 X49.1926 Y42.7520
G01 X49.2430 Y42.7445
G01 X49.2940 Y42.7420
G01 X49.3450 Y42.7445
G01 X49.3954 Y42.7520
G01 X49.4449 Y42.7644
G01 X49.4875 Y42.7795
G01 X49.4984 Y42.7840
G01 X49.5339 Y42.8008
G01 X49.5443 Y42.8063
G01 X49.5829 Y42.8296
G01 X49.6192 Y42.8564
G01 X49.6283 Y42.8639
G01 X49.6617 Y42.8943
G01 X49.6958 Y42.9319
G01 X57.6254 Y42.9319
G01 X57.6578 Y42.8636
G01 X57.7016 Y42.7903
G01 X57.7081 Y42.7805
G01 X57.7591 Y42.7120
G01 X57.8163 Y42.6487
G01 X57.8247 Y42.6403
G01 X57.8880 Y42.5831
G01 X57.9613 Y42.5287
G01 X58.0345 Y42.4847
G01 X58.0449 Y42.4792
G01 X58.1221 Y42.4428
G01 X58.2080 Y42.4120
G01 X58.2966 Y42.3899
G01 X58.3810 Y42.3772
G01 X58.3927 Y42.3760
G01 X58.4780 Y42.3720
G01 X58.5633 Y42.3760
G01 X58.5750 Y42.3772
G01 X58.6594 Y42.3899
G01 X58.7480 Y42.4120
G01 X58.8339 Y42.4428
G01 X58.9111 Y42.4792
G01 X58.9215 Y42.4847
G01 X58.9947 Y42.5287
G01 X59.0680 Y42.5831
G01 X59.1313 Y42.6403
G01 X59.1397 Y42.6487
G01 X59.1969 Y42.7120
G01 X59.2479 Y42.7805
G01 X59.2544 Y42.7903
G01 X59.2982 Y42.8636
G01 X59.3306 Y42.9319
G01 X70.0714 Y42.9319
G01 X70.1038 Y42.8636
G01 X70.1476 Y42.7903
G01 X70.1541 Y42.7805
G01 X70.2051 Y42.7120
G01 X70.2623 Y42.6487
G01 X70.2707 Y42.6403
G01 X70.3340 Y42.5831
G01 X70.4073 Y42.5287
G01 X70.4805 Y42.4847
G01 X70.4909 Y42.4792
G01 X70.5681 Y42.4428
G01 X70.6540 Y42.4120
G01 X70.7426 Y42.3899
G01 X70.8270 Y42.3772
G01 X70.8387 Y42.3760
G01 X70.9240 Y42.3720
G01 X71.0093 Y42.3760
G01 X71.0210 Y42.3772
G01 X71.1054 Y42.3899
G01 X71.1940 Y42.4120
G01 X71.2799 Y42.4428
G01 X71.3571 Y42.4792
G01 X71.3675 Y42.4847
G01 X71.4407 Y42.5287
G01 X71.5140 Y42.5831
G01 X71.5773 Y42.6403
G01 X71.5857 Y42.6487
G01 X71.6429 Y42.7120
G01 X71.6939 Y42.7805
G01 X71.7004 Y42.7903
G01 X71.7442 Y42.8636
G01 X71.7766 Y42.9319
G01 X82.5174 Y42.9319
G01 X82.5498 Y42.8636
G01 X82.5936 Y42.7903
G01 X82.6001 Y42.7805
G01 X82.6511 Y42.7120
G01 X82.7083 Y42.6487
G01 X82.7167 Y42.6403
G01 X82.7800 Y42.5831
G01 X82.8533 Y42.5287
G01 X82.9265 Y42.4847
G01 X82.9369 Y42.4792
G01 X83.0141 Y42.4428
G01 X83.1000 Y42.4120
G01 X83.1886 Y42.3899
G01 X83.2730 Y42.3772
G01 X83.2847 Y42.3760
G01 X83.3641 Y42.3721
G01 X83.3729 Y42.3720
G01 X83.4612 Y42.3765
G01 X83.5514 Y42.3899
G01 X83.6400 Y42.4120
G01 X83.7259 Y42.4428
G01 X83.8084 Y42.4818
G01 X83.8867 Y42.5287
G01 X83.9600 Y42.5831
G01 X84.0276 Y42.6444
G01 X84.0889 Y42.7120
G01 X84.1433 Y42.7853
G01 X84.1902 Y42.8636
G01 X84.2292 Y42.9461
G01 X84.2600 Y43.0320
G01 X84.2821 Y43.1206
G01 X84.2955 Y43.2108
G01 X84.3000 Y43.3020
G01 X84.2955 Y43.3932
G01 X84.2821 Y43.4834
G01 X84.2600 Y43.5720
G01 X84.2292 Y43.6579
G01 X84.1902 Y43.7404
G01 X84.1433 Y43.8187
G01 X84.0889 Y43.8920
G01 X84.0276 Y43.9596
G01 X83.9600 Y44.0209
G01 X83.8867 Y44.0753
G01 X83.8084 Y44.1222
G01 X83.7259 Y44.1612
G01 X83.6400 Y44.1920
G01 X83.5514 Y44.2141
G01 X83.4612 Y44.2275
G01 X83.3700 Y44.2320
G01 X83.2847 Y44.2280
G01 X83.2730 Y44.2268
G01 X83.1886 Y44.2141
G01 X83.1000 Y44.1920
G01 X83.0141 Y44.1612
G01 X82.9369 Y44.1248
G01 X82.9265 Y44.1193
G01 X82.8533 Y44.0753
G01 X82.7800 Y44.0209
G01 X82.7167 Y43.9637
G01 X82.7083 Y43.9553
G01 X82.6511 Y43.8920
G01 X82.6001 Y43.8235
G01 X82.5936 Y43.8137
G01 X82.5498 Y43.7404
G01 X82.5174 Y43.6721
G01 X71.7766 Y43.6721
G01 X71.7442 Y43.7404
G01 X71.7004 Y43.8137
G01 X71.6939 Y43.8235
G01 X71.6429 Y43.8920
G01 X71.5857 Y43.9553
G01 X71.5773 Y43.9637
G01 X71.5140 Y44.0209
G01 X71.4407 Y44.0753
G01 X71.3675 Y44.1193
G01 X71.3571 Y44.1248
G01 X71.2799 Y44.1612
G01 X71.1940 Y44.1920
G01 X71.1054 Y44.2141
G01 X71.0210 Y44.2268
G01 X71.0093 Y44.2280
G01 X70.9240 Y44.2320
G01 X70.8387 Y44.2280
G01 X70.8270 Y44.2268
G01 X70.7426 Y44.2141
G01 X70.6540 Y44.1920
G01 X70.5681 Y44.1612
G01 X70.4909 Y44.1248
G01 X70.4805 Y44.1193
G01 X70.4073 Y44.0753
G01 X70.3340 Y44.0209
G01 X70.2707 Y43.9637
G01 X70.2623 Y43.9553
G01 X70.2051 Y43.8920
G01 X70.1541 Y43.8235
G01 X70.1476 Y43.8137
G01 X70.1038 Y43.7404
G01 X70.0714 Y43.6721
G01 X59.3306 Y43.6721
G01 X59.2982 Y43.7404
G01 X59.2544 Y43.8137
G01 X59.2479 Y43.8235
G01 X59.1969 Y43.8920
G01 X59.1397 Y43.9553
G01 X59.1313 Y43.9637
G01 X59.0680 Y44.0209
G01 X58.9947 Y44.0753
G01 X58.9215 Y44.1193
G01 X58.9111 Y44.1248
G01 X58.8339 Y44.1612
G01 X58.7480 Y44.1920
G01 X58.6594 Y44.2141
G01 X58.5750 Y44.2268
G01 X58.5633 Y44.2280
G01 X58.4780 Y44.2320
G01 X58.3927 Y44.2280
G01 X58.3810 Y44.2268
G01 X58.2966 Y44.2141
G01 X58.2080 Y44.1920
G01 X58.1221 Y44.1612
G01 X58.0449 Y44.1248
G01 X58.0345 Y44.1193
G01 X57.9613 Y44.0753
G01 X57.8880 Y44.0209
G01 X57.8247 Y43.9637
G01 X57.8163 Y43.9553
G01 X57.7591 Y43.8920
G01 X57.7081 Y43.8235
G01 X57.7016 Y43.8137
G01 X57.6578 Y43.7404
G01 X57.6254 Y43.6721
G01 X49.6131 Y43.6721
G01 X49.5829 Y43.6944
G01 X49.5391 Y43.7206
G01 X49.4930 Y43.7424
G01 X49.4505 Y43.7578
G01 X49.4393 Y43.7612
G01 X49.4012 Y43.7707
G01 X49.3896 Y43.7730
G01 X49.3450 Y43.7795
G01 X49.2940 Y43.7820
G01 X49.2430 Y43.7795
G01 X49.1984 Y43.7730
G01 X49.1868 Y43.7707
G01 X49.1487 Y43.7612
G01 X49.1375 Y43.7578
G01 X49.0950 Y43.7424
G01 X49.0489 Y43.7206
G01 X49.0051 Y43.6944
G01 X48.9749 Y43.6721
G01 X34.4386 Y43.6721
G01 X34.4062 Y43.7404
G01 X34.3624 Y43.8137
G01 X34.3559 Y43.8235
G01 X34.3049 Y43.8920
G01 X34.2477 Y43.9553
G01 X34.2393 Y43.9637
G01 X34.1760 Y44.0209
G01 X34.1027 Y44.0753
G01 X34.0295 Y44.1193
G01 X34.0191 Y44.1248
G01 X33.9419 Y44.1612
G01 X33.8560 Y44.1920
G01 X33.7674 Y44.2141
G01 X33.6830 Y44.2268
G01 X33.6713 Y44.2280
G01 X33.5860 Y44.2320
G01 X33.5007 Y44.2280
G01 X33.4890 Y44.2268
G01 X33.4046 Y44.2141
G01 X33.3160 Y44.1920
G01 X33.2301 Y44.1612
G01 X33.1529 Y44.1248
G01 X33.1425 Y44.1193
G01 X33.0693 Y44.0753
G01 X32.9960 Y44.0209
G01 X32.9327 Y43.9637
G01 X32.9243 Y43.9553
G01 X32.8671 Y43.8920
G01 X32.8161 Y43.8235
G01 X32.8096 Y43.8137
G01 X32.7658 Y43.7404
G01 X32.7334 Y43.6721
G01 X21.7386 Y43.6721
G01 X21.7062 Y43.7404
G01 X21.6624 Y43.8137
G01 X21.6559 Y43.8235
G01 X21.6049 Y43.8920
G01 X21.5477 Y43.9553
G01 X21.5393 Y43.9637
G01 X21.4760 Y44.0209
G01 X21.4027 Y44.0753
G01 X21.3295 Y44.1193
G01 X21.3191 Y44.1248
G01 X21.2419 Y44.1612
G01 X21.1560 Y44.1920
G01 X21.0674 Y44.2141
G01 X20.9830 Y44.2268
G01 X20.9713 Y44.2280
G01 X20.8919 Y44.2319
G01 X20.8831 Y44.2320
G01 X20.7948 Y44.2275
G01 X20.7046 Y44.2141
G01 X20.6160 Y44.1920
G01 X20.5356 Y44.1633
G01 X20.5247 Y44.1588
G01 X20.4476 Y44.1222
G01 X20.3743 Y44.0784
G01 X20.3645 Y44.0719
G01 X20.3007 Y44.0245
G01 X20.2916 Y44.0171
G01 X20.2284 Y43.9596
G01 X20.1671 Y43.8920
G01 X20.1127 Y43.8187
G01 X20.0658 Y43.7404
G01 X20.0268 Y43.6579
G01 X19.9960 Y43.5720
G01 X19.9739 Y43.4834
G01 X19.9612 Y43.3990
G00 Z2.0000
G00 X20.0304 Y43.3887
G01 F30.00
G01 Z0.0000
G01 F100.00
G01 X20.0260 Y43.3020
G01 X20.0301 Y43.2177
G01 X20.0425 Y43.1342
G01 X20.0630 Y43.0524
G01 X20.0915 Y42.9729
G01 X20.1275 Y42.8966
G01 X20.1709 Y42.8242
G01 X20.2228 Y42.7546
G01 X20.2797 Y42.6922
G01 X20.3404 Y42.6372
G01 X20.4062 Y42.5883
G01 X20.4806 Y42.5435
G01 X20.5546 Y42.5085
G01 X20.6364 Y42.4790
G01 X20.7182 Y42.4585
G01 X20.8017 Y42.4461
G01 X20.8860 Y42.4420
G01 X20.9727 Y42.4464
G01 X21.0538 Y42.4585
G01 X21.1356 Y42.4790
G01 X21.2151 Y42.5075
G01 X21.2892 Y42.5424
G01 X21.3648 Y42.5876
G01 X21.4316 Y42.6372
G01 X21.4923 Y42.6922
G01 X21.5516 Y42.7574
G01 X21.6011 Y42.8242
G01 X21.6439 Y42.8955
G01 X21.6801 Y42.9718
G01 X21.6910 Y43.0019
G01 X32.7810 Y43.0019
G01 X32.7919 Y42.9718
G01 X32.8281 Y42.8955
G01 X32.8709 Y42.8242
G01 X32.9204 Y42.7574
G01 X32.9797 Y42.6922
G01 X33.0404 Y42.6372
G01 X33.1072 Y42.5876
G01 X33.1828 Y42.5424
G01 X33.2569 Y42.5075
G01 X33.3364 Y42.4790
G01 X33.4182 Y42.4585
G01 X33.4993 Y42.4464
G01 X33.5860 Y42.4420
G01 X33.6727 Y42.4464
G01 X33.7538 Y42.4585
G01 X33.8356 Y42.4790
G01 X33.9151 Y42.5075
G01 X33.9892 Y42.5424
G01 X34.0648 Y42.5876
G01 X34.1316 Y42.6372
G01 X34.1923 Y42.6922
G01 X34.2516 Y42.7574
G01 X34.3011 Y42.8242
G01 X34.3439 Y42.8955
G01 X34.3801 Y42.9718
G01 X34.3910 Y43.0019
G01 X48.9273 Y43.0019
G01 X48.9461 Y42.9765
G01 X48.9741 Y42.9456
G01 X49.0076 Y42.9149
G01 X49.0440 Y42.8878
G01 X49.0830 Y42.8646
G01 X49.1241 Y42.8454
G01 X49.1634 Y42.8314
G01 X49.2038 Y42.8212
G01 X49.2499 Y42.8142
G01 X49.2940 Y42.8120
G01 X49.3381 Y42.8142
G01 X49.3842 Y42.8212
G01 X49.4246 Y42.8314
G01 X49.4639 Y42.8454
G01 X49.5050 Y42.8646
G01 X49.5440 Y42.8878
G01 X49.5804 Y42.9149
G01 X49.6139 Y42.9456
G01 X49.6419 Y42.9765
G01 X49.6607 Y43.0019
G01 X57.6730 Y43.0019
G01 X57.6839 Y42.9718
G01 X57.7201 Y42.8955
G01 X57.7629 Y42.8242
G01 X57.8124 Y42.7574
G01 X57.8717 Y42.6922
G01 X57.9324 Y42.6372
G01 X57.9992 Y42.5876
G01 X58.0748 Y42.5424
G01 X58.1489 Y42.5075
G01 X58.2284 Y42.4790
G01 X58.3102 Y42.4585
G01 X58.3913 Y42.4464
G01 X58.4780 Y42.4420
G01 X58.5647 Y42.4464
G01 X58.6458 Y42.4585
G01 X58.7276 Y42.4790
G01 X58.8071 Y42.5075
G01 X58.8812 Y42.5424
G01 X58.9568 Y42.5876
G01 X59.0236 Y42.6372
G01 X59.0843 Y42.6922
G01 X59.1436 Y42.7574
G01 X59.1931 Y42.8242
G01 X59.2359 Y42.8955
G01 X59.2721 Y42.9718
G01 X59.2830 Y43.0019
G01 X70.1190 Y43.0019
G01 X70.1299 Y42.9718
G01 X70.1661 Y42.8955
G01 X70.2089 Y42.8242
G01 X70.2584 Y42.7574
G01 X70.3177 Y42.6922
G01 X70.3784 Y42.6372
G01 X70.4452 Y42.5876
G01 X70.5208 Y42.5424
G01 X70.5949 Y42.5075
G01 X70.6744 Y42.4790
G01 X70.7562 Y42.4585
G01 X70.8373 Y42.4464
G01 X70.9240 Y42.4420
G01 X71.0107 Y42.4464
G01 X71.0918 Y42.4585
G01 X71.1736 Y42.4790
G01 X71.2531 Y42.5075
G01 X71.3272 Y42.5424
G01 X71.4028 Y42.5876
G01 X71.4696 Y42.6372
G01 X71.5303 Y42.6922
G01 X71.5896 Y42.7574
G01 X71.6391 Y42.8242
G01 X71.6819 Y42.8955
G01 X71.7181 Y42.9718
G01 X71.7290 Y43.0019
G01 X82.5650 Y43.0019
G01 X82.5759 Y42.9718
G01 X82.6121 Y42.8955
G01 X82.6549 Y42.8242
G01 X82.7044 Y42.7574
G01 X82.7637 Y42.6922
G01 X82.8244 Y42.6372
G01 X82.8912 Y42.5876
G01 X82.9668 Y42.5424
G01 X83.0409 Y42.5075
G01 X83.1204 Y42.4790
G01 X83.2022 Y42.4585
G01 X83.2833 Y42.4464
G01 X83.3712 Y42.4420
G01 X83.4543 Y42.4461
G01 X83.5378 Y42.4585
G01 X83.6196 Y42.4790
G01 X83.6991 Y42.5075
G01 X83.7754 Y42.5435
G01 X83.8478 Y42.5869
G01 X83.9156 Y42.6372
G01 X83.9781 Y42.6939
G01 X84.0348 Y42.7564
G01 X84.0851 Y42.8242
G01 X84.1285 Y42.8966
G01 X84.1645 Y42.9729
G01 X84.1930 Y43.0524
G01 X84.2135 Y43.1342
G01 X84.2259 Y43.2177
G01 X84.2300 Y43.3020
G01 X84.2259 Y43.3863
G01 X84.2135 Y43.4698
G01 X84.1930 Y43.5516
G01 X84.1645 Y43.6311
G01 X84.1285 Y43.7074
G01 X84.0851 Y43.7798
G01 X84.0348 Y43.8476
G01 X83.9781 Y43.9101
G01 X83.9156 Y43.9668
G01 X83.8478 Y44.0171
G01 X83.7754 Y44.0605
G01 X83.6991 Y44.0965
G01 X83.6196 Y44.1250
G01 X83.5378 Y44.1455
G01 X83.4543 Y44.1579
G01 X83.3700 Y44.1620
G01 X83.2833 Y44.1576
G01 X83.2022 Y44.1455
G01 X83.1204 Y44.1250
G01 X83.0409 Y44.0965
G01 X82.9668 Y44.0616
G01 X82.8912 Y44.0164
G01 X82.8244 Y43.9668
G01 X82.7637 Y43.9118
G01 X82.7044 Y43.8466
G01 X82.6549 Y43.7798
G01 X82.6121 Y43.7085
G01 X82.5759 Y43.6322
G01 X82.5650 Y43.6021
G01 X71.7290 Y43.6021
G01 X71.7181 Y43.6322
G01 X71.6819 Y43.7085
G01 X71.6391 Y43.7798
G01 X71.5896 Y43.8466
G01 X71.5303 Y43.9118
G01 X71.4696 Y43.9668
G01 X71.4028 Y44.0164
G01 X71.3272 Y44.0616
G01 X71.2531 Y44.0965
G01 X71.1736 Y44.1250
G01 X71.0918 Y44.1455
G01 X71.0107 Y44.1576
G01 X70.9240 Y44.1620
G01 X70.8373 Y44.1576
G01 X70.7562 Y44.1455
G01 X70.6744 Y44.1250
G01 X70.5949 Y44.0965
G01 X70.5208 Y44.0616
G01 X70.4452 Y44.0164
G01 X70.3784 Y43.9668
G01 X70.3177 Y43.9118
G01 X70.2584 Y43.8466
G01 X70.2089 Y43.7798
G01 X70.1661 Y43.7085
G01 X70.1299 Y43.6322
G01 X70.1190 Y43.6021
G01 X59.2830 Y43.6021
G01 X59.2721 Y43.6322
G01 X59.2359 Y43.7085
G01 X59.1931 Y43.7798
G01 X59.1436 Y43.8466
G01 X59.0843 Y43.9118
G01 X59.0236 Y43.9668
G01 X58.9568 Y44.0164
G01 X58.8812 Y44.0616
G01 X58.8071 Y44.0965
G01 X58.7276 Y44.1250
G01 X58.6458 Y44.1455
G01 X58.5647 Y44.1576
G01 X58.4780 Y44.1620
G01 X58.3913 Y44.1576
G01 X58.3102 Y44.1455
G01 X58.2284 Y44.1250
G01 X58.1489 Y44.0965
G01 X58.0748 Y44.0616
G01 X57.9992 Y44.0164
G01 X57.9324 Y43.9668
G01 X57.8717 Y43.9118
G01 X57.8124 Y43.8466
G01 X57.7629 Y43.7798
G01 X57.7201 Y43.7085
G01 X57.6839 Y43.6322
G01 X57.6730 Y43.6021
G01 X49.5881 Y43.6021
G01 X49.5785 Y43.6106
G01 X49.5430 Y43.6368
G01 X49.5061 Y43.6589
G01 X49.4651 Y43.6782
G01 X49.4246 Y43.6926
G01 X49.3818 Y43.7034
G01 X49.3381 Y43.7098
G01 X49.2940 Y43.7120
G01 X49.2499 Y43.7098
G01 X49.2062 Y43.7034
G01 X49.1634 Y43.6926
G01 X49.1229 Y43.6782
G01 X49.0819 Y43.6589
G01 X49.0450 Y43.6368
G01 X49.0095 Y43.6106
G01 X48.9999 Y43.6021
G01 X34.3910 Y43.6021
G01 X34.3801 Y43.6322
G01 X34.3439 Y43.7085
G01 X34.3011 Y43.7798
G01 X34.2516 Y43.8466
G01 X34.1923 Y43.9118
G01 X34.1316 Y43.9668
G01 X34.0648 Y44.0164
G01 X33.9892 Y44.0616
G01 X33.9151 Y44.0965
G01 X33.8356 Y44.1250
G01 X33.7514 Y44.1459
G01 X33.6703 Y44.1579
G01 X33.5885 Y44.1619
G01 X33.4993 Y44.1576
G01 X33.4182 Y44.1455
G01 X33.3364 Y44.1250
G01 X33.2569 Y44.0965
G01 X33.1828 Y44.0616
G01 X33.1072 Y44.0164
G01 X33.0404 Y43.9668
G01 X32.9797 Y43.9118
G01 X32.9204 Y43.8466
G01 X32.8709 Y43.7798
G01 X32.8281 Y43.7085
G01 X32.7919 Y43.6322
G01 X32.7810 Y43.6021
G01 X21.6910 Y43.6021
G01 X21.6801 Y43.6322
G01 X21.6439 Y43.7085
G01 X21.6011 Y43.7798
G01 X21.5516 Y43.8466
G01 X21.4923 Y43.9118
G01 X21.4316 Y43.9668
G01 X21.3648 Y44.0164
G01 X21.2892 Y44.0616
G01 X21.2151 Y44.0965
G01 X21.1356 Y44.1250
G01 X21.0538 Y44.1455
G01 X20.9727 Y44.1576
G01 X20.8860 Y44.1620
G01 X20.8017 Y44.1579
G01 X20.7182 Y44.1455
G01 X20.6364 Y44.1250
G01 X20.5592 Y44.0974
G01 X20.4806 Y44.0605
G01 X20.4103 Y44.0184
G01 X20.3386 Y43.9652
G01 X20.2779 Y43.9101
G01 X20.2212 Y43.8476
G01 X20.1709 Y43.7798
G01 X20.1275 Y43.7074
G01 X20.0915 Y43.6311
G01 X20.0630 Y43.5516
G01 X20.0425 Y43.4698
G01 X20.0304 Y43.3887
G00 Z2.0000
G00 X21.7832 Y43.8845
G01 F30.00
G01 Z0.0000
G01 F100.00
G01 X21.8265 Y43.8121
G01 X21.9052 Y43.8121
G01 X21.8916 Y43.8165
G01 X21.8742 Y43.8233
G01 X21.8628 Y43.8286
G01 X21.8464 Y43.8375
G01 X21.8306 Y43.8475
G01 X21.8205 Y43.8548
G01 X21.7832 Y43.8845
G00 Z2.0000
G00 X21.9207 Y42.7919
G01 F30.00
G01 Z0.0000
G01 F100.00
G01 X21.8265 Y42.7919
G01 X21.7894 Y42.7299
G01 X21.8014 Y42.7395
G01 X21.8167 Y42.7502
G01 X21.8328 Y42.7598
G01 X21.8495 Y42.7682
G01 X21.8668 Y42.7754
G01 X21.8786 Y42.7795
G01 X21.9207 Y42.7919
G00 Z2.0000
G00 X24.6207 Y45.8020
G01 F30.00
G01 Z0.0000
G01 F100.00
G01 X24.6399 Y45.5823
G01 X24.6970 Y45.3692
G01 X24.7902 Y45.1693
G01 X24.9167 Y44.9887
G01 X25.0727 Y44.8327
G01 X25.2533 Y44.7062
G01 X25.4532 Y44.6130
G01 X25.6663 Y44.5559
G01 X25.8860 Y44.5367
G01 X26.1057 Y44.5559
G01 X26.3188 Y44.6130
G01 X26.5187 Y44.7062
G01 X26.6993 Y44.8327
G01 X26.8553 Y44.9887
G01 X26.8853 Y45.0311
G01 X26.9268 Y45.0710
G01 X26.9338 Y45.0757
G01 X26.9426 Y45.0794
G01 X27.0119 Y45.0998
G01 X27.0178 Y45.1010
G01 X27.0249 Y45.1015
G01 X37.4496 Y45.1014
G01 X37.4568 Y45.1006
G01 X37.5073 Y45.0905
G01 X37.5163 Y45.0871
G01 X37.5204 Y45.0848
G01 X37.5253 Y45.0813
G01 X37.5799 Y45.0377
G01 X37.5843 Y45.0337
G01 X37.5890 Y45.0283
G01 X37.6167 Y44.9887
G01 X37.7727 Y44.8327
G01 X37.9533 Y44.7062
G01 X38.1532 Y44.6130
G01 X38.3663 Y44.5559
G01 X38.5860 Y44.5367
G01 X38.8057 Y44.5559
G01 X39.0188 Y44.6130
G01 X39.2187 Y44.7062
G01 X39.3993 Y44.8327
G01 X39.5553 Y44.9887
G01 X39.5853 Y45.0311
G01 X39.6268 Y45.0710
G01 X39.6348 Y45.0762
G01 X39.6426 Y45.0794
G01 X39.7119 Y45.0998
G01 X39.7178 Y45.1010
G01 X39.7249 Y45.1015
G01 X47.2321 Y45.1015
G01 X47.2440 Y45.1009
G01 X47.2522 Y45.0991
G01 X47.3226 Y45.0741
G01 X47.3300 Y45.0703
G01 X47.3424 Y45.0614
G01 X47.5057 Y44.9887
G01 X47.6806 Y44.9515
G01 X47.8594 Y44.9515
G01 X48.0343 Y44.9887
G01 X48.1976 Y45.0614
G01 X48.2151 Y45.0738
G01 X48.2236 Y45.0782
G01 X48.2964 Y45.0998
G01 X48.3034 Y45.1011
G01 X48.3093 Y45.1015
G01 X62.3403 Y45.1015
G01 X62.3488 Y45.1006
G01 X62.3993 Y45.0905
G01 X62.4039 Y45.0890
G01 X62.4093 Y45.0865
G01 X62.4173 Y45.0813
G01 X62.4719 Y45.0377
G01 X62.4763 Y45.0337
G01 X62.4810 Y45.0283
G01 X62.5087 Y44.9887
G01 X62.6647 Y44.8327
G01 X62.8453 Y44.7062
G01 X63.0452 Y44.6130
G01 X63.2583 Y44.5559
G01 X63.4780 Y44.5367
G01 X63.6977 Y44.5559
G01 X63.9108 Y44.6130
G01 X64.1107 Y44.7062
G01 X64.2913 Y44.8327
G01 X64.4473 Y44.9887
G01 X64.4773 Y45.0311
G01 X64.5188 Y45.0710
G01 X64.5268 Y45.0762
G01 X64.5346 Y45.0794
G01 X64.6039 Y45.0998
G01 X64.6098 Y45.1010
G01 X64.6157 Y45.1015
G01 X74.7876 Y45.1014
G01 X74.7948 Y45.1006
G01 X74.8453 Y45.0905
G01 X74.8499 Y45.0890
G01 X74.8553 Y45.0865
G01 X74.8633 Y45.0813
G01 X74.9179 Y45.0377
G01 X74.9223 Y45.0337
G01 X74.9270 Y45.0283
G01 X74.9547 Y44.9887
G01 X75.1107 Y44.8327
G01 X75.2913 Y44.7062
G01 X75.4912 Y44.6130
G01 X75.7043 Y44.5559
G01 X75.9240 Y44.5367
G01 X76.1437 Y44.5559
G01 X76.3568 Y44.6130
G01 X76.5567 Y44.7062
G01 X76.7373 Y44.8327
G01 X76.8933 Y44.9887
G01 X76.9233 Y45.0311
G01 X76.9648 Y45.0710
G01 X76.9728 Y45.0762
G01 X76.9806 Y45.0794
G01 X77.0499 Y45.0998
G01 X77.0558 Y45.1010
G01 X77.0605 Y45.1014
G01 X87.2311 Y45.1015
G01 X87.2396 Y45.1008
G01 X87.2901 Y45.0908
G01 X87.2947 Y45.0894
G01 X87.3003 Y45.0871
G01 X87.3044 Y45.0848
G01 X87.3093 Y45.0813
G01 X87.3639 Y45.0377
G01 X87.3683 Y45.0337
G01 X87.3730 Y45.0283
G01 X87.4007 Y44.9887
G01 X87.5567 Y44.8327
G01 X87.7373 Y44.7062
G01 X87.9372 Y44.6130
G01 X88.1503 Y44.5559
G01 X88.3700 Y44.5367
G01 X88.5897 Y44.5559
G01 X88.8028 Y44.6130
G01 X89.0027 Y44.7062
G01 X89.1833 Y44.8327
G01 X89.3393 Y44.9887
G01 X89.4658 Y45.1693
G01 X89.5590 Y45.3692
G01 X89.6161 Y45.5823
G01 X89.6353 Y45.8020
G01 X89.6161 Y46.0217
G01 X89.5590 Y46.2348
G01 X89.4658 Y46.4347
G01 X89.3393 Y46.6153
G01 X89.1833 Y46.7713
G01 X89.0027 Y46.8978
G01 X88.8028 Y46.9910
G01 X88.5897 Y47.0481
G01 X88.3700 Y47.0673
G01 X88.1503 Y47.0481
G01 X87.9372 Y46.9910
G01 X87.7373 Y46.8978
G01 X87.5567 Y46.7713
G01 X87.4007 Y46.6153
G01 X87.3707 Y46.5729
G01 X87.3292 Y46.5330
G01 X87.3212 Y46.5278
G01 X87.3134 Y46.5246
G01 X87.2441 Y46.5042
G01 X87.2371 Y46.5029
G01 X87.2311 Y46.5025
G01 X77.0604 Y46.5026
G01 X77.0532 Y46.5034
G01 X77.0027 Y46.5135
G01 X76.9938 Y46.5169
G01 X76.9896 Y46.5192
G01 X76.9847 Y46.5227
G01 X76.9301 Y46.5663
G01 X76.9257 Y46.5703
G01 X76.9210 Y46.5757
G01 X76.8933 Y46.6153
G01 X76.7373 Y46.7713
G01 X76.5567 Y46.8978
G01 X76.3568 Y46.9910
G01 X76.1437 Y47.0481
G01 X75.9240 Y47.0673
G01 X75.7043 Y47.0481
G01 X75.4912 Y46.9910
G01 X75.2913 Y46.8978
G01 X75.1107 Y46.7713
G01 X74.9547 Y46.6153
G01 X74.9247 Y46.5729
G01 X74.8832 Y46.5330
G01 X74.8762 Y46.5283
G01 X74.8674 Y46.5246
G01 X74.7981 Y46.5042
G01 X74.7911 Y46.5029
G01 X74.7851 Y46.5025
G01 X64.6144 Y46.5026
G01 X64.6072 Y46.5034
G01 X64.5567 Y46.5135
G01 X64.5478 Y46.5169
G01 X64.5436 Y46.5192
G01 X64.5387 Y46.5227
G01 X64.4841 Y46.5663
G01 X64.4797 Y46.5703
G01 X64.4750 Y46.5757
G01 X64.4473 Y46.6153
G01 X64.2913 Y46.7713
G01 X64.1107 Y46.8978
G01 X63.9108 Y46.9910
G01 X63.6977 Y47.0481
G01 X63.4780 Y47.0673
G01 X63.2583 Y47.0481
G01 X63.0452 Y46.9910
G01 X62.8453 Y46.8978
G01 X62.6647 Y46.7713
G01 X62.5087 Y46.6153
G01 X62.4787 Y46.5729
G01 X62.4372 Y46.5330
G01 X62.4302 Y46.5283
G01 X62.4214 Y46.5246
G01 X62.3521 Y46.5042
G01 X62.3462 Y46.5030
G01 X62.3403 Y46.5025
G01 X48.3093 Y46.5025
G01 X48.2972 Y46.5030
G01 X48.2878 Y46.5049
G01 X48.2174 Y46.5299
G01 X48.2100 Y46.5337
G01 X48.1976 Y46.5426
G01 X48.0343 Y46.6153
G01 X47.8594 Y46.6525
G01 X47.6806 Y46.6525
G01 X47.5057 Y46.6153
G01 X47.3424 Y46.5426
G01 X47.3249 Y46.5302
G01 X47.3164 Y46.5258
G01 X47.2436 Y46.5042
G01 X47.2378 Y46.5030
G01 X47.2319 Y46.5025
G01 X39.7237 Y46.5025
G01 X39.7152 Y46.5034
G01 X39.6647 Y46.5135
G01 X39.6558 Y46.5169
G01 X39.6505 Y46.5199
G01 X39.6467 Y46.5227
G01 X39.5921 Y46.5663
G01 X39.5877 Y46.5703
G01 X39.5830 Y46.5757
G01 X39.5553 Y46.6153
G01 X39.3993 Y46.7713
G01 X39.2187 Y46.8978
G01 X39.0188 Y46.9910
G01 X38.8057 Y47.0481
G01 X38.5860 Y47.0673
G01 X38.3663 Y47.0481
G01 X38.1532 Y46.9910
G01 X37.9533 Y46.8978
G01 X37.7727 Y46.7713
G01 X37.6167 Y46.6153
G01 X37.5867 Y46.5729
G01 X37.5452 Y46.5330
G01 X37.5372 Y46.5278
G01 X37.5294 Y46.5246
G01 X37.4601 Y46.5042
G01 X37.4542 Y46.5030
G01 X37.4495 Y46.5026
G01 X27.0249 Y46.5025
G01 X27.0164 Y46.5032
G01 X26.9659 Y46.5132
G01 X26.9601 Y46.5150
G01 X26.9558 Y46.5169
G01 X26.9505 Y46.5199
G01 X26.9467 Y46.5227
G01 X26.8921 Y46.5663
G01 X26.8877 Y46.5703
G01 X26.8830 Y46.5757
G01 X26.8553 Y46.6153
G01 X26.6993 Y46.7713
G01 X26.5187 Y46.8978
G01 X26.3188 Y46.9910
G01 X26.1057 Y47.0481
G01 X25.8860 Y47.0673
G01 X25.6663 Y47.0481
G01 X25.4532 Y46.9910
G01 X25.2533 Y46.8978
G01 X25.0727 Y46.7713
G01 X24.9167 Y46.6153
G01 X24.7902 Y46.4347
G01 X24.6970 Y46.2348
G01 X24.6399 Y46.0217
G01 X24.6207 Y45.8020
G00 Z2.0000
G00 X24.6910 Y45.8020
G01 F30.00
G01 Z0.0000
G01 F100.00
G01 X24.7091 Y45.5945
G01 X24.7630 Y45.3933
G01 X24.8511 Y45.2045
G01 X24.9705 Y45.0338
G01 X25.1178 Y44.8865
G01 X25.2885 Y44.7671
G01 X25.4773 Y44.6790
G01 X25.6785 Y44.6251
G01 X25.8860 Y44.6070
G01 X26.0935 Y44.6251
G01 X26.2947 Y44.6790
G01 X26.4835 Y44.7671
G01 X26.6542 Y44.8865
G01 X26.8015 Y45.0338
G01 X26.8267 Y45.0698
G01 X26.8341 Y45.0789
G01 X26.8401 Y45.0851
G01 X26.8747 Y45.1183
G01 X26.8856 Y45.1277
G01 X26.8952 Y45.1341
G01 X26.9027 Y45.1384
G01 X26.9131 Y45.1432
G01 X26.9213 Y45.1461
G01 X26.9966 Y45.1681
G01 X27.0106 Y45.1707
G01 X27.0249 Y45.1715
G01 X37.4530 Y45.1714
G01 X37.4617 Y45.1706
G01 X37.4703 Y45.1692
G01 X37.5173 Y45.1600
G01 X37.5285 Y45.1572
G01 X37.5393 Y45.1534
G01 X37.5498 Y45.1486
G01 X37.5597 Y45.1427
G01 X37.5668 Y45.1378
G01 X37.6236 Y45.0924
G01 X37.6342 Y45.0828
G01 X37.6400 Y45.0765
G01 X37.6453 Y45.0698
G01 X37.6705 Y45.0338
G01 X37.8178 Y44.8865
G01 X37.9885 Y44.7671
G01 X38.1773 Y44.6790
G01 X38.3785 Y44.6251
G01 X38.5860 Y44.6070
G01 X38.7935 Y44.6251
G01 X38.9947 Y44.6790
G01 X39.1835 Y44.7671
G01 X39.3542 Y44.8865
G01 X39.5015 Y45.0338
G01 X39.5267 Y45.0698
G01 X39.5341 Y45.0789
G01 X39.5401 Y45.0851
G01 X39.5747 Y45.1183
G01 X39.5856 Y45.1277
G01 X39.5952 Y45.1341
G01 X39.6027 Y45.1384
G01 X39.6131 Y45.1432
G01 X39.6213 Y45.1461
G01 X39.6966 Y45.1681
G01 X39.7106 Y45.1707
G01 X39.7249 Y45.1715
G01 X47.2341 Y45.1715
G01 X47.2441 Y45.1711
G01 X47.2527 Y45.1704
G01 X47.2613 Y45.1690
G01 X47.2698 Y45.1669
G01 X47.2781 Y45.1643
G01 X47.3466 Y45.1398
G01 X47.3544 Y45.1365
G01 X47.3621 Y45.1326
G01 X47.3694 Y45.1281
G01 X47.3776 Y45.1223
G01 X47.5275 Y45.0556
G01 X47.6880 Y45.0215
G01 X47.8520 Y45.0215
G01 X48.0125 Y45.0556
G01 X48.1624 Y45.1223
G01 X48.1746 Y45.1309
G01 X48.1819 Y45.1355
G01 X48.1896 Y45.1396
G01 X48.1975 Y45.1432
G01 X48.2085 Y45.1470
G01 X48.2810 Y45.1681
G01 X48.2951 Y45.1707
G01 X48.3093 Y45.1715
G01 X62.3420 Y45.1715
G01 X62.3508 Y45.1709
G01 X62.3594 Y45.1698
G01 X62.4093 Y45.1600
G01 X62.4205 Y45.1572
G01 X62.4313 Y45.1534
G01 X62.4418 Y45.1486
G01 X62.4517 Y45.1427
G01 X62.4588 Y45.1378
G01 X62.5156 Y45.0924
G01 X62.5262 Y45.0828
G01 X62.5320 Y45.0765
G01 X62.5373 Y45.0698
G01 X62.5625 Y45.0338
G01 X62.7098 Y44.8865
G01 X62.8805 Y44.7671
G01 X63.0693 Y44.6790
G01 X63.2705 Y44.6251
G01 X63.4780 Y44.6070
G01 X63.6855 Y44.6251
G01 X63.8867 Y44.6790
G01 X64.0755 Y44.7671
G01 X64.2462 Y44.8865
G01 X64.3935 Y45.0338
G01 X64.4187 Y45.0698
G01 X64.4261 Y45.0789
G01 X64.4321 Y45.0851
G01 X64.4667 Y45.1183
G01 X64.4776 Y45.1277
G01 X64.4847 Y45.1326
G01 X64.4947 Y45.1384
G01 X64.5025 Y45.1421
G01 X64.5133 Y45.1461
G01 X64.5886 Y45.1681
G01 X64.5998 Y45.1703
G01 X64.6140 Y45.1715
G01 X74.7910 Y45.1714
G01 X74.7997 Y45.1706
G01 X74.8083 Y45.1692
G01 X74.8553 Y45.1600
G01 X74.8665 Y45.1572
G01 X74.8773 Y45.1534
G01 X74.8878 Y45.1486
G01 X74.8953 Y45.1443
G01 X74.9048 Y45.1378
G01 X74.9616 Y45.0924
G01 X74.9722 Y45.0828
G01 X74.9780 Y45.0765
G01 X74.9833 Y45.0698
G01 X75.0085 Y45.0338
G01 X75.1558 Y44.8865
G01 X75.3265 Y44.7671
G01 X75.5153 Y44.6790
G01 X75.7165 Y44.6251
G01 X75.9240 Y44.6070
G01 X76.1315 Y44.6251
G01 X76.3327 Y44.6790
G01 X76.5215 Y44.7671
G01 X76.6922 Y44.8865
G01 X76.8395 Y45.0338
G01 X76.8647 Y45.0698
G01 X76.8721 Y45.0789
G01 X76.8781 Y45.0851
G01 X76.9127 Y45.1183
G01 X76.9236 Y45.1277
G01 X76.9307 Y45.1326
G01 X76.9407 Y45.1384
G01 X76.9485 Y45.1421
G01 X76.9593 Y45.1461
G01 X77.0318 Y45.1674
G01 X77.0430 Y45.1698
G01 X77.0572 Y45.1714
G01 X87.2311 Y45.1715
G01 X87.2399 Y45.1712
G01 X87.2514 Y45.1698
G01 X87.3013 Y45.1600
G01 X87.3097 Y45.1580
G01 X87.3207 Y45.1545
G01 X87.3312 Y45.1499
G01 X87.3413 Y45.1443
G01 X87.3508 Y45.1378
G01 X87.4076 Y45.0924
G01 X87.4182 Y45.0828
G01 X87.4240 Y45.0765
G01 X87.4293 Y45.0698
G01 X87.4545 Y45.0338
G01 X87.6018 Y44.8865
G01 X87.7725 Y44.7671
G01 X87.9613 Y44.6790
G01 X88.1625 Y44.6251
G01 X88.3700 Y44.6070
G01 X88.5775 Y44.6251
G01 X88.7787 Y44.6790
G01 X88.9675 Y44.7671
G01 X89.1382 Y44.8865
G01 X89.2855 Y45.0338
G01 X89.4049 Y45.2045
G01 X89.4930 Y45.3933
G01 X89.5469 Y45.5945
G01 X89.5650 Y45.8020
G01 X89.5469 Y46.0095
G01 X89.4930 Y46.2107
G01 X89.4049 Y46.3995
G01 X89.2855 Y46.5702
G01 X89.1382 Y46.7175
G01 X88.9675 Y46.8369
G01 X88.7787 Y46.9250
G01 X88.5775 Y46.9789
G01 X88.3700 Y46.9970
G01 X88.1625 Y46.9789
G01 X87.9613 Y46.9250
G01 X87.7725 Y46.8369
G01 X87.6018 Y46.7175
G01 X87.4545 Y46.5702
G01 X87.4293 Y46.5342
G01 X87.4219 Y46.5251
G01 X87.4159 Y46.5189
G01 X87.3813 Y46.4857
G01 X87.3704 Y46.4763
G01 X87.3608 Y46.4699
G01 X87.3533 Y46.4656
G01 X87.3429 Y46.4608
G01 X87.3347 Y46.4579
G01 X87.2594 Y46.4359
G01 X87.2454 Y46.4333
G01 X87.2311 Y46.4325
G01 X77.0570 Y46.4326
G01 X77.0483 Y46.4334
G01 X77.0397 Y46.4348
G01 X76.9927 Y46.4440
G01 X76.9815 Y46.4468
G01 X76.9707 Y46.4506
G01 X76.9602 Y46.4554
G01 X76.9503 Y46.4613
G01 X76.9432 Y46.4662
G01 X76.8864 Y46.5116
G01 X76.8758 Y46.5212
G01 X76.8700 Y46.5275
G01 X76.8647 Y46.5342
G01 X76.8395 Y46.5702
G01 X76.6922 Y46.7175
G01 X76.5215 Y46.8369
G01 X76.3327 Y46.9250
G01 X76.1315 Y46.9789
G01 X75.9240 Y46.9970
G01 X75.7165 Y46.9789
G01 X75.5153 Y46.9250
G01 X75.3265 Y46.8369
G01 X75.1558 Y46.7175
G01 X75.0085 Y46.5702
G01 X74.9833 Y46.5342
G01 X74.9759 Y46.5251
G01 X74.9699 Y46.5189
G01 X74.9353 Y46.4857
G01 X74.9244 Y46.4763
G01 X74.9148 Y46.4699
G01 X74.9073 Y46.4656
G01 X74.8995 Y46.4619
G01 X74.8887 Y46.4579
G01 X74.8134 Y46.4359
G01 X74.7994 Y46.4333
G01 X74.7851 Y46.4325
G01 X64.6110 Y46.4326
G01 X64.6023 Y46.4334
G01 X64.5937 Y46.4348
G01 X64.5467 Y46.4440
G01 X64.5355 Y46.4468
G01 X64.5247 Y46.4506
G01 X64.5142 Y46.4554
G01 X64.5067 Y46.4597
G01 X64.4972 Y46.4662
G01 X64.4404 Y46.5116
G01 X64.4298 Y46.5212
G01 X64.4240 Y46.5275
G01 X64.4187 Y46.5342
G01 X64.3935 Y46.5702
G01 X64.2462 Y46.7175
G01 X64.0755 Y46.8369
G01 X63.8867 Y46.9250
G01 X63.6855 Y46.9789
G01 X63.4780 Y46.9970
G01 X63.2705 Y46.9789
G01 X63.0693 Y46.9250
G01 X62.8805 Y46.8369
G01 X62.7098 Y46.7175
G01 X62.5625 Y46.5702
G01 X62.5373 Y46.5342
G01 X62.5299 Y46.5251
G01 X62.5239 Y46.5189
G01 X62.4893 Y46.4857
G01 X62.4784 Y46.4763
G01 X62.4688 Y46.4699
G01 X62.4613 Y46.4656
G01 X62.4535 Y46.4619
G01 X62.4427 Y46.4579
G01 X62.3674 Y46.4359
G01 X62.3534 Y46.4333
G01 X62.3420 Y46.4325
G01 X48.3093 Y46.4325
G01 X48.2959 Y46.4329
G01 X48.2873 Y46.4336
G01 X48.2787 Y46.4350
G01 X48.2702 Y46.4371
G01 X48.2619 Y46.4397
G01 X48.1934 Y46.4642
G01 X48.1856 Y46.4675
G01 X48.1779 Y46.4714
G01 X48.1706 Y46.4759
G01 X48.1624 Y46.4817
G01 X48.0125 Y46.5484
G01 X47.8520 Y46.5825
G01 X47.6880 Y46.5825
G01 X47.5275 Y46.5484
G01 X47.3776 Y46.4817
G01 X47.3654 Y46.4731
G01 X47.3581 Y46.4685
G01 X47.3504 Y46.4644
G01 X47.3425 Y46.4608
G01 X47.3315 Y46.4570
G01 X47.2617 Y46.4366
G01 X47.2477 Y46.4337
G01 X47.2335 Y46.4325
G01 X39.7220 Y46.4325
G01 X39.7132 Y46.4331
G01 X39.7046 Y46.4342
G01 X39.6547 Y46.4440
G01 X39.6435 Y46.4468
G01 X39.6327 Y46.4506
G01 X39.6248 Y46.4541
G01 X39.6147 Y46.4597
G01 X39.6052 Y46.4662
G01 X39.5484 Y46.5116
G01 X39.5378 Y46.5212
G01 X39.5320 Y46.5275
G01 X39.5267 Y46.5342
G01 X39.5015 Y46.5702
G01 X39.3542 Y46.7175
G01 X39.1835 Y46.8369
G01 X38.9947 Y46.9250
G01 X38.7935 Y46.9789
G01 X38.5860 Y46.9970
G01 X38.3785 Y46.9789
G01 X38.1773 Y46.9250
G01 X37.9885 Y46.8369
G01 X37.8178 Y46.7175
G01 X37.6705 Y46.5702
G01 X37.6453 Y46.5342
G01 X37.6379 Y46.5251
G01 X37.6319 Y46.5189
G01 X37.5973 Y46.4857
G01 X37.5864 Y46.4763
G01 X37.5793 Y46.4714
G01 X37.5693 Y46.4656
G01 X37.5615 Y46.4619
G01 X37.5507 Y46.4579
G01 X37.4782 Y46.4366
G01 X37.4670 Y46.4342
G01 X37.4528 Y46.4326
G01 X27.0249 Y46.4325
G01 X27.0161 Y46.4328
G01 X27.0046 Y46.4342
G01 X26.9547 Y46.4440
G01 X26.9463 Y46.4460
G01 X26.9353 Y46.4495
G01 X26.9248 Y46.4541
G01 X26.9147 Y46.4597
G01 X26.9052 Y46.4662
G01 X26.8484 Y46.5116
G01 X26.8378 Y46.5212
G01 X26.8320 Y46.5275
G01 X26.8267 Y46.5342
G01 X26.8015 Y46.5702
G01 X26.6542 Y46.7175
G01 X26.4835 Y46.8369
G01 X26.2947 Y46.9250
G01 X26.0935 Y46.9789
G01 X25.8860 Y46.9970
G01 X25.6785 Y46.9789
G01 X25.4773 Y46.9250
G01 X25.2885 Y46.8369
G01 X25.1178 Y46.7175
G01 X24.9705 Y46.5702
G01 X24.8511 Y46.3995
G01 X24.7630 Y46.2107
G01 X24.7091 Y46.0095
G01 X24.6910 Y45.8020
G00 Z2.0000
G00 X24.7612 Y45.8020
G01 F30.00
G01 Z0.0000
G01 F100.00
G01 X24.7783 Y45.6067
G01 X24.8291 Y45.4173
G01 X24.9119 Y45.2396
G01 X25.0244 Y45.0790
G01 X25.1630 Y44.9404
G01 X25.3236 Y44.8279
G01 X25.5013 Y44.7451
G01 X25.6907 Y44.6943
G01 X25.8860 Y44.6772
G01 X26.0813 Y44.6943
G01 X26.2707 Y44.7451
G01 X26.4484 Y44.8279
G01 X26.6090 Y44.9404
G01 X26.7476 Y45.0790
G01 X26.7731 Y45.1150
G01 X26.7820 Y45.1257
G01 X26.7884 Y45.1324
G01 X26.8295 Y45.1719
G01 X26.8399 Y45.1808
G01 X26.8472 Y45.1863
G01 X26.8625 Y45.1962
G01 X26.8746 Y45.2026
G01 X26.8871 Y45.2081
G01 X26.8999 Y45.2128
G01 X26.9713 Y45.2338
G01 X26.9845 Y45.2372
G01 X27.0023 Y45.2402
G01 X27.0113 Y45.2410
G01 X27.0249 Y45.2415
G01 X37.4564 Y45.2413
G01 X37.4656 Y45.2406
G01 X37.4793 Y45.2388
G01 X37.5308 Y45.2287
G01 X37.5485 Y45.2243
G01 X37.5657 Y45.2182
G01 X37.5782 Y45.2126
G01 X37.5902 Y45.2061
G01 X37.6055 Y45.1962
G01 X37.6673 Y45.1470
G01 X37.6743 Y45.1412
G01 X37.6841 Y45.1319
G01 X37.6903 Y45.1253
G01 X37.6990 Y45.1149
G01 X37.7244 Y45.0790
G01 X37.8630 Y44.9404
G01 X38.0236 Y44.8279
G01 X38.2013 Y44.7451
G01 X38.3907 Y44.6943
G01 X38.5860 Y44.6772
G01 X38.7813 Y44.6943
G01 X38.9707 Y44.7451
G01 X39.1484 Y44.8279
G01 X39.3090 Y44.9404
G01 X39.4476 Y45.0790
G01 X39.4731 Y45.1150
G01 X39.4820 Y45.1257
G01 X39.4884 Y45.1324
G01 X39.5295 Y45.1719
G01 X39.5399 Y45.1808
G01 X39.5472 Y45.1863
G01 X39.5586 Y45.1938
G01 X39.5705 Y45.2006
G01 X39.5871 Y45.2081
G01 X39.5999 Y45.2128
G01 X39.6713 Y45.2338
G01 X39.6845 Y45.2372
G01 X39.7023 Y45.2402
G01 X39.7113 Y45.2410
G01 X39.7249 Y45.2415
G01 X47.2361 Y45.2414
G01 X47.2477 Y45.2410
G01 X47.2615 Y45.2398
G01 X47.2751 Y45.2376
G01 X47.2885 Y45.2344
G01 X47.3016 Y45.2302
G01 X47.3716 Y45.2052
G01 X47.3841 Y45.1999
G01 X47.3922 Y45.1959
G01 X47.4040 Y45.1891
G01 X47.4126 Y45.1834
G01 X47.5492 Y45.1226
G01 X47.6953 Y45.0915
G01 X47.8447 Y45.0915
G01 X47.9908 Y45.1226
G01 X48.1274 Y45.1834
G01 X48.1389 Y45.1912
G01 X48.1507 Y45.1983
G01 X48.1630 Y45.2045
G01 X48.1757 Y45.2098
G01 X48.1888 Y45.2141
G01 X48.2645 Y45.2361
G01 X48.2778 Y45.2389
G01 X48.2868 Y45.2402
G01 X48.2958 Y45.2410
G01 X48.3093 Y45.2415
G01 X62.3437 Y45.2414
G01 X62.3576 Y45.2406
G01 X62.3713 Y45.2388
G01 X62.4228 Y45.2287
G01 X62.4405 Y45.2243
G01 X62.4577 Y45.2182
G01 X62.4702 Y45.2126
G01 X62.4861 Y45.2038
G01 X62.4975 Y45.1962
G01 X62.5593 Y45.1470
G01 X62.5696 Y45.1382
G01 X62.5761 Y45.1319
G01 X62.5853 Y45.1219
G01 X62.5910 Y45.1149
G01 X62.6164 Y45.0790
G01 X62.7550 Y44.9404
G01 X62.9156 Y44.8279
G01 X63.0933 Y44.7451
G01 X63.2827 Y44.6943
G01 X63.4780 Y44.6772
G01 X63.6733 Y44.6943
G01 X63.8627 Y44.7451
G01 X64.0404 Y44.8279
G01 X64.2010 Y44.9404
G01 X64.3396 Y45.0790
G01 X64.3651 Y45.1150
G01 X64.3710 Y45.1222
G01 X64.3804 Y45.1324
G01 X64.4215 Y45.1719
G01 X64.4284 Y45.1779
G01 X64.4392 Y45.1863
G01 X64.4506 Y45.1938
G01 X64.4625 Y45.2006
G01 X64.4749 Y45.2064
G01 X64.4919 Y45.2128
G01 X64.5721 Y45.2361
G01 X64.5898 Y45.2396
G01 X64.6033 Y45.2410
G01 X64.6123 Y45.2414
G01 X74.7944 Y45.2413
G01 X74.8082 Y45.2401
G01 X74.8173 Y45.2388
G01 X74.8688 Y45.2287
G01 X74.8865 Y45.2243
G01 X74.8995 Y45.2199
G01 X74.9162 Y45.2126
G01 X74.9321 Y45.2038
G01 X74.9435 Y45.1962
G01 X75.0053 Y45.1470
G01 X75.0123 Y45.1412
G01 X75.0221 Y45.1319
G01 X75.0283 Y45.1253
G01 X75.0370 Y45.1149
G01 X75.0624 Y45.0790
G01 X75.2010 Y44.9404
G01 X75.3616 Y44.8279
G01 X75.5393 Y44.7451
G01 X75.7287 Y44.6943
G01 X75.9240 Y44.6772
G01 X76.1193 Y44.6943
G01 X76.3087 Y44.7451
G01 X76.4864 Y44.8279
G01 X76.6470 Y44.9404
G01 X76.7856 Y45.0790
G01 X76.8111 Y45.1150
G01 X76.8170 Y45.1222
G01 X76.8264 Y45.1324
G01 X76.8675 Y45.1719
G01 X76.8779 Y45.1808
G01 X76.8852 Y45.1863
G01 X76.9005 Y45.1962
G01 X76.9126 Y45.2026
G01 X76.9251 Y45.2081
G01 X76.9379 Y45.2128
G01 X77.0181 Y45.2361
G01 X77.0358 Y45.2396
G01 X77.0538 Y45.2413
G01 X87.2311 Y45.2415
G01 X87.2450 Y45.2410
G01 X87.2633 Y45.2388
G01 X87.3148 Y45.2287
G01 X87.3325 Y45.2243
G01 X87.3497 Y45.2182
G01 X87.3622 Y45.2126
G01 X87.3742 Y45.2061
G01 X87.3895 Y45.1962
G01 X87.4513 Y45.1470
G01 X87.4616 Y45.1382
G01 X87.4681 Y45.1319
G01 X87.4773 Y45.1219
G01 X87.4830 Y45.1149
G01 X87.5084 Y45.0790
G01 X87.6470 Y44.9404
G01 X87.8076 Y44.8279
G01 X87.9853 Y44.7451
G01 X88.1747 Y44.6943
G01 X88.3700 Y44.6772
G01 X88.5653 Y44.6943
G01 X88.7547 Y44.7451
G01 X88.9324 Y44.8279
G01 X89.0930 Y44.9404
G01 X89.2316 Y45.0790
G01 X89.3441 Y45.2396
G01 X89.4269 Y45.4173
G01 X89.4777 Y45.6067
G01 X89.4948 Y45.8020
G01 X89.4777 Y45.9973
G01 X89.4269 Y46.1867
G01 X89.3441 Y46.3644
G01 X89.2316 Y46.5250
G01 X89.0930 Y46.6636
G01 X88.9324 Y46.7761
G01 X88.7547 Y46.8589
G01 X88.5653 Y46.9097
G01 X88.3700 Y46.9268
G01 X88.1747 Y46.9097
G01 X87.9853 Y46.8589
G01 X87.8076 Y46.7761
G01 X87.6470 Y46.6636
G01 X87.5084 Y46.5250
G01 X87.4829 Y46.4890
G01 X87.4770 Y46.4818
G01 X87.4676 Y46.4716
G01 X87.4265 Y46.4321
G01 X87.4196 Y46.4261
G01 X87.4088 Y46.4177
G01 X87.3974 Y46.4102
G01 X87.3855 Y46.4034
G01 X87.3731 Y46.3976
G01 X87.3561 Y46.3912
G01 X87.2847 Y46.3702
G01 X87.2715 Y46.3668
G01 X87.2537 Y46.3638
G01 X87.2402 Y46.3627
G01 X87.2311 Y46.3625
G01 X77.0536 Y46.3627
G01 X77.0398 Y46.3639
G01 X77.0307 Y46.3652
G01 X76.9792 Y46.3753
G01 X76.9615 Y46.3797
G01 X76.9443 Y46.3858
G01 X76.9318 Y46.3914
G01 X76.9198 Y46.3978
G01 X76.9045 Y46.4078
G01 X76.8427 Y46.4570
G01 X76.8324 Y46.4658
G01 X76.8259 Y46.4721
G01 X76.8197 Y46.4787
G01 X76.8110 Y46.4891
G01 X76.7856 Y46.5250
G01 X76.6470 Y46.6636
G01 X76.4864 Y46.7761
G01 X76.3087 Y46.8589
G01 X76.1193 Y46.9097
G01 X75.9240 Y46.9268
G01 X75.7287 Y46.9097
G01 X75.5393 Y46.8589
G01 X75.3616 Y46.7761
G01 X75.2010 Y46.6636
G01 X75.0624 Y46.5250
G01 X75.0369 Y46.4890
G01 X75.0280 Y46.4783
G01 X75.0216 Y46.4716
G01 X74.9805 Y46.4321
G01 X74.9701 Y46.4232
G01 X74.9628 Y46.4177
G01 X74.9514 Y46.4102
G01 X74.9354 Y46.4014
G01 X74.9229 Y46.3959
G01 X74.9101 Y46.3912
G01 X74.8387 Y46.3702
G01 X74.8255 Y46.3668
G01 X74.8166 Y46.3651
G01 X74.8032 Y46.3634
G01 X74.7851 Y46.3625
G01 X64.6076 Y46.3627
G01 X64.5984 Y46.3634
G01 X64.5847 Y46.3652
G01 X64.5332 Y46.3753
G01 X64.5155 Y46.3797
G01 X64.4983 Y46.3858
G01 X64.4858 Y46.3914
G01 X64.4738 Y46.3978
G01 X64.4585 Y46.4078
G01 X64.3967 Y46.4570
G01 X64.3897 Y46.4628
G01 X64.3799 Y46.4721
G01 X64.3707 Y46.4821
G01 X64.3650 Y46.4891
G01 X64.3396 Y46.5250
G01 X64.2010 Y46.6636
G01 X64.0404 Y46.7761
G01 X63.8627 Y46.8589
G01 X63.6733 Y46.9097
G01 X63.4780 Y46.9268
G01 X63.2827 Y46.9097
G01 X63.0933 Y46.8589
G01 X62.9156 Y46.7761
G01 X62.7550 Y46.6636
G01 X62.6164 Y46.5250
G01 X62.5909 Y46.4890
G01 X62.5820 Y46.4783
G01 X62.5756 Y46.4716
G01 X62.5345 Y46.4321
G01 X62.5276 Y46.4261
G01 X62.5168 Y46.4177
G01 X62.5054 Y46.4102
G01 X62.4935 Y46.4034
G01 X62.4769 Y46.3959
G01 X62.4641 Y46.3912
G01 X62.3839 Y46.3679
G01 X62.3662 Y46.3644
G01 X62.3572 Y46.3634
G01 X62.3437 Y46.3626
G01 X48.3093 Y46.3625
G01 X48.2923 Y46.3630
G01 X48.2831 Y46.3637
G01 X48.2695 Y46.3656
G01 X48.2560 Y46.3684
G01 X48.2384 Y46.3738
G01 X48.1684 Y46.3988
G01 X48.1600 Y46.4022
G01 X48.1478 Y46.4081
G01 X48.1360 Y46.4149
G01 X48.1274 Y46.4206
G01 X47.9908 Y46.4814
G01 X47.8447 Y46.5125
G01 X47.6953 Y46.5125
G01 X47.5492 Y46.4814
G01 X47.4126 Y46.4206
G01 X47.4011 Y46.4128
G01 X47.3893 Y46.4057
G01 X47.3770 Y46.3995
G01 X47.3643 Y46.3942
G01 X47.3512 Y46.3899
G01 X47.2755 Y46.3679
G01 X47.2577 Y46.3644
G01 X47.2442 Y46.3630
G01 X47.2352 Y46.3626
G01 X39.7203 Y46.3626
G01 X39.7064 Y46.3634
G01 X39.6927 Y46.3652
G01 X39.6412 Y46.3753
G01 X39.6235 Y46.3797
G01 X39.6063 Y46.3858
G01 X39.5938 Y46.3914
G01 X39.5818 Y46.3978
G01 X39.5665 Y46.4078
G01 X39.5047 Y46.4570
G01 X39.4944 Y46.4658
G01 X39.4879 Y46.4721
G01 X39.4787 Y46.4821
G01 X39.4730 Y46.4891
G01 X39.4476 Y46.5250
G01 X39.3090 Y46.6636
G01 X39.1484 Y46.7761
G01 X38.9707 Y46.8589
G01 X38.7813 Y46.9097
G01 X38.5860 Y46.9268
G01 X38.3907 Y46.9097
G01 X38.2013 Y46.8589
G01 X38.0236 Y46.7761
G01 X37.8630 Y46.6636
G01 X37.7244 Y46.5250
G01 X37.6989 Y46.4890
G01 X37.6900 Y46.4783
G01 X37.6836 Y46.4716
G01 X37.6425 Y46.4321
G01 X37.6356 Y46.4261
G01 X37.6248 Y46.4177
G01 X37.6134 Y46.4102
G01 X37.6015 Y46.4034
G01 X37.5891 Y46.3976
G01 X37.5721 Y46.3912
G01 X37.4919 Y46.3679
G01 X37.4742 Y46.3644
G01 X37.4562 Y46.3627
G01 X27.0249 Y46.3625
G01 X27.0064 Y46.3634
G01 X26.9927 Y46.3652
G01 X26.9412 Y46.3753
G01 X26.9235 Y46.3797
G01 X26.9063 Y46.3858
G01 X26.8938 Y46.3914
G01 X26.8818 Y46.3978
G01 X26.8665 Y46.4078
G01 X26.8047 Y46.4570
G01 X26.7977 Y46.4628
G01 X26.7879 Y46.4721
G01 X26.7787 Y46.4821
G01 X26.7730 Y46.4891
G01 X26.7476 Y46.5250
G01 X26.6090 Y46.6636
G01 X26.4484 Y46.7761
G01 X26.2707 Y46.8589
G01 X26.0813 Y46.9097
G01 X25.8860 Y46.9268
G01 X25.6907 Y46.9097
G01 X25.5013 Y46.8589
G01 X25.3236 Y46.7761
G01 X25.1630 Y46.6636
G01 X25.0244 Y46.5250
G01 X24.9119 Y46.3644
G01 X24.8291 Y46.1867
G01 X24.7783 Y45.9973
G01 X24.7612 Y45.8020
G00 Z2.0000
G00 X24.8920 Y45.9093
G01 F30.00
G01 Z0.0000
G01 F100.00
G01 X24.8901 Y45.8907
G01 X24.8860 Y45.8020
G01 X24.8908 Y45.7040
G01 X24.9052 Y45.6069
G01 X24.9291 Y45.5117
G01 X24.9621 Y45.4193
G01 X25.0041 Y45.3306
G01 X25.0545 Y45.2464
G01 X25.1073 Y45.1750
G01 X25.1191 Y45.1605
G01 X25.1725 Y45.1016
G01 X25.1856 Y45.0885
G01 X25.2516 Y45.0290
G01 X25.3228 Y44.9759
G01 X25.3383 Y44.9655
G01 X25.4146 Y44.9201
G01 X25.4948 Y44.8819
G01 X25.5120 Y44.8748
G01 X25.5957 Y44.8451
G01 X25.6909 Y44.8212
G01 X25.7880 Y44.8068
G01 X25.8860 Y44.8020
G01 X25.9747 Y44.8061
G01 X25.9933 Y44.8080
G01 X26.0811 Y44.8212
G01 X26.1763 Y44.8451
G01 X26.2600 Y44.8748
G01 X26.2772 Y44.8819
G01 X26.3574 Y44.9201
G01 X26.4377 Y44.9680
G01 X26.4492 Y44.9759
G01 X26.5130 Y45.0233
G01 X26.5275 Y45.0351
G01 X26.5931 Y45.0949
G01 X26.6560 Y45.1640
G01 X26.6647 Y45.1750
G01 X26.7121 Y45.2388
G01 X26.7200 Y45.2503
G01 X26.7657 Y45.3265
G01 X26.7701 Y45.3347
G01 X26.7830 Y45.3619
G01 X37.6890 Y45.3619
G01 X37.7019 Y45.3347
G01 X37.7063 Y45.3265
G01 X37.7520 Y45.2503
G01 X37.7599 Y45.2388
G01 X37.8073 Y45.1750
G01 X37.8160 Y45.1640
G01 X37.8789 Y45.0949
G01 X37.9445 Y45.0351
G01 X37.9590 Y45.0233
G01 X38.0228 Y44.9759
G01 X38.0343 Y44.9680
G01 X38.1146 Y44.9201
G01 X38.1948 Y44.8819
G01 X38.2120 Y44.8748
G01 X38.2957 Y44.8451
G01 X38.3909 Y44.8212
G01 X38.4787 Y44.8080
G01 X38.4973 Y44.8061
G01 X38.5860 Y44.8020
G01 X38.6747 Y44.8061
G01 X38.6933 Y44.8080
G01 X38.7811 Y44.8212
G01 X38.8763 Y44.8451
G01 X38.9600 Y44.8748
G01 X38.9772 Y44.8819
G01 X39.0574 Y44.9201
G01 X39.1377 Y44.9680
G01 X39.1492 Y44.9759
G01 X39.2130 Y45.0233
G01 X39.2275 Y45.0351
G01 X39.2931 Y45.0949
G01 X39.3560 Y45.1640
G01 X39.3647 Y45.1750
G01 X39.4121 Y45.2388
G01 X39.4200 Y45.2503
G01 X39.4657 Y45.3265
G01 X39.4701 Y45.3347
G01 X39.4830 Y45.3619
G01 X47.3778 Y45.3619
G01 X47.3921 Y45.3489
G01 X47.3993 Y45.3430
G01 X47.4346 Y45.3168
G01 X47.4461 Y45.3089
G01 X47.4919 Y45.2817
G01 X47.5357 Y45.2607
G01 X47.5485 Y45.2552
G01 X47.5987 Y45.2374
G01 X47.6549 Y45.2233
G01 X47.7122 Y45.2148
G01 X47.7700 Y45.2120
G01 X47.8278 Y45.2148
G01 X47.8851 Y45.2233
G01 X47.9413 Y45.2374
G01 X47.9915 Y45.2552
G01 X48.0043 Y45.2607
G01 X48.0481 Y45.2817
G01 X48.0939 Y45.3089
G01 X48.1054 Y45.3168
G01 X48.1407 Y45.3430
G01 X48.1479 Y45.3489
G01 X48.1622 Y45.3619
G01 X62.5810 Y45.3619
G01 X62.5939 Y45.3347
G01 X62.5983 Y45.3265
G01 X62.6440 Y45.2503
G01 X62.6519 Y45.2388
G01 X62.6993 Y45.1750
G01 X62.7080 Y45.1640
G01 X62.7709 Y45.0949
G01 X62.8365 Y45.0351
G01 X62.8510 Y45.0233
G01 X62.9148 Y44.9759
G01 X62.9263 Y44.9680
G01 X63.0066 Y44.9201
G01 X63.0868 Y44.8819
G01 X63.1040 Y44.8748
G01 X63.1877 Y44.8451
G01 X63.2829 Y44.8212
G01 X63.3707 Y44.8080
G01 X63.3893 Y44.8061
G01 X63.4780 Y44.8020
G01 X63.5667 Y44.8061
G01 X63.5853 Y44.8080
G01 X63.6731 Y44.8212
G01 X63.7683 Y44.8451
G01 X63.8520 Y44.8748
G01 X63.8692 Y44.8819
G01 X63.9494 Y44.9201
G01 X64.0297 Y44.9680
G01 X64.0412 Y44.9759
G01 X64.1050 Y45.0233
G01 X64.1195 Y45.0351
G01 X64.1851 Y45.0949
G01 X64.2480 Y45.1640
G01 X64.2567 Y45.1750
G01 X64.3041 Y45.2388
G01 X64.3120 Y45.2503
G01 X64.3577 Y45.3265
G01 X64.3621 Y45.3347
G01 X64.3750 Y45.3619
G01 X75.0270 Y45.3619
G01 X75.0399 Y45.3347
G01 X75.0443 Y45.3265
G01 X75.0900 Y45.2503
G01 X75.0979 Y45.2388
G01 X75.1453 Y45.1750
G01 X75.1540 Y45.1640
G01 X75.2169 Y45.0949
G01 X75.2825 Y45.0351
G01 X75.2970 Y45.0233
G01 X75.3608 Y44.9759
