(G-CODE GENERATED BY FLATCAM v8.994 - www.flatcam.org - Version Date: 2020/11/7)

(Name: stylophone-F_Cu.gbr_iso_combined_cnc)
(Type: G-code from Geometry)
(Units: MM)

(Created on Tuesday, 23 January 2024 at 23:34)

(This preprocessor is the default preprocessor used by FlatCAM.)
(It is made to work with MACH3 compatible motion controllers.)

(TOOL DIAMETER: 0.1 mm)
(Feedrate_XY: 100.0 mm/min)
(Feedrate_Z: 30.0 mm/min)
(Feedrate rapids 1500.0 mm/min)

(Z_Cut: 0.0 mm)
(Z_Move: 1.0 mm)
(Z Start: None mm)
(Z End: 15.0 mm)
(X,Y End: None mm)
(Steps per circle: 64)
(Preprocessor Geometry: default)

(X range:    0.4505 ...  115.4095  mm)
(Y range:   -1.0895 ...   85.9295  mm)

(Spindle Speed: 0.0 RPM)
G21
G90
G94

G01 F100.00

M5
G00 Z15.0000
G00 X0.0000 Y0.0000
T1
M6    
(MSG, Change to Tool Dia = 0.1000)
M0
G00 Z15.0000

M03
G01 F100.00
G00 X10.4845 Y6.9867
G01 F30.00
G01 Z0.0000
G01 F100.00
G01 X10.4955 Y6.8846
G01 X10.5055 Y6.8383
G01 X10.5368 Y6.7443
G01 X10.6093 Y6.6315
G01 X10.6504 Y6.5841
G01 X10.7510 Y6.4969
G01 X10.8721 Y6.4416
G01 X10.9322 Y6.4240
G01 X11.0676 Y6.4045
G01 X23.2593 Y6.4045
G01 X23.3614 Y6.4155
G01 X23.4077 Y6.4255
G01 X23.5018 Y6.4568
G01 X23.5427 Y6.4831
G01 X23.5512 Y6.4873
G01 X23.6229 Y6.5084
G01 X23.6290 Y6.5097
G01 X23.6352 Y6.5101
G01 X23.6451 Y6.5092
G01 X23.6979 Y6.4978
G01 X23.7036 Y6.4962
G01 X23.8236 Y6.4416
G01 X23.8837 Y6.4240
G01 X24.0191 Y6.4045
G01 X35.4538 Y6.4045
G01 X35.5559 Y6.4155
G01 X35.6022 Y6.4255
G01 X35.6963 Y6.4568
G01 X35.7372 Y6.4831
G01 X35.7457 Y6.4873
G01 X35.8174 Y6.5084
G01 X35.8235 Y6.5097
G01 X35.8297 Y6.5101
G01 X35.8396 Y6.5092
G01 X35.8924 Y6.4978
G01 X35.8981 Y6.4962
G01 X36.0181 Y6.4416
G01 X36.0782 Y6.4240
G01 X36.2136 Y6.4045
G01 X48.1513 Y6.4045
G01 X48.2534 Y6.4155
G01 X48.2997 Y6.4255
G01 X48.3938 Y6.4568
G01 X48.4347 Y6.4831
G01 X48.4432 Y6.4873
G01 X48.5149 Y6.5084
G01 X48.5210 Y6.5097
G01 X48.5272 Y6.5101
G01 X48.5371 Y6.5092
G01 X48.5899 Y6.4978
G01 X48.5956 Y6.4962
G01 X48.7156 Y6.4416
G01 X48.7757 Y6.4240
G01 X48.9111 Y6.4045
G01 X60.3458 Y6.4045
G01 X60.4479 Y6.4155
G01 X60.4942 Y6.4255
G01 X60.5883 Y6.4568
G01 X60.6292 Y6.4831
G01 X60.6377 Y6.4873
G01 X60.7094 Y6.5084
G01 X60.7155 Y6.5097
G01 X60.7217 Y6.5101
G01 X60.7316 Y6.5092
G01 X60.7844 Y6.4978
G01 X60.7901 Y6.4962
G01 X60.9101 Y6.4416
G01 X60.9702 Y6.4240
G01 X61.1056 Y6.4045
G01 X73.0433 Y6.4045
G01 X73.1454 Y6.4155
G01 X73.1917 Y6.4255
G01 X73.2858 Y6.4568
G01 X73.3267 Y6.4831
G01 X73.3352 Y6.4873
G01 X73.4069 Y6.5084
G01 X73.4130 Y6.5097
G01 X73.4192 Y6.5101
G01 X73.4291 Y6.5092
G01 X73.4819 Y6.4978
G01 X73.4876 Y6.4962
G01 X73.6076 Y6.4416
G01 X73.6677 Y6.4240
G01 X73.8031 Y6.4045
G01 X85.2378 Y6.4045
G01 X85.3399 Y6.4155
G01 X85.3862 Y6.4255
G01 X85.4803 Y6.4568
G01 X85.5212 Y6.4831
G01 X85.5297 Y6.4873
G01 X85.6014 Y6.5084
G01 X85.6075 Y6.5097
G01 X85.6137 Y6.5101
G01 X85.6236 Y6.5092
G01 X85.6764 Y6.4978
G01 X85.6821 Y6.4962
G01 X85.8021 Y6.4416
G01 X85.8622 Y6.4240
G01 X85.9976 Y6.4045
G01 X97.9353 Y6.4045
G01 X98.0374 Y6.4155
G01 X98.0837 Y6.4255
G01 X98.1778 Y6.4568
G01 X98.2187 Y6.4831
G01 X98.2272 Y6.4873
G01 X98.2989 Y6.5084
G01 X98.3050 Y6.5097
G01 X98.3112 Y6.5101
G01 X98.3211 Y6.5092
G01 X98.3739 Y6.4978
G01 X98.3796 Y6.4962
G01 X98.4996 Y6.4416
G01 X98.5597 Y6.4240
G01 X98.6951 Y6.4045
G01 X110.6353 Y6.4045
G01 X110.7374 Y6.4155
G01 X110.7837 Y6.4255
G01 X110.8777 Y6.4568
G01 X110.9905 Y6.5293
G01 X111.0379 Y6.5704
G01 X111.1251 Y6.6710
G01 X111.1804 Y6.7921
G01 X111.1980 Y6.8522
G01 X111.2175 Y6.9876
G01 X111.2175 Y16.9885
G01 X111.2052 Y17.0966
G01 X111.1939 Y17.1454
G01 X111.1576 Y17.2480
G01 X106.1269 Y27.5610
G01 X106.0541 Y27.6696
G01 X106.0142 Y27.7144
G01 X105.9177 Y27.7970
G01 X105.7965 Y27.8524
G01 X105.7363 Y27.8700
G01 X105.6009 Y27.8895
G01 X102.7853 Y27.8895
G01 X102.7794 Y27.8900
G01 X102.7736 Y27.8912
G01 X102.7054 Y27.9112
G01 X102.6995 Y27.9133
G01 X102.6930 Y27.9168
G01 X102.6879 Y27.9204
G01 X102.6825 Y27.9255
G01 X102.6359 Y27.9792
G01 X102.6302 Y27.9874
G01 X102.6270 Y27.9942
G01 X102.6251 Y28.0001
G01 X102.6134 Y28.0540
G01 X102.6125 Y28.0635
G01 X102.6125 Y30.3991
G01 X102.6130 Y30.4062
G01 X102.6145 Y30.4132
G01 X102.6346 Y30.4814
G01 X102.6383 Y30.4902
G01 X102.6430 Y30.4972
G01 X102.6829 Y30.5387
G01 X102.7253 Y30.5687
G01 X102.8813 Y30.7247
G01 X103.0078 Y30.9053
G01 X103.1010 Y31.1052
G01 X103.1581 Y31.3183
G01 X103.1773 Y31.5380
G01 X103.1581 Y31.7577
G01 X103.1010 Y31.9708
G01 X103.0078 Y32.1707
G01 X102.8813 Y32.3513
G01 X102.7253 Y32.5073
G01 X102.5447 Y32.6338
G01 X102.3448 Y32.7270
G01 X102.1317 Y32.7841
G01 X101.9120 Y32.8033
G01 X101.6923 Y32.7841
G01 X101.4792 Y32.7270
G01 X101.2793 Y32.6338
G01 X101.0987 Y32.5073
G01 X100.9427 Y32.3513
G01 X100.8521 Y32.2219
G01 X100.8162 Y32.1707
G01 X100.7230 Y31.9708
G01 X100.6659 Y31.7577
G01 X100.6467 Y31.5380
G01 X100.6659 Y31.3183
G01 X100.7230 Y31.1052
G01 X100.8162 Y30.9053
G01 X100.9427 Y30.7247
G01 X101.0987 Y30.5687
G01 X101.1383 Y30.5410
G01 X101.1437 Y30.5363
G01 X101.1477 Y30.5319
G01 X101.1913 Y30.4774
G01 X101.1965 Y30.4693
G01 X101.1986 Y30.4650
G01 X101.2005 Y30.4593
G01 X101.2111 Y30.4052
G01 X101.2115 Y30.3991
G01 X101.2114 Y28.0611
G01 X101.2108 Y28.0552
G01 X101.2098 Y28.0506
G01 X101.1898 Y27.9824
G01 X101.1872 Y27.9754
G01 X101.1828 Y27.9679
G01 X101.1798 Y27.9640
G01 X101.1755 Y27.9595
G01 X101.1208 Y27.9121
G01 X101.1125 Y27.9066
G01 X101.1080 Y27.9044
G01 X101.1021 Y27.9024
G01 X101.0470 Y27.8904
G01 X101.0375 Y27.8895
G01 X98.6942 Y27.8895
G01 X98.5921 Y27.8785
G01 X98.5458 Y27.8685
G01 X98.4517 Y27.8372
G01 X98.4108 Y27.8109
G01 X98.4023 Y27.8067
G01 X98.3306 Y27.7856
G01 X98.3233 Y27.7842
G01 X98.3170 Y27.7839
G01 X98.3071 Y27.7850
G01 X98.2556 Y27.7962
G01 X98.2499 Y27.7978
G01 X98.1299 Y27.8524
G01 X98.0698 Y27.8700
G01 X97.9344 Y27.8895
G01 X95.3805 Y27.8895
G01 X95.3734 Y27.8900
G01 X95.3676 Y27.8912
G01 X95.2994 Y27.9112
G01 X95.2935 Y27.9133
G01 X95.2849 Y27.9182
G01 X95.2773 Y27.9246
G01 X95.2299 Y27.9792
G01 X95.2248 Y27.9863
G01 X95.2214 Y27.9930
G01 X95.2191 Y28.0001
G01 X95.2076 Y28.0529
G01 X95.2066 Y28.0599
G01 X95.2065 Y29.9103
G01 X95.2080 Y29.9331
G01 X95.2110 Y29.9535
G01 X95.2071 Y29.9981
G01 X95.2065 Y30.0148
G01 X95.2028 Y30.0470
G01 X95.1964 Y30.1195
G01 X95.1956 Y30.1236
G01 X95.1933 Y30.1339
G01 X95.1684 Y30.2023
G01 X95.1443 Y30.2748
G01 X95.1379 Y30.2881
G01 X95.0979 Y30.3489
G01 X95.0577 Y30.4139
G01 X95.0484 Y30.4253
G01 X94.9923 Y30.4783
G01 X93.4824 Y31.9883
G01 X93.4673 Y32.0055
G01 X93.4550 Y32.0220
G01 X93.4207 Y32.0508
G01 X93.4085 Y32.0622
G01 X93.3831 Y32.0823
G01 X93.3273 Y32.1291
G01 X93.3197 Y32.1341
G01 X93.3149 Y32.1370
G01 X93.2457 Y32.1694
G01 X93.1806 Y32.2021
G01 X93.1667 Y32.2069
G01 X93.0954 Y32.2216
G01 X93.0210 Y32.2392
G01 X93.0064 Y32.2407
G01 X92.9293 Y32.2385
G01 X90.6049 Y32.2385
G01 X90.5954 Y32.2394
G01 X90.5215 Y32.2609
G01 X90.5138 Y32.2643
G01 X90.5068 Y32.2690
G01 X90.4653 Y32.3089
G01 X90.4353 Y32.3513
G01 X90.2793 Y32.5073
G01 X90.0987 Y32.6338
G01 X89.8988 Y32.7270
G01 X89.6857 Y32.7841
G01 X89.4660 Y32.8033
G01 X89.2463 Y32.7841
G01 X89.0332 Y32.7270
G01 X88.8333 Y32.6338
G01 X88.6527 Y32.5073
G01 X88.4967 Y32.3513
G01 X88.3702 Y32.1707
G01 X88.2770 Y31.9708
G01 X88.2199 Y31.7577
G01 X88.2007 Y31.5380
G01 X88.2199 Y31.3183
G01 X88.2770 Y31.1052
G01 X88.3702 Y30.9053
G01 X88.4967 Y30.7247
G01 X88.6527 Y30.5687
G01 X88.8333 Y30.4422
G01 X89.0332 Y30.3490
G01 X89.2463 Y30.2919
G01 X89.4660 Y30.2727
G01 X89.6857 Y30.2919
G01 X89.8988 Y30.3490
G01 X90.0987 Y30.4422
G01 X90.2793 Y30.5687
G01 X90.4353 Y30.7247
G01 X90.4630 Y30.7643
G01 X90.4677 Y30.7697
G01 X90.4721 Y30.7737
G01 X90.5267 Y30.8173
G01 X90.5347 Y30.8225
G01 X90.5401 Y30.8250
G01 X90.5447 Y30.8265
G01 X90.5964 Y30.8368
G01 X90.6049 Y30.8375
G01 X92.5798 Y30.8375
G01 X92.5869 Y30.8370
G01 X92.5939 Y30.8355
G01 X92.6609 Y30.8158
G01 X92.6700 Y30.8121
G01 X92.6772 Y30.8075
G01 X92.7028 Y30.7865
G01 X93.7545 Y29.7348
G01 X93.7585 Y29.7304
G01 X93.7625 Y29.7245
G01 X93.7965 Y29.6621
G01 X93.7992 Y29.6565
G01 X93.8011 Y29.6507
G01 X93.8022 Y29.6447
G01 X93.8055 Y29.6118
G01 X93.8055 Y28.0623
G01 X93.8050 Y28.0564
G01 X93.8038 Y28.0506
G01 X93.7830 Y27.9800
G01 X93.7806 Y27.9743
G01 X93.7775 Y27.9689
G01 X93.7738 Y27.9640
G01 X93.7695 Y27.9595
G01 X93.7148 Y27.9121
G01 X93.7097 Y27.9085
G01 X93.7054 Y27.9060
G01 X93.6996 Y27.9036
G01 X93.6936 Y27.9018
G01 X93.6421 Y27.8906
G01 X93.6339 Y27.8896
G01 X92.0927 Y27.8895
G01 X91.9906 Y27.8785
G01 X91.9443 Y27.8685
G01 X91.8502 Y27.8372
G01 X91.8093 Y27.8109
G01 X91.8008 Y27.8067
G01 X91.7291 Y27.7856
G01 X91.7230 Y27.7843
G01 X91.7168 Y27.7839
G01 X91.7069 Y27.7848
G01 X91.6541 Y27.7962
G01 X91.6484 Y27.7978
G01 X91.5284 Y27.8524
G01 X91.4683 Y27.8700
G01 X91.3329 Y27.8895
G01 X84.2445 Y27.8895
G01 X84.2374 Y27.8900
G01 X84.2316 Y27.8912
G01 X84.1622 Y27.9116
G01 X84.1575 Y27.9133
G01 X84.1520 Y27.9161
G01 X84.1479 Y27.9189
G01 X84.1431 Y27.9229
G01 X84.0931 Y27.9802
G01 X84.0901 Y27.9842
G01 X84.0870 Y27.9896
G01 X84.0846 Y27.9954
G01 X84.0828 Y28.0014
G01 X84.0714 Y28.0540
G01 X84.0705 Y28.0635
G01 X84.0706 Y40.5615
G01 X84.0710 Y40.5662
G01 X84.0722 Y40.5721
G01 X84.0926 Y40.6414
G01 X84.0963 Y40.6502
G01 X84.1010 Y40.6572
G01 X84.1409 Y40.6987
G01 X84.1833 Y40.7287
G01 X84.3393 Y40.8847
G01 X84.4658 Y41.0653
G01 X84.5590 Y41.2652
G01 X84.6161 Y41.4783
G01 X84.6353 Y41.6980
G01 X84.6161 Y41.9177
G01 X84.5590 Y42.1308
G01 X84.4658 Y42.3307
G01 X84.3393 Y42.5113
G01 X84.1833 Y42.6673
G01 X84.0027 Y42.7938
G01 X83.8028 Y42.8870
G01 X83.5897 Y42.9441
G01 X83.3700 Y42.9633
G01 X83.1503 Y42.9441
G01 X82.9372 Y42.8870
G01 X82.7373 Y42.7938
G01 X82.5567 Y42.6673
G01 X82.4007 Y42.5113
G01 X82.2742 Y42.3307
G01 X82.1810 Y42.1308
G01 X82.1239 Y41.9177
G01 X82.1047 Y41.6980
G01 X82.1239 Y41.4783
G01 X82.1810 Y41.2652
G01 X82.2742 Y41.0653
G01 X82.4007 Y40.8847
G01 X82.5567 Y40.7287
G01 X82.5963 Y40.7010
G01 X82.6017 Y40.6963
G01 X82.6057 Y40.6919
G01 X82.6493 Y40.6374
G01 X82.6545 Y40.6293
G01 X82.6570 Y40.6239
G01 X82.6585 Y40.6193
G01 X82.6686 Y40.5688
G01 X82.6694 Y40.5628
G01 X82.6695 Y35.3957
G01 X82.6691 Y35.3898
G01 X82.6678 Y35.3828
G01 X82.6470 Y35.3122
G01 X82.6446 Y35.3065
G01 X82.6415 Y35.3011
G01 X82.6386 Y35.2971
G01 X82.6344 Y35.2925
G01 X82.5788 Y35.2443
G01 X82.5706 Y35.2388
G01 X82.5638 Y35.2358
G01 X82.5554 Y35.2336
G01 X82.4801 Y35.2230
G01 X82.4702 Y35.2235
G01 X82.4505 Y35.2276
G01 X82.2397 Y35.2841
G01 X82.0200 Y35.3033
G01 X81.8003 Y35.2841
G01 X81.5872 Y35.2270
G01 X81.3873 Y35.1338
G01 X81.2067 Y35.0073
G01 X81.0507 Y34.8513
G01 X80.9242 Y34.6707
G01 X80.8310 Y34.4708
G01 X80.7739 Y34.2577
G01 X80.7547 Y34.0380
G01 X80.7739 Y33.8183
G01 X80.8310 Y33.6052
G01 X80.9242 Y33.4053
G01 X81.0507 Y33.2247
G01 X81.2067 Y33.0687
G01 X81.3873 Y32.9422
G01 X81.5872 Y32.8490
G01 X81.8003 Y32.7919
G01 X82.0200 Y32.7727
G01 X82.2397 Y32.7919
G01 X82.4505 Y32.8484
G01 X82.4563 Y32.8496
G01 X82.4646 Y32.8501
G01 X82.5344 Y32.8484
G01 X82.5419 Y32.8477
G01 X82.5514 Y32.8450
G01 X82.5602 Y32.8405
G01 X82.6202 Y32.8000
G01 X82.6241 Y32.7969
G01 X82.6285 Y32.7925
G01 X82.6330 Y32.7866
G01 X82.6366 Y32.7801
G01 X82.6646 Y32.7147
G01 X82.6667 Y32.7089
G01 X82.6683 Y32.7005
G01 X82.6695 Y32.6803
G01 X82.6695 Y28.0623
G01 X82.6690 Y28.0564
G01 X82.6678 Y28.0506
G01 X82.6478 Y27.9824
G01 X82.6452 Y27.9754
G01 X82.6408 Y27.9679
G01 X82.6378 Y27.9640
G01 X82.6335 Y27.9595
G01 X82.5788 Y27.9121
G01 X82.5705 Y27.9066
G01 X82.5660 Y27.9044
G01 X82.5601 Y27.9024
G01 X82.5050 Y27.8904
G01 X82.4955 Y27.8895
G01 X79.9007 Y27.8895
G01 X79.7986 Y27.8785
G01 X79.7523 Y27.8685
G01 X79.6583 Y27.8372
G01 X79.6163 Y27.8102
G01 X79.6077 Y27.8061
G01 X79.5361 Y27.7849
G01 X79.5300 Y27.7837
G01 X79.5225 Y27.7832
G01 X79.5126 Y27.7844
G01 X79.4611 Y27.7956
G01 X79.4554 Y27.7972
G01 X79.3339 Y27.8524
G01 X79.2738 Y27.8700
G01 X79.1384 Y27.8895
G01 X71.7973 Y27.8895
G01 X71.7902 Y27.8902
G01 X71.7844 Y27.8915
G01 X71.7162 Y27.9116
G01 X71.7115 Y27.9133
G01 X71.7060 Y27.9161
G01 X71.6999 Y27.9204
G01 X71.6945 Y27.9255
G01 X71.6463 Y27.9812
G01 X71.6410 Y27.9896
G01 X71.6374 Y27.9989
G01 X71.6254 Y28.0540
G01 X71.6245 Y28.0635
G01 X71.6246 Y40.5615
G01 X71.6252 Y40.5674
G01 X71.6262 Y40.5721
G01 X71.6466 Y40.6414
G01 X71.6503 Y40.6502
G01 X71.6550 Y40.6572
G01 X71.6949 Y40.6987
G01 X71.7373 Y40.7287
G01 X71.8933 Y40.8847
G01 X72.0198 Y41.0653
G01 X72.1130 Y41.2652
G01 X72.1701 Y41.4783
G01 X72.1893 Y41.6980
G01 X72.1701 Y41.9177
G01 X72.1130 Y42.1308
G01 X72.0198 Y42.3307
G01 X71.8933 Y42.5113
G01 X71.7373 Y42.6673
G01 X71.5567 Y42.7938
G01 X71.3568 Y42.8870
G01 X71.1437 Y42.9441
G01 X70.9240 Y42.9633
G01 X70.7043 Y42.9441
G01 X70.4912 Y42.8870
G01 X70.2913 Y42.7938
G01 X70.1107 Y42.6673
G01 X69.9547 Y42.5113
G01 X69.8282 Y42.3307
G01 X69.7350 Y42.1308
G01 X69.6779 Y41.9177
G01 X69.6587 Y41.6980
G01 X69.6779 Y41.4783
G01 X69.7350 Y41.2652
G01 X69.8282 Y41.0653
G01 X69.9547 Y40.8847
G01 X70.1107 Y40.7287
G01 X70.1503 Y40.7010
G01 X70.1557 Y40.6963
G01 X70.1597 Y40.6919
G01 X70.2033 Y40.6374
G01 X70.2085 Y40.6293
G01 X70.2106 Y40.6250
G01 X70.2125 Y40.6193
G01 X70.2226 Y40.5688
G01 X70.2234 Y40.5628
G01 X70.2235 Y35.3957
G01 X70.2230 Y35.3886
G01 X70.2215 Y35.3816
G01 X70.2014 Y35.3134
G01 X70.1992 Y35.3076
G01 X70.1955 Y35.3011
G01 X70.1918 Y35.2961
G01 X70.1875 Y35.2917
G01 X70.1338 Y35.2451
G01 X70.1288 Y35.2413
G01 X70.1235 Y35.2382
G01 X70.1178 Y35.2358
G01 X70.1118 Y35.2341
G01 X70.0377 Y35.2233
G01 X70.0316 Y35.2230
G01 X70.0255 Y35.2234
G01 X70.0059 Y35.2273
G01 X69.7937 Y35.2841
G01 X69.5740 Y35.3033
G01 X69.3543 Y35.2841
G01 X69.1412 Y35.2270
G01 X68.9413 Y35.1338
G01 X68.7607 Y35.0073
G01 X68.6047 Y34.8513
G01 X68.4782 Y34.6707
G01 X68.3850 Y34.4708
G01 X68.3279 Y34.2577
G01 X68.3087 Y34.0380
G01 X68.3279 Y33.8183
G01 X68.3850 Y33.6052
G01 X68.4782 Y33.4053
G01 X68.6047 Y33.2247
G01 X68.7607 Y33.0687
G01 X68.9413 Y32.9422
G01 X69.1412 Y32.8490
G01 X69.3543 Y32.7919
G01 X69.5740 Y32.7727
G01 X69.7937 Y32.7919
G01 X70.0045 Y32.8484
G01 X70.0103 Y32.8496
G01 X70.0186 Y32.8501
G01 X70.0884 Y32.8484
G01 X70.0959 Y32.8477
G01 X70.1054 Y32.8450
G01 X70.1142 Y32.8405
G01 X70.1742 Y32.8000
G01 X70.1781 Y32.7969
G01 X70.1825 Y32.7925
G01 X70.1870 Y32.7866
G01 X70.1906 Y32.7801
G01 X70.2186 Y32.7147
G01 X70.2207 Y32.7089
G01 X70.2223 Y32.7005
G01 X70.2235 Y32.6803
G01 X70.2235 Y28.0623
G01 X70.2230 Y28.0564
G01 X70.2218 Y28.0506
G01 X70.2018 Y27.9824
G01 X70.1992 Y27.9754
G01 X70.1955 Y27.9689
G01 X70.1918 Y27.9640
G01 X70.1875 Y27.9595
G01 X70.1338 Y27.9129
G01 X70.1277 Y27.9085
G01 X70.1211 Y27.9049
G01 X70.1129 Y27.9021
G01 X70.0601 Y27.8906
G01 X70.0543 Y27.8897
G01 X70.0495 Y27.8895
G01 X67.4547 Y27.8895
G01 X67.3526 Y27.8785
G01 X67.3063 Y27.8685
G01 X67.2123 Y27.8372
G01 X67.1703 Y27.8102
G01 X67.1617 Y27.8061
G01 X67.0901 Y27.7849
G01 X67.0840 Y27.7837
G01 X67.0765 Y27.7832
G01 X67.0666 Y27.7844
G01 X67.0151 Y27.7956
G01 X67.0094 Y27.7972
G01 X66.8879 Y27.8524
G01 X66.8278 Y27.8700
G01 X66.6924 Y27.8895
G01 X59.3513 Y27.8895
G01 X59.3454 Y27.8900
G01 X59.3384 Y27.8915
G01 X59.2702 Y27.9116
G01 X59.2655 Y27.9133
G01 X59.2600 Y27.9161
G01 X59.2539 Y27.9204
G01 X59.2485 Y27.9255
G01 X59.2003 Y27.9812
G01 X59.1950 Y27.9896
G01 X59.1914 Y27.9989
G01 X59.1794 Y28.0540
G01 X59.1785 Y28.0635
G01 X59.1786 Y40.5615
G01 X59.1792 Y40.5674
G01 X59.1802 Y40.5721
G01 X59.2006 Y40.6414
G01 X59.2038 Y40.6492
G01 X59.2090 Y40.6572
G01 X59.2489 Y40.6987
G01 X59.2913 Y40.7287
G01 X59.4473 Y40.8847
G01 X59.5738 Y41.0653
G01 X59.6670 Y41.2652
G01 X59.7241 Y41.4783
G01 X59.7433 Y41.6980
G01 X59.7241 Y41.9177
G01 X59.6670 Y42.1308
G01 X59.5738 Y42.3307
G01 X59.4473 Y42.5113
G01 X59.2913 Y42.6673
G01 X59.1107 Y42.7938
G01 X58.9108 Y42.8870
G01 X58.6977 Y42.9441
G01 X58.4780 Y42.9633
G01 X58.2583 Y42.9441
G01 X58.0452 Y42.8870
G01 X57.8453 Y42.7938
G01 X57.6647 Y42.6673
G01 X57.5087 Y42.5113
G01 X57.3822 Y42.3307
G01 X57.2890 Y42.1308
G01 X57.2319 Y41.9177
G01 X57.2127 Y41.6980
G01 X57.2319 Y41.4783
G01 X57.2890 Y41.2652
G01 X57.3822 Y41.0653
G01 X57.5087 Y40.8847
G01 X57.6647 Y40.7287
G01 X57.7043 Y40.7010
G01 X57.7097 Y40.6963
G01 X57.7137 Y40.6919
G01 X57.7573 Y40.6374
G01 X57.7625 Y40.6293
G01 X57.7650 Y40.6239
G01 X57.7665 Y40.6193
G01 X57.7766 Y40.5688
G01 X57.7774 Y40.5628
G01 X57.7775 Y35.3957
G01 X57.7770 Y35.3886
G01 X57.7755 Y35.3816
G01 X57.7554 Y35.3134
G01 X57.7532 Y35.3076
G01 X57.7495 Y35.3011
G01 X57.7458 Y35.2961
G01 X57.7415 Y35.2917
G01 X57.6878 Y35.2451
G01 X57.6828 Y35.2413
G01 X57.6775 Y35.2382
G01 X57.6718 Y35.2358
G01 X57.6658 Y35.2341
G01 X57.5917 Y35.2233
G01 X57.5856 Y35.2230
G01 X57.5795 Y35.2234
G01 X57.5599 Y35.2273
G01 X57.3477 Y35.2841
G01 X57.1280 Y35.3033
G01 X56.9083 Y35.2841
G01 X56.6952 Y35.2270
G01 X56.4953 Y35.1338
G01 X56.3147 Y35.0073
G01 X56.1587 Y34.8513
G01 X56.0322 Y34.6707
G01 X55.9390 Y34.4708
G01 X55.8819 Y34.2577
G01 X55.8627 Y34.0380
G01 X55.8819 Y33.8183
G01 X55.9390 Y33.6052
G01 X56.0322 Y33.4053
G01 X56.1587 Y33.2247
G01 X56.3147 Y33.0687
G01 X56.4953 Y32.9422
G01 X56.6952 Y32.8490
G01 X56.9083 Y32.7919
G01 X57.1280 Y32.7727
G01 X57.3477 Y32.7919
G01 X57.5585 Y32.8484
G01 X57.5643 Y32.8496
G01 X57.5726 Y32.8501
G01 X57.6424 Y32.8484
G01 X57.6499 Y32.8477
G01 X57.6594 Y32.8450
G01 X57.6682 Y32.8405
G01 X57.7282 Y32.8000
G01 X57.7330 Y32.7960
G01 X57.7365 Y32.7925
G01 X57.7410 Y32.7866
G01 X57.7446 Y32.7801
G01 X57.7726 Y32.7147
G01 X57.7747 Y32.7089
G01 X57.7763 Y32.7005
G01 X57.7775 Y32.6803
G01 X57.7775 Y28.0623
G01 X57.7770 Y28.0564
G01 X57.7758 Y28.0506
G01 X57.7558 Y27.9824
G01 X57.7537 Y27.9765
G01 X57.7502 Y27.9700
G01 X57.7458 Y27.9640
G01 X57.7415 Y27.9595
G01 X57.6838 Y27.9098
G01 X57.6763 Y27.9054
G01 X57.6669 Y27.9021
G01 X57.6130 Y27.8904
G01 X57.6035 Y27.8895
G01 X55.0087 Y27.8895
G01 X54.9066 Y27.8785
G01 X54.8603 Y27.8685
G01 X54.7662 Y27.8372
G01 X54.7253 Y27.8109
G01 X54.7168 Y27.8067
G01 X54.6451 Y27.7856
G01 X54.6378 Y27.7842
G01 X54.6315 Y27.7839
G01 X54.6216 Y27.7850
G01 X54.5701 Y27.7962
G01 X54.5644 Y27.7978
G01 X54.4444 Y27.8524
G01 X54.3843 Y27.8700
G01 X54.2489 Y27.8895
G01 X53.0013 Y27.8895
G01 X52.9954 Y27.8900
G01 X52.9896 Y27.8912
G01 X52.9202 Y27.9116
G01 X52.9111 Y27.9155
G01 X52.9069 Y27.9182
G01 X52.9020 Y27.9220
G01 X52.8977 Y27.9264
G01 X52.8519 Y27.9792
G01 X52.8488 Y27.9832
G01 X52.8456 Y27.9885
G01 X52.8430 Y27.9942
G01 X52.8411 Y28.0001
G01 X52.8294 Y28.0540
G01 X52.8285 Y28.0623
G01 X52.8285 Y30.3991
G01 X52.8289 Y30.4051
G01 X52.8305 Y30.4132
G01 X52.8506 Y30.4814
G01 X52.8538 Y30.4892
G01 X52.8590 Y30.4972
G01 X52.8989 Y30.5387
G01 X52.9413 Y30.5687
G01 X53.0973 Y30.7247
G01 X53.2238 Y30.9053
G01 X53.3170 Y31.1052
G01 X53.3741 Y31.3183
G01 X53.3933 Y31.5380
G01 X53.3741 Y31.7577
G01 X53.3170 Y31.9708
G01 X53.2238 Y32.1707
G01 X53.0973 Y32.3513
G01 X52.9413 Y32.5073
G01 X52.7607 Y32.6338
G01 X52.5608 Y32.7270
G01 X52.3477 Y32.7841
G01 X52.1280 Y32.8033
G01 X51.9083 Y32.7841
G01 X51.6952 Y32.7270
G01 X51.4953 Y32.6338
G01 X51.3147 Y32.5073
G01 X51.1587 Y32.3513
G01 X51.0322 Y32.1707
G01 X50.9390 Y31.9708
G01 X50.8819 Y31.7577
G01 X50.8627 Y31.5380
G01 X50.8819 Y31.3183
G01 X50.9390 Y31.1052
G01 X51.0322 Y30.9053
G01 X51.1587 Y30.7247
G01 X51.3147 Y30.5687
G01 X51.3543 Y30.5410
G01 X51.3597 Y30.5363
G01 X51.3637 Y30.5319
G01 X51.4073 Y30.4774
G01 X51.4108 Y30.4725
G01 X51.4131 Y30.4683
G01 X51.4165 Y30.4593
G01 X51.4271 Y30.4052
G01 X51.4275 Y30.3991
G01 X51.4274 Y28.0611
G01 X51.4268 Y28.0552
G01 X51.4258 Y28.0506
G01 X51.4058 Y27.9824
G01 X51.4032 Y27.9754
G01 X51.3995 Y27.9689
G01 X51.3958 Y27.9640
G01 X51.3915 Y27.9595
G01 X51.3368 Y27.9121
G01 X51.3285 Y27.9066
G01 X51.3205 Y27.9032
G01 X51.2630 Y27.8904
G01 X51.2535 Y27.8895
G01 X48.9102 Y27.8895
G01 X48.8081 Y27.8785
G01 X48.7618 Y27.8685
G01 X48.6677 Y27.8372
G01 X48.6268 Y27.8109
G01 X48.6183 Y27.8067
G01 X48.5466 Y27.7856
G01 X48.5393 Y27.7842
G01 X48.5330 Y27.7839
G01 X48.5231 Y27.7850
G01 X48.4716 Y27.7962
G01 X48.4659 Y27.7978
G01 X48.3459 Y27.8524
G01 X48.2858 Y27.8700
G01 X48.1504 Y27.8895
G01 X46.1045 Y27.8895
G01 X46.0986 Y27.8899
G01 X46.0916 Y27.8912
G01 X46.0234 Y27.9112
G01 X46.0175 Y27.9133
G01 X46.0089 Y27.9182
G01 X46.0013 Y27.9246
G01 X45.9539 Y27.9792
G01 X45.9488 Y27.9863
G01 X45.9454 Y27.9930
G01 X45.9431 Y28.0001
G01 X45.9316 Y28.0529
G01 X45.9306 Y28.0599
G01 X45.9305 Y29.1483
G01 X45.9320 Y29.1711
G01 X45.9350 Y29.1915
G01 X45.9311 Y29.2361
G01 X45.9305 Y29.2528
G01 X45.9268 Y29.2850
G01 X45.9204 Y29.3575
G01 X45.9173 Y29.3719
G01 X45.8923 Y29.4404
G01 X45.8683 Y29.5128
G01 X45.8665 Y29.5166
G01 X45.8619 Y29.5261
G01 X45.8199 Y29.5899
G01 X45.7817 Y29.6519
G01 X45.7724 Y29.6633
G01 X45.7163 Y29.7163
G01 X43.4444 Y31.9883
G01 X43.4293 Y32.0055
G01 X43.4170 Y32.0220
G01 X43.3827 Y32.0508
G01 X43.3705 Y32.0622
G01 X43.3451 Y32.0823
G01 X43.2893 Y32.1291
G01 X43.2769 Y32.1370
G01 X43.2077 Y32.1694
G01 X43.1426 Y32.2021
G01 X43.1340 Y32.2051
G01 X43.1287 Y32.2069
G01 X43.0539 Y32.2224
G01 X42.9830 Y32.2392
G01 X42.9684 Y32.2407
G01 X42.8913 Y32.2385
G01 X40.8209 Y32.2385
G01 X40.8114 Y32.2394
G01 X40.7375 Y32.2609
G01 X40.7298 Y32.2643
G01 X40.7228 Y32.2690
G01 X40.6813 Y32.3089
G01 X40.6513 Y32.3513
G01 X40.4953 Y32.5073
G01 X40.3147 Y32.6338
G01 X40.1148 Y32.7270
G01 X39.9017 Y32.7841
G01 X39.6820 Y32.8033
G01 X39.4623 Y32.7841
G01 X39.2492 Y32.7270
G01 X39.0493 Y32.6338
G01 X38.8687 Y32.5073
G01 X38.7127 Y32.3513
G01 X38.5862 Y32.1707
G01 X38.4930 Y31.9708
G01 X38.4359 Y31.7577
G01 X38.4167 Y31.5380
G01 X38.4359 Y31.3183
G01 X38.4930 Y31.1052
G01 X38.5862 Y30.9053
G01 X38.7127 Y30.7247
G01 X38.8687 Y30.5687
G01 X39.0493 Y30.4422
G01 X39.2492 Y30.3490
G01 X39.4623 Y30.2919
G01 X39.6820 Y30.2727
G01 X39.9017 Y30.2919
G01 X40.1148 Y30.3490
G01 X40.3147 Y30.4422
G01 X40.4953 Y30.5687
G01 X40.6513 Y30.7247
G01 X40.6790 Y30.7643
G01 X40.6837 Y30.7697
G01 X40.6881 Y30.7737
G01 X40.7427 Y30.8173
G01 X40.7465 Y30.8201
G01 X40.7518 Y30.8231
G01 X40.7607 Y30.8265
G01 X40.8124 Y30.8368
G01 X40.8209 Y30.8375
G01 X42.5430 Y30.8375
G01 X42.5489 Y30.8370
G01 X42.5547 Y30.8358
G01 X42.6229 Y30.8158
G01 X42.6298 Y30.8132
G01 X42.6341 Y30.8109
G01 X42.6392 Y30.8075
G01 X42.6648 Y30.7865
G01 X44.4785 Y28.9728
G01 X44.4825 Y28.9684
G01 X44.4852 Y28.9645
G01 X44.5205 Y28.9001
G01 X44.5232 Y28.8945
G01 X44.5247 Y28.8899
G01 X44.5261 Y28.8839
G01 X44.5295 Y28.8511
G01 X44.5295 Y28.0623
G01 X44.5290 Y28.0564
G01 X44.5278 Y28.0506
G01 X44.5078 Y27.9824
G01 X44.5052 Y27.9754
G01 X44.5022 Y27.9700
G01 X44.4986 Y27.9649
G01 X44.4935 Y27.9595
G01 X44.4398 Y27.9129
G01 X44.4316 Y27.9072
G01 X44.4248 Y27.9040
G01 X44.4189 Y27.9021
G01 X44.3661 Y27.8906
G01 X44.3579 Y27.8896
G01 X42.3087 Y27.8895
G01 X42.2066 Y27.8785
G01 X42.1603 Y27.8685
G01 X42.0662 Y27.8372
G01 X42.0253 Y27.8109
G01 X42.0168 Y27.8067
G01 X41.9451 Y27.7856
G01 X41.9390 Y27.7843
G01 X41.9328 Y27.7839
G01 X41.9229 Y27.7848
G01 X41.8701 Y27.7962
G01 X41.8644 Y27.7978
G01 X41.7444 Y27.8524
G01 X41.6843 Y27.8700
G01 X41.5489 Y27.8895
G01 X36.7065 Y27.8895
G01 X36.7006 Y27.8899
G01 X36.6936 Y27.8912
G01 X36.6242 Y27.9116
G01 X36.6184 Y27.9138
G01 X36.6130 Y27.9168
G01 X36.6079 Y27.9204
G01 X36.6042 Y27.9237
G01 X36.5559 Y27.9792
G01 X36.5508 Y27.9863
G01 X36.5474 Y27.9930
G01 X36.5451 Y28.0001
G01 X36.5334 Y28.0540
G01 X36.5325 Y28.0635
G01 X36.5325 Y39.3883
G01 X36.5340 Y39.4111
G01 X36.5370 Y39.4315
G01 X36.5331 Y39.4761
G01 X36.5325 Y39.4928
G01 X36.5288 Y39.5250
G01 X36.5224 Y39.5975
G01 X36.5193 Y39.6119
G01 X36.4943 Y39.6804
G01 X36.4703 Y39.7528
G01 X36.4664 Y39.7611
G01 X36.4639 Y39.7661
G01 X36.4219 Y39.8299
G01 X36.3837 Y39.8919
G01 X36.3744 Y39.9033
G01 X36.3183 Y39.9563
G01 X34.8866 Y41.3881
G01 X34.8805 Y41.3954
G01 X34.8440 Y41.4619
G01 X34.8408 Y41.4697
G01 X34.8389 Y41.4780
G01 X34.8362 Y41.5187
G01 X34.8362 Y41.5250
G01 X34.8513 Y41.6980
G01 X34.8321 Y41.9177
G01 X34.7750 Y42.1308
G01 X34.6818 Y42.3307
G01 X34.5553 Y42.5113
G01 X34.3993 Y42.6673
G01 X34.2187 Y42.7938
G01 X34.0188 Y42.8870
G01 X33.8057 Y42.9441
G01 X33.5860 Y42.9633
G01 X33.3663 Y42.9441
G01 X33.1532 Y42.8870
G01 X32.9533 Y42.7938
G01 X32.7727 Y42.6673
G01 X32.6167 Y42.5113
G01 X32.4902 Y42.3307
G01 X32.3970 Y42.1308
G01 X32.3399 Y41.9177
G01 X32.3207 Y41.6980
G01 X32.3399 Y41.4783
G01 X32.3970 Y41.2652
G01 X32.4902 Y41.0653
G01 X32.6167 Y40.8847
G01 X32.7727 Y40.7287
G01 X32.9533 Y40.6022
G01 X33.1532 Y40.5090
G01 X33.3663 Y40.4519
G01 X33.5860 Y40.4327
G01 X33.7577 Y40.4477
G01 X33.7649 Y40.4478
G01 X33.7719 Y40.4469
G01 X33.8416 Y40.4329
G01 X33.8508 Y40.4299
G01 X33.8583 Y40.4258
G01 X33.8902 Y40.4023
G01 X33.8959 Y40.3974
G01 X35.0805 Y39.2128
G01 X35.0852 Y39.2074
G01 X35.0885 Y39.2025
G01 X35.1225 Y39.1401
G01 X35.1256 Y39.1334
G01 X35.1276 Y39.1263
G01 X35.1312 Y39.0951
G01 X35.1315 Y39.0898
G01 X35.1315 Y28.0635
G01 X35.1311 Y28.0576
G01 X35.1301 Y28.0517
G01 X35.1086 Y27.9788
G01 X35.1061 Y27.9732
G01 X35.1035 Y27.9689
G01 X35.1006 Y27.9649
G01 X35.0964 Y27.9603
G01 X35.0408 Y27.9121
G01 X35.0325 Y27.9066
G01 X35.0268 Y27.9040
G01 X35.0209 Y27.9021
G01 X34.9681 Y27.8906
G01 X34.9599 Y27.8896
G01 X30.1167 Y27.8895
G01 X30.0146 Y27.8785
G01 X29.9683 Y27.8685
G01 X29.8743 Y27.8372
G01 X29.8323 Y27.8102
G01 X29.8237 Y27.8061
G01 X29.7521 Y27.7849
G01 X29.7460 Y27.7837
G01 X29.7398 Y27.7832
G01 X29.7298 Y27.7841
G01 X29.6771 Y27.7956
G01 X29.6714 Y27.7972
G01 X29.5499 Y27.8524
G01 X29.4898 Y27.8700
G01 X29.3544 Y27.8895
G01 X24.5133 Y27.8895
G01 X24.5074 Y27.8900
G01 X24.5016 Y27.8912
G01 X24.4334 Y27.9112
G01 X24.4264 Y27.9138
G01 X24.4210 Y27.9168
G01 X24.4159 Y27.9204
G01 X24.4105 Y27.9255
G01 X24.3639 Y27.9792
G01 X24.3588 Y27.9863
G01 X24.3554 Y27.9930
G01 X24.3531 Y28.0001
G01 X24.3414 Y28.0540
G01 X24.3405 Y28.0635
G01 X24.3405 Y38.8803
G01 X24.3420 Y38.9031
G01 X24.3450 Y38.9235
G01 X24.3411 Y38.9681
G01 X24.3405 Y38.9848
G01 X24.3368 Y39.0170
G01 X24.3304 Y39.0895
G01 X24.3273 Y39.1039
G01 X24.3012 Y39.1757
G01 X24.2783 Y39.2448
G01 X24.2744 Y39.2531
G01 X24.2719 Y39.2581
G01 X24.2299 Y39.3220
G01 X24.1917 Y39.3839
G01 X24.1824 Y39.3953
G01 X24.1263 Y39.4483
G01 X22.1866 Y41.3881
G01 X22.1812 Y41.3944
G01 X22.1781 Y41.3995
G01 X22.1440 Y41.4619
G01 X22.1408 Y41.4697
G01 X22.1389 Y41.4780
G01 X22.1362 Y41.5187
G01 X22.1362 Y41.5250
G01 X22.1513 Y41.6980
G01 X22.1321 Y41.9177
G01 X22.0750 Y42.1308
G01 X21.9818 Y42.3307
G01 X21.8553 Y42.5113
G01 X21.6993 Y42.6673
G01 X21.5187 Y42.7938
G01 X21.3188 Y42.8870
G01 X21.1057 Y42.9441
G01 X20.8860 Y42.9633
G01 X20.6663 Y42.9441
G01 X20.4532 Y42.8870
G01 X20.2533 Y42.7938
G01 X20.0727 Y42.6673
G01 X19.9167 Y42.5113
G01 X19.7902 Y42.3307
G01 X19.6970 Y42.1308
G01 X19.6399 Y41.9177
G01 X19.6207 Y41.6980
G01 X19.6399 Y41.4783
G01 X19.6970 Y41.2652
G01 X19.7902 Y41.0653
G01 X19.9167 Y40.8847
G01 X20.0727 Y40.7287
G01 X20.2533 Y40.6022
G01 X20.4532 Y40.5090
G01 X20.6663 Y40.4519
G01 X20.8860 Y40.4327
G01 X21.0577 Y40.4477
G01 X21.0672 Y40.4476
G01 X21.1404 Y40.4332
G01 X21.1474 Y40.4312
G01 X21.1530 Y40.4288
G01 X21.1583 Y40.4258
G01 X21.1912 Y40.4016
G01 X21.1959 Y40.3974
G01 X22.8885 Y38.7048
G01 X22.8925 Y38.7004
G01 X22.8965 Y38.6945
G01 X22.9305 Y38.6321
G01 X22.9340 Y38.6242
G01 X22.9361 Y38.6159
G01 X22.9392 Y38.5871
G01 X22.9395 Y38.5818
G01 X22.9395 Y28.0635
G01 X22.9390 Y28.0564
G01 X22.9375 Y28.0494
G01 X22.9166 Y27.9788
G01 X22.9146 Y27.9743
G01 X22.9115 Y27.9689
G01 X22.9086 Y27.9649
G01 X22.9044 Y27.9603
G01 X22.8488 Y27.9121
G01 X22.8405 Y27.9066
G01 X22.8348 Y27.9040
G01 X22.8289 Y27.9021
G01 X22.7761 Y27.8906
G01 X22.7679 Y27.8896
G01 X17.9222 Y27.8895
G01 X17.8201 Y27.8785
G01 X17.7738 Y27.8685
G01 X17.6797 Y27.8372
G01 X17.6388 Y27.8109
G01 X17.6303 Y27.8067
G01 X17.5586 Y27.7856
G01 X17.5525 Y27.7843
G01 X17.5463 Y27.7839
G01 X17.5364 Y27.7848
G01 X17.4836 Y27.7962
G01 X17.4779 Y27.7978
G01 X17.3579 Y27.8524
G01 X17.2978 Y27.8700
G01 X17.1624 Y27.8895
G01 X15.6633 Y27.8895
G01 X15.6574 Y27.8900
G01 X15.6516 Y27.8912
G01 X15.5834 Y27.9112
G01 X15.5775 Y27.9133
G01 X15.5689 Y27.9182
G01 X15.5613 Y27.9246
G01 X15.5139 Y27.9792
G01 X15.5088 Y27.9863
G01 X15.5054 Y27.9930
G01 X15.5031 Y28.0001
G01 X15.4914 Y28.0540
G01 X15.4905 Y28.0623
G01 X15.4907 Y30.4039
G01 X15.4925 Y30.4132
G01 X15.5126 Y30.4814
G01 X15.5158 Y30.4892
G01 X15.5210 Y30.4972
G01 X15.5609 Y30.5387
G01 X15.6033 Y30.5687
G01 X15.7593 Y30.7247
G01 X15.8858 Y30.9053
G01 X15.9790 Y31.1052
G01 X16.0361 Y31.3183
G01 X16.0553 Y31.5380
G01 X16.0361 Y31.7577
G01 X15.9790 Y31.9708
G01 X15.8858 Y32.1707
G01 X15.7593 Y32.3513
G01 X15.6033 Y32.5073
G01 X15.4227 Y32.6338
G01 X15.2228 Y32.7270
G01 X15.0097 Y32.7841
G01 X14.7900 Y32.8033
G01 X14.5703 Y32.7841
G01 X14.3572 Y32.7270
G01 X14.1573 Y32.6338
G01 X13.9767 Y32.5073
G01 X13.8207 Y32.3513
G01 X13.6942 Y32.1707
G01 X13.6010 Y31.9708
G01 X13.5439 Y31.7577
G01 X13.5247 Y31.5380
G01 X13.5439 Y31.3183
G01 X13.6010 Y31.1052
G01 X13.6942 Y30.9053
G01 X13.8207 Y30.7247
G01 X13.9767 Y30.5687
G01 X14.0163 Y30.5410
G01 X14.0217 Y30.5363
G01 X14.0257 Y30.5319
G01 X14.0693 Y30.4774
G01 X14.0745 Y30.4693
G01 X14.0766 Y30.4650
G01 X14.0785 Y30.4593
G01 X14.0886 Y30.4088
G01 X14.0894 Y30.4028
G01 X14.0895 Y26.9852
G01 X14.0889 Y26.9777
G01 X14.0810 Y26.9326
G01 X14.0789 Y26.9254
G01 X10.5205 Y17.1992
G01 X10.4986 Y17.1179
G01 X10.4919 Y17.0797
G01 X10.4845 Y16.9958
G01 X10.4845 Y6.9867
G00 Z1.0000
G00 X10.5545 Y6.9904
G01 F30.00
G01 Z0.0000
G01 F100.00
G01 X10.5647 Y6.8958
G01 X10.5732 Y6.8568
G01 X10.6005 Y6.7747
G01 X10.6655 Y6.6736
G01 X10.7000 Y6.6337
G01 X10.7892 Y6.5564
G01 X10.8966 Y6.5074
G01 X10.9472 Y6.4925
G01 X11.0726 Y6.4745
G01 X23.2556 Y6.4745
G01 X23.3502 Y6.4847
G01 X23.3892 Y6.4931
G01 X23.4713 Y6.5205
G01 X23.5087 Y6.5444
G01 X23.5188 Y6.5496
G01 X23.5294 Y6.5538
G01 X23.6077 Y6.5768
G01 X23.6225 Y6.5794
G01 X23.6344 Y6.5801
G01 X23.6464 Y6.5796
G01 X23.6583 Y6.5780
G01 X23.7128 Y6.5662
G01 X23.7238 Y6.5632
G01 X23.7371 Y6.5581
G01 X23.8481 Y6.5074
G01 X23.8987 Y6.4925
G01 X24.0241 Y6.4745
G01 X35.4501 Y6.4745
G01 X35.5447 Y6.4847
G01 X35.5837 Y6.4931
G01 X35.6658 Y6.5205
G01 X35.7032 Y6.5444
G01 X35.7133 Y6.5496
G01 X35.7239 Y6.5538
G01 X35.8022 Y6.5768
G01 X35.8170 Y6.5794
G01 X35.8289 Y6.5801
G01 X35.8409 Y6.5796
G01 X35.8528 Y6.5780
G01 X35.9073 Y6.5662
G01 X35.9183 Y6.5632
G01 X35.9316 Y6.5581
G01 X36.0426 Y6.5074
G01 X36.0932 Y6.4925
G01 X36.2186 Y6.4745
G01 X48.1476 Y6.4745
G01 X48.2422 Y6.4847
G01 X48.2812 Y6.4931
G01 X48.3633 Y6.5205
G01 X48.4007 Y6.5444
G01 X48.4108 Y6.5496
G01 X48.4214 Y6.5538
G01 X48.4997 Y6.5768
G01 X48.5145 Y6.5794
G01 X48.5264 Y6.5801
G01 X48.5384 Y6.5796
G01 X48.5503 Y6.5780
G01 X48.6048 Y6.5662
G01 X48.6158 Y6.5632
G01 X48.6291 Y6.5581
G01 X48.7401 Y6.5074
G01 X48.7907 Y6.4925
G01 X48.9161 Y6.4745
G01 X60.3421 Y6.4745
G01 X60.4367 Y6.4847
G01 X60.4757 Y6.4931
G01 X60.5578 Y6.5205
G01 X60.5952 Y6.5444
G01 X60.6053 Y6.5496
G01 X60.6159 Y6.5538
G01 X60.6942 Y6.5768
G01 X60.7060 Y6.5790
G01 X60.7209 Y6.5801
G01 X60.7329 Y6.5796
G01 X60.7448 Y6.5780
G01 X60.7993 Y6.5662
G01 X60.8103 Y6.5632
G01 X60.8236 Y6.5581
G01 X60.9346 Y6.5074
G01 X60.9852 Y6.4925
G01 X61.1106 Y6.4745
G01 X73.0396 Y6.4745
G01 X73.1342 Y6.4847
G01 X73.1732 Y6.4931
G01 X73.2553 Y6.5205
G01 X73.2927 Y6.5444
G01 X73.3028 Y6.5496
G01 X73.3134 Y6.5538
G01 X73.3917 Y6.5768
G01 X73.4065 Y6.5794
G01 X73.4184 Y6.5801
G01 X73.4304 Y6.5796
G01 X73.4423 Y6.5780
G01 X73.4968 Y6.5662
G01 X73.5078 Y6.5632
G01 X73.5211 Y6.5581
G01 X73.6321 Y6.5074
G01 X73.6827 Y6.4925
G01 X73.8081 Y6.4745
G01 X85.2341 Y6.4745
G01 X85.3287 Y6.4847
G01 X85.3677 Y6.4931
G01 X85.4498 Y6.5205
G01 X85.4872 Y6.5444
G01 X85.4973 Y6.5496
G01 X85.5079 Y6.5538
G01 X85.5862 Y6.5768
G01 X85.5980 Y6.5790
G01 X85.6129 Y6.5801
G01 X85.6249 Y6.5796
G01 X85.6368 Y6.5780
G01 X85.6913 Y6.5662
G01 X85.7023 Y6.5632
G01 X85.7156 Y6.5581
G01 X85.8266 Y6.5074
G01 X85.8772 Y6.4925
G01 X86.0026 Y6.4745
G01 X97.9316 Y6.4745
G01 X98.0262 Y6.4847
G01 X98.0652 Y6.4931
G01 X98.1473 Y6.5205
G01 X98.1847 Y6.5444
G01 X98.1948 Y6.5496
G01 X98.2054 Y6.5538
G01 X98.2837 Y6.5768
G01 X98.2985 Y6.5794
G01 X98.3104 Y6.5801
G01 X98.3224 Y6.5796
G01 X98.3343 Y6.5780
G01 X98.3888 Y6.5662
G01 X98.3998 Y6.5632
G01 X98.4131 Y6.5581
G01 X98.5241 Y6.5074
G01 X98.5747 Y6.4925
G01 X98.7001 Y6.4745
G01 X110.6316 Y6.4745
G01 X110.7262 Y6.4847
G01 X110.7652 Y6.4931
G01 X110.8473 Y6.5205
G01 X110.9484 Y6.5855
G01 X110.9883 Y6.6200
G01 X111.0656 Y6.7092
G01 X111.1146 Y6.8166
G01 X111.1295 Y6.8672
G01 X111.1475 Y6.9926
G01 X111.1475 Y16.9846
G01 X111.1361 Y17.0847
G01 X111.1266 Y17.1258
G01 X111.0929 Y17.2209
G01 X106.0660 Y27.5260
G01 X105.9986 Y27.6266
G01 X105.9651 Y27.6643
G01 X105.8797 Y27.7374
G01 X105.7719 Y27.7866
G01 X105.7214 Y27.8015
G01 X105.5959 Y27.8195
G01 X102.7808 Y27.8196
G01 X102.7666 Y27.8212
G01 X102.7554 Y27.8236
G01 X102.6857 Y27.8440
G01 X102.6717 Y27.8491
G01 X102.6636 Y27.8530
G01 X102.6558 Y27.8574
G01 X102.6437 Y27.8661
G01 X102.6370 Y27.8720
G01 X102.6308 Y27.8784
G01 X102.5811 Y27.9357
G01 X102.5739 Y27.9453
G01 X102.5692 Y27.9530
G01 X102.5651 Y27.9610
G01 X102.5616 Y27.9693
G01 X102.5571 Y27.9836
G01 X102.5447 Y28.0408
G01 X102.5430 Y28.0521
G01 X102.5425 Y28.0635
G01 X102.5425 Y30.3991
G01 X102.5428 Y30.4077
G01 X102.5437 Y30.4162
G01 X102.5452 Y30.4246
G01 X102.5474 Y30.4329
G01 X102.5688 Y30.5055
G01 X102.5719 Y30.5135
G01 X102.5756 Y30.5213
G01 X102.5799 Y30.5288
G01 X102.5863 Y30.5384
G01 X102.5957 Y30.5493
G01 X102.6289 Y30.5839
G01 X102.6351 Y30.5899
G01 X102.6442 Y30.5973
G01 X102.6802 Y30.6225
G01 X102.8275 Y30.7698
G01 X102.9469 Y30.9405
G01 X103.0350 Y31.1293
G01 X103.0889 Y31.3305
G01 X103.1070 Y31.5380
G01 X103.0889 Y31.7455
G01 X103.0350 Y31.9467
G01 X102.9469 Y32.1355
G01 X102.8275 Y32.3062
G01 X102.6802 Y32.4535
G01 X102.5095 Y32.5729
G01 X102.3207 Y32.6610
G01 X102.1195 Y32.7149
G01 X101.9120 Y32.7330
G01 X101.7045 Y32.7149
G01 X101.5033 Y32.6610
G01 X101.3145 Y32.5729
G01 X101.1438 Y32.4535
G01 X100.9965 Y32.3062
G01 X100.9094 Y32.1818
G01 X100.8771 Y32.1355
G01 X100.7890 Y31.9467
G01 X100.7351 Y31.7455
G01 X100.7170 Y31.5380
G01 X100.7351 Y31.3305
G01 X100.7890 Y31.1293
G01 X100.8771 Y30.9405
G01 X100.9965 Y30.7698
G01 X101.1438 Y30.6225
G01 X101.1798 Y30.5973
G01 X101.1865 Y30.5920
G01 X101.1928 Y30.5862
G01 X101.2024 Y30.5756
G01 X101.2478 Y30.5188
G01 X101.2527 Y30.5117
G01 X101.2586 Y30.5018
G01 X101.2634 Y30.4913
G01 X101.2672 Y30.4805
G01 X101.2700 Y30.4693
G01 X101.2792 Y30.4223
G01 X101.2809 Y30.4108
G01 X101.2815 Y30.3991
G01 X101.2815 Y28.0635
G01 X101.2812 Y28.0549
G01 X101.2798 Y28.0436
G01 X101.2774 Y28.0324
G01 X101.2561 Y27.9598
G01 X101.2530 Y27.9514
G01 X101.2494 Y27.9432
G01 X101.2451 Y27.9354
G01 X101.2385 Y27.9254
G01 X101.2310 Y27.9162
G01 X101.2226 Y27.9078
G01 X101.1630 Y27.8562
G01 X101.1532 Y27.8493
G01 X101.1427 Y27.8434
G01 X101.1317 Y27.8386
G01 X101.1203 Y27.8349
G01 X101.0602 Y27.8217
G01 X101.0489 Y27.8200
G01 X101.0375 Y27.8195
G01 X98.6979 Y27.8195
G01 X98.6033 Y27.8093
G01 X98.5643 Y27.8008
G01 X98.4822 Y27.7735
G01 X98.4448 Y27.7496
G01 X98.4346 Y27.7444
G01 X98.4240 Y27.7402
G01 X98.3458 Y27.7172
G01 X98.3310 Y27.7146
G01 X98.3160 Y27.7139
G01 X98.3041 Y27.7147
G01 X98.2952 Y27.7160
G01 X98.2407 Y27.7278
G01 X98.2270 Y27.7317
G01 X98.2164 Y27.7359
G01 X98.1054 Y27.7866
G01 X98.0548 Y27.8015
G01 X97.9294 Y27.8195
G01 X95.3805 Y27.8195
G01 X95.3719 Y27.8198
G01 X95.3634 Y27.8207
G01 X95.3494 Y27.8236
G01 X95.2797 Y27.8440
G01 X95.2657 Y27.8491
G01 X95.2576 Y27.8530
G01 X95.2473 Y27.8590
G01 X95.2377 Y27.8661
G01 X95.2289 Y27.8741
G01 X95.2228 Y27.8806
G01 X95.1770 Y27.9334
G01 X95.1714 Y27.9404
G01 X95.1663 Y27.9478
G01 X95.1618 Y27.9556
G01 X95.1578 Y27.9637
G01 X95.1545 Y27.9721
G01 X95.1519 Y27.9807
G01 X95.1387 Y28.0408
G01 X95.1368 Y28.0549
G01 X95.1365 Y28.0635
G01 X95.1365 Y29.9103
G01 X95.1384 Y29.9399
G01 X95.1405 Y29.9555
G01 X95.1372 Y29.9935
G01 X95.1365 Y30.0106
G01 X95.1332 Y30.0399
G01 X95.1271 Y30.1094
G01 X95.1261 Y30.1138
G01 X95.1011 Y30.1827
G01 X95.0791 Y30.2489
G01 X95.0771 Y30.2530
G01 X95.0388 Y30.3113
G01 X95.0003 Y30.3737
G01 X94.9974 Y30.3772
G01 X94.9429 Y30.4288
G01 X93.4329 Y31.9388
G01 X93.4133 Y31.9610
G01 X93.4037 Y31.9736
G01 X93.3745 Y31.9982
G01 X93.3620 Y32.0097
G01 X93.3389 Y32.0281
G01 X93.2854 Y32.0729
G01 X93.2826 Y32.0747
G01 X93.2152 Y32.1064
G01 X93.1528 Y32.1377
G01 X93.1486 Y32.1391
G01 X93.0802 Y32.1533
G01 X93.0089 Y32.1701
G01 X93.0044 Y32.1706
G01 X92.9293 Y32.1685
G01 X90.6049 Y32.1685
G01 X90.5935 Y32.1690
G01 X90.5822 Y32.1707
G01 X90.5711 Y32.1734
G01 X90.5040 Y32.1930
G01 X90.4958 Y32.1958
G01 X90.4879 Y32.1991
G01 X90.4801 Y32.2030
G01 X90.4727 Y32.2074
G01 X90.4634 Y32.2141
G01 X90.4547 Y32.2217
G01 X90.4201 Y32.2549
G01 X90.4141 Y32.2611
G01 X90.4067 Y32.2702
G01 X90.3815 Y32.3062
G01 X90.2342 Y32.4535
G01 X90.0635 Y32.5729
G01 X89.8747 Y32.6610
G01 X89.6735 Y32.7149
G01 X89.4660 Y32.7330
G01 X89.2585 Y32.7149
G01 X89.0573 Y32.6610
G01 X88.8685 Y32.5729
G01 X88.6978 Y32.4535
G01 X88.5505 Y32.3062
G01 X88.4311 Y32.1355
G01 X88.3430 Y31.9467
G01 X88.2891 Y31.7455
G01 X88.2710 Y31.5380
G01 X88.2891 Y31.3305
G01 X88.3430 Y31.1293
G01 X88.4311 Y30.9405
G01 X88.5505 Y30.7698
G01 X88.6978 Y30.6225
G01 X88.8685 Y30.5031
G01 X89.0573 Y30.4150
G01 X89.2585 Y30.3611
G01 X89.4660 Y30.3430
G01 X89.6735 Y30.3611
G01 X89.8747 Y30.4150
G01 X90.0635 Y30.5031
G01 X90.2342 Y30.6225
G01 X90.3815 Y30.7698
G01 X90.4067 Y30.8058
G01 X90.4120 Y30.8125
G01 X90.4178 Y30.8188
G01 X90.4284 Y30.8284
G01 X90.4852 Y30.8738
G01 X90.4923 Y30.8787
G01 X90.5022 Y30.8846
G01 X90.5127 Y30.8894
G01 X90.5208 Y30.8924
G01 X90.5319 Y30.8954
G01 X90.5846 Y30.9058
G01 X90.5961 Y30.9072
G01 X90.6049 Y30.9075
G01 X92.5826 Y30.9075
G01 X92.5968 Y30.9063
G01 X92.6053 Y30.9048
G01 X92.6136 Y30.9026
G01 X92.6834 Y30.8821
G01 X92.6945 Y30.8779
G01 X92.7050 Y30.8727
G01 X92.7126 Y30.8682
G01 X92.7198 Y30.8631
G01 X92.7452 Y30.8426
G01 X92.7523 Y30.8360
G01 X93.8060 Y29.7823
G01 X93.8152 Y29.7714
G01 X93.8231 Y29.7595
G01 X93.8594 Y29.6930
G01 X93.8653 Y29.6796
G01 X93.8688 Y29.6683
G01 X93.8712 Y29.6568
G01 X93.8748 Y29.6246
G01 X93.8755 Y29.6118
G01 X93.8755 Y28.0606
G01 X93.8743 Y28.0464
G01 X93.8714 Y28.0324
G01 X93.8510 Y27.9627
G01 X93.8481 Y27.9542
G01 X93.8420 Y27.9406
G01 X93.8343 Y27.9279
G01 X93.8270 Y27.9184
G01 X93.8166 Y27.9078
G01 X93.7593 Y27.8581
G01 X93.7497 Y27.8509
G01 X93.7367 Y27.8434
G01 X93.7229 Y27.8375
G01 X93.7114 Y27.8341
G01 X93.6570 Y27.8222
G01 X93.6429 Y27.8200
G01 X93.6315 Y27.8195
G01 X92.0964 Y27.8195
G01 X92.0018 Y27.8093
G01 X91.9628 Y27.8008
G01 X91.8807 Y27.7735
G01 X91.8433 Y27.7496
G01 X91.8331 Y27.7444
G01 X91.8225 Y27.7402
G01 X91.7443 Y27.7172
G01 X91.7325 Y27.7150
G01 X91.7175 Y27.7139
G01 X91.7056 Y27.7144
G01 X91.6937 Y27.7160
G01 X91.6392 Y27.7278
G01 X91.6282 Y27.7308
G01 X91.6149 Y27.7359
G01 X91.5039 Y27.7866
G01 X91.4533 Y27.8015
G01 X91.3279 Y27.8195
G01 X84.2445 Y27.8195
G01 X84.2303 Y27.8203
G01 X84.2162 Y27.8229
G01 X84.1380 Y27.8459
G01 X84.1269 Y27.8503
G01 X84.1164 Y27.8559
G01 X84.1064 Y27.8625
G01 X84.0950 Y27.8720
G01 X84.0868 Y27.8806
G01 X84.0391 Y27.9357
G01 X84.0303 Y27.9478
G01 X84.0244 Y27.9583
G01 X84.0185 Y27.9721
G01 X84.0144 Y27.9865
G01 X84.0027 Y28.0408
G01 X84.0010 Y28.0521
G01 X84.0005 Y28.0635
G01 X84.0005 Y40.5620
G01 X84.0013 Y40.5734
G01 X84.0039 Y40.5874
G01 X84.0259 Y40.6627
G01 X84.0299 Y40.6735
G01 X84.0336 Y40.6813
G01 X84.0379 Y40.6888
G01 X84.0443 Y40.6984
G01 X84.0537 Y40.7093
G01 X84.0869 Y40.7439
G01 X84.0931 Y40.7499
G01 X84.1022 Y40.7573
G01 X84.1382 Y40.7825
G01 X84.2855 Y40.9298
G01 X84.4049 Y41.1005
G01 X84.4930 Y41.2893
G01 X84.5469 Y41.4905
G01 X84.5650 Y41.6980
G01 X84.5469 Y41.9055
G01 X84.4930 Y42.1067
G01 X84.4049 Y42.2955
G01 X84.2855 Y42.4662
G01 X84.1382 Y42.6135
G01 X83.9675 Y42.7329
G01 X83.7787 Y42.8210
G01 X83.5775 Y42.8749
G01 X83.3700 Y42.8930
G01 X83.1625 Y42.8749
G01 X82.9613 Y42.8210
G01 X82.7725 Y42.7329
G01 X82.6018 Y42.6135
G01 X82.4545 Y42.4662
G01 X82.3351 Y42.2955
G01 X82.2470 Y42.1067
G01 X82.1931 Y41.9055
G01 X82.1750 Y41.6980
G01 X82.1931 Y41.4905
G01 X82.2470 Y41.2893
G01 X82.3351 Y41.1005
G01 X82.4545 Y40.9298
G01 X82.6018 Y40.7825
G01 X82.6378 Y40.7573
G01 X82.6445 Y40.7520
G01 X82.6508 Y40.7462
G01 X82.6604 Y40.7356
G01 X82.7040 Y40.6811
G01 X82.7091 Y40.6741
G01 X82.7138 Y40.6668
G01 X82.7191 Y40.6566
G01 X82.7234 Y40.6460
G01 X82.7260 Y40.6377
G01 X82.7280 Y40.6293
G01 X82.7372 Y40.5823
G01 X82.7392 Y40.5679
G01 X82.7395 Y40.5591
G01 X82.7395 Y35.3957
G01 X82.7387 Y35.3814
G01 X82.7361 Y35.3674
G01 X82.7131 Y35.2892
G01 X82.7087 Y35.2781
G01 X82.7031 Y35.2676
G01 X82.6965 Y35.2576
G01 X82.6890 Y35.2484
G01 X82.6784 Y35.2380
G01 X82.6256 Y35.1922
G01 X82.6138 Y35.1832
G01 X82.6061 Y35.1785
G01 X82.5982 Y35.1744
G01 X82.5900 Y35.1709
G01 X82.5815 Y35.1680
G01 X82.5670 Y35.1646
G01 X82.4891 Y35.1535
G01 X82.4743 Y35.1530
G01 X82.4625 Y35.1539
G01 X82.4537 Y35.1554
G01 X82.4323 Y35.1600
G01 X82.2275 Y35.2149
G01 X82.0200 Y35.2330
G01 X81.8125 Y35.2149
G01 X81.6113 Y35.1610
G01 X81.4225 Y35.0729
G01 X81.2518 Y34.9535
G01 X81.1045 Y34.8062
G01 X80.9851 Y34.6355
G01 X80.8970 Y34.4467
G01 X80.8431 Y34.2455
G01 X80.8250 Y34.0380
G01 X80.8431 Y33.8305
G01 X80.8970 Y33.6293
G01 X80.9851 Y33.4405
G01 X81.1045 Y33.2698
G01 X81.2518 Y33.1225
G01 X81.4225 Y33.0031
G01 X81.6113 Y32.9150
G01 X81.8125 Y32.8611
G01 X82.0200 Y32.8430
G01 X82.2275 Y32.8611
G01 X82.4324 Y32.9160
G01 X82.4463 Y32.9189
G01 X82.4548 Y32.9198
G01 X82.4634 Y32.9201
G01 X82.5361 Y32.9184
G01 X82.5480 Y32.9175
G01 X82.5568 Y32.9161
G01 X82.5655 Y32.9140
G01 X82.5768 Y32.9102
G01 X82.5850 Y32.9067
G01 X82.5955 Y32.9010
G01 X82.6608 Y32.8569
G01 X82.6702 Y32.8495
G01 X82.6787 Y32.8413
G01 X82.6846 Y32.8345
G01 X82.6899 Y32.8273
G01 X82.6947 Y32.8198
G01 X82.6989 Y32.8119
G01 X82.7289 Y32.7423
G01 X82.7339 Y32.7283
G01 X82.7366 Y32.7168
G01 X82.7379 Y32.7081
G01 X82.7395 Y32.6803
G01 X82.7395 Y28.0606
G01 X82.7383 Y28.0464
G01 X82.7361 Y28.0352
G01 X82.7141 Y27.9598
G01 X82.7110 Y27.9514
G01 X82.7074 Y27.9432
G01 X82.7031 Y27.9354
G01 X82.6983 Y27.9279
G01 X82.6910 Y27.9184
G01 X82.6806 Y27.9078
G01 X82.6210 Y27.8562
G01 X82.6112 Y27.8493
G01 X82.6007 Y27.8434
G01 X82.5897 Y27.8386
G01 X82.5783 Y27.8349
G01 X82.5182 Y27.8217
G01 X82.5069 Y27.8200
G01 X82.4955 Y27.8195
G01 X79.9044 Y27.8195
G01 X79.8098 Y27.8093
G01 X79.7708 Y27.8008
G01 X79.6887 Y27.7735
G01 X79.6503 Y27.7490
G01 X79.6401 Y27.7437
G01 X79.6295 Y27.7395
G01 X79.5512 Y27.7165
G01 X79.5365 Y27.7139
G01 X79.5215 Y27.7132
G01 X79.5125 Y27.7137
G01 X79.5006 Y27.7154
G01 X79.4462 Y27.7272
G01 X79.4325 Y27.7310
G01 X79.4219 Y27.7353
G01 X79.3094 Y27.7866
G01 X79.2588 Y27.8015
G01 X79.1334 Y27.8195
G01 X71.7956 Y27.8195
G01 X71.7814 Y27.8207
G01 X71.7730 Y27.8222
G01 X71.7647 Y27.8244
G01 X71.6948 Y27.8449
G01 X71.6837 Y27.8491
G01 X71.6704 Y27.8559
G01 X71.6581 Y27.8642
G01 X71.6512 Y27.8700
G01 X71.6448 Y27.8762
G01 X71.5912 Y27.9380
G01 X71.5843 Y27.9478
G01 X71.5798 Y27.9556
G01 X71.5747 Y27.9665
G01 X71.5707 Y27.9778
G01 X71.5684 Y27.9865
G01 X71.5567 Y28.0408
G01 X71.5550 Y28.0521
G01 X71.5545 Y28.0635
G01 X71.5546 Y40.5648
G01 X71.5557 Y40.5762
G01 X71.5586 Y40.5902
G01 X71.5799 Y40.6627
G01 X71.5828 Y40.6709
G01 X71.5876 Y40.6813
G01 X71.5919 Y40.6888
G01 X71.5983 Y40.6984
G01 X71.6077 Y40.7093
G01 X71.6409 Y40.7439
G01 X71.6471 Y40.7499
G01 X71.6562 Y40.7573
G01 X71.6922 Y40.7825
G01 X71.8395 Y40.9298
G01 X71.9589 Y41.1005
G01 X72.0470 Y41.2893
G01 X72.1009 Y41.4905
G01 X72.1190 Y41.6980
G01 X72.1009 Y41.9055
G01 X72.0470 Y42.1067
G01 X71.9589 Y42.2955
G01 X71.8395 Y42.4662
G01 X71.6922 Y42.6135
G01 X71.5215 Y42.7329
G01 X71.3327 Y42.8210
G01 X71.1315 Y42.8749
G01 X70.9240 Y42.8930
G01 X70.7165 Y42.8749
G01 X70.5153 Y42.8210
G01 X70.3265 Y42.7329
G01 X70.1558 Y42.6135
G01 X70.0085 Y42.4662
G01 X69.8891 Y42.2955
G01 X69.8010 Y42.1067
G01 X69.7471 Y41.9055
G01 X69.7290 Y41.6980
G01 X69.7471 Y41.4905
G01 X69.8010 Y41.2893
G01 X69.8891 Y41.1005
G01 X70.0085 Y40.9298
G01 X70.1558 Y40.7825
G01 X70.1918 Y40.7573
G01 X70.1985 Y40.7520
G01 X70.2048 Y40.7462
G01 X70.2144 Y40.7356
G01 X70.2598 Y40.6788
G01 X70.2663 Y40.6693
G01 X70.2719 Y40.6592
G01 X70.2765 Y40.6487
G01 X70.2792 Y40.6405
G01 X70.2820 Y40.6293
G01 X70.2912 Y40.5823
G01 X70.2929 Y40.5708
G01 X70.2935 Y40.5591
G01 X70.2935 Y35.3957
G01 X70.2932 Y35.3871
G01 X70.2923 Y35.3786
G01 X70.2908 Y35.3702
G01 X70.2886 Y35.3619
G01 X70.2690 Y35.2948
G01 X70.2661 Y35.2864
G01 X70.2627 Y35.2781
G01 X70.2586 Y35.2702
G01 X70.2540 Y35.2625
G01 X70.2469 Y35.2529
G01 X70.2410 Y35.2462
G01 X70.2346 Y35.2399
G01 X70.1796 Y35.1922
G01 X70.1726 Y35.1866
G01 X70.1627 Y35.1800
G01 X70.1522 Y35.1744
G01 X70.1412 Y35.1698
G01 X70.1269 Y35.1657
G01 X70.1181 Y35.1641
G01 X70.0460 Y35.1538
G01 X70.0312 Y35.1530
G01 X70.0165 Y35.1539
G01 X70.0077 Y35.1554
G01 X69.9863 Y35.1600
G01 X69.7815 Y35.2149
G01 X69.5740 Y35.2330
G01 X69.3665 Y35.2149
G01 X69.1653 Y35.1610
G01 X68.9765 Y35.0729
G01 X68.8058 Y34.9535
G01 X68.6585 Y34.8062
G01 X68.5391 Y34.6355
G01 X68.4510 Y34.4467
G01 X68.3971 Y34.2455
G01 X68.3790 Y34.0380
G01 X68.3971 Y33.8305
G01 X68.4510 Y33.6293
G01 X68.5391 Y33.4405
G01 X68.6585 Y33.2698
G01 X68.8058 Y33.1225
G01 X68.9765 Y33.0031
G01 X69.1653 Y32.9150
G01 X69.3665 Y32.8611
G01 X69.5740 Y32.8430
G01 X69.7815 Y32.8611
G01 X69.9864 Y32.9160
G01 X70.0003 Y32.9189
G01 X70.0088 Y32.9198
G01 X70.0174 Y32.9201
G01 X70.0901 Y32.9184
G01 X70.1020 Y32.9175
G01 X70.1108 Y32.9161
G01 X70.1195 Y32.9140
G01 X70.1308 Y32.9102
G01 X70.1390 Y32.9067
G01 X70.1495 Y32.9010
G01 X70.2148 Y32.8569
G01 X70.2242 Y32.8495
G01 X70.2327 Y32.8413
G01 X70.2386 Y32.8345
G01 X70.2439 Y32.8273
G01 X70.2487 Y32.8198
G01 X70.2529 Y32.8119
G01 X70.2829 Y32.7423
G01 X70.2879 Y32.7283
G01 X70.2906 Y32.7168
G01 X70.2919 Y32.7081
G01 X70.2935 Y32.6803
G01 X70.2935 Y28.0606
G01 X70.2923 Y28.0464
G01 X70.2901 Y28.0352
G01 X70.2690 Y27.9627
G01 X70.2661 Y27.9542
G01 X70.2627 Y27.9459
G01 X70.2586 Y27.9380
G01 X70.2540 Y27.9303
G01 X70.2450 Y27.9184
G01 X70.2368 Y27.9098
G01 X70.1796 Y27.8600
G01 X70.1726 Y27.8544
G01 X70.1652 Y27.8493
G01 X70.1574 Y27.8448
G01 X70.1493 Y27.8408
G01 X70.1409 Y27.8375
G01 X70.1294 Y27.8341
G01 X70.0750 Y27.8222
G01 X70.0609 Y27.8200
G01 X70.0495 Y27.8195
G01 X67.4584 Y27.8195
G01 X67.3638 Y27.8093
G01 X67.3248 Y27.8008
G01 X67.2427 Y27.7735
G01 X67.2043 Y27.7490
G01 X67.1941 Y27.7437
G01 X67.1835 Y27.7395
G01 X67.1052 Y27.7165
G01 X67.0905 Y27.7139
G01 X67.0755 Y27.7132
G01 X67.0665 Y27.7137
G01 X67.0546 Y27.7154
G01 X67.0002 Y27.7272
G01 X66.9865 Y27.7310
G01 X66.9759 Y27.7353
G01 X66.8634 Y27.7866
G01 X66.8128 Y27.8015
G01 X66.6874 Y27.8195
G01 X59.3496 Y27.8195
G01 X59.3411 Y27.8200
G01 X59.3326 Y27.8212
G01 X59.3187 Y27.8244
G01 X59.2488 Y27.8449
G01 X59.2349 Y27.8503
G01 X59.2244 Y27.8559
G01 X59.2121 Y27.8642
G01 X59.2052 Y27.8700
G01 X59.1988 Y27.8762
G01 X59.1452 Y27.9380
G01 X59.1383 Y27.9478
G01 X59.1338 Y27.9556
G01 X59.1287 Y27.9665
G01 X59.1247 Y27.9778
G01 X59.1224 Y27.9865
G01 X59.1107 Y28.0408
G01 X59.1090 Y28.0521
G01 X59.1085 Y28.0635
G01 X59.1086 Y40.5648
G01 X59.1102 Y40.5790
G01 X59.1126 Y40.5902
G01 X59.1339 Y40.6627
G01 X59.1368 Y40.6709
G01 X59.1416 Y40.6813
G01 X59.1459 Y40.6888
G01 X59.1523 Y40.6984
G01 X59.1617 Y40.7093
G01 X59.1949 Y40.7439
G01 X59.2011 Y40.7499
G01 X59.2102 Y40.7573
G01 X59.2462 Y40.7825
G01 X59.3935 Y40.9298
G01 X59.5129 Y41.1005
G01 X59.6010 Y41.2893
G01 X59.6549 Y41.4905
G01 X59.6730 Y41.6980
G01 X59.6549 Y41.9055
G01 X59.6010 Y42.1067
G01 X59.5129 Y42.2955
G01 X59.3935 Y42.4662
G01 X59.2462 Y42.6135
G01 X59.0755 Y42.7329
G01 X58.8867 Y42.8210
G01 X58.6855 Y42.8749
G01 X58.4780 Y42.8930
G01 X58.2705 Y42.8749
G01 X58.0693 Y42.8210
G01 X57.8805 Y42.7329
G01 X57.7098 Y42.6135
G01 X57.5625 Y42.4662
G01 X57.4431 Y42.2955
G01 X57.3550 Y42.1067
G01 X57.3011 Y41.9055
G01 X57.2830 Y41.6980
G01 X57.3011 Y41.4905
G01 X57.3550 Y41.2893
G01 X57.4431 Y41.1005
G01 X57.5625 Y40.9298
G01 X57.7098 Y40.7825
G01 X57.7458 Y40.7573
G01 X57.7525 Y40.7520
G01 X57.7588 Y40.7462
G01 X57.7684 Y40.7356
G01 X57.8138 Y40.6788
G01 X57.8187 Y40.6717
G01 X57.8246 Y40.6618
G01 X57.8294 Y40.6513
G01 X57.8332 Y40.6405
G01 X57.8360 Y40.6293
G01 X57.8452 Y40.5823
G01 X57.8469 Y40.5708
G01 X57.8475 Y40.5591
G01 X57.8475 Y35.3957
G01 X57.8472 Y35.3871
G01 X57.8463 Y35.3786
G01 X57.8448 Y35.3702
G01 X57.8426 Y35.3619
G01 X57.8230 Y35.2948
G01 X57.8201 Y35.2864
G01 X57.8167 Y35.2781
G01 X57.8126 Y35.2702
G01 X57.8063 Y35.2601
G01 X57.8009 Y35.2529
G01 X57.7950 Y35.2462
G01 X57.7886 Y35.2399
G01 X57.7336 Y35.1922
G01 X57.7266 Y35.1866
G01 X57.7141 Y35.1785
G01 X57.7035 Y35.1731
G01 X57.6924 Y35.1689
G01 X57.6809 Y35.1657
G01 X57.6721 Y35.1641
G01 X57.6000 Y35.1538
G01 X57.5852 Y35.1530
G01 X57.5705 Y35.1539
G01 X57.5617 Y35.1554
G01 X57.5403 Y35.1600
G01 X57.3355 Y35.2149
G01 X57.1280 Y35.2330
G01 X56.9205 Y35.2149
G01 X56.7193 Y35.1610
G01 X56.5305 Y35.0729
G01 X56.3598 Y34.9535
G01 X56.2125 Y34.8062
G01 X56.0931 Y34.6355
G01 X56.0050 Y34.4467
G01 X55.9511 Y34.2455
G01 X55.9330 Y34.0380
G01 X55.9511 Y33.8305
G01 X56.0050 Y33.6293
G01 X56.0931 Y33.4405
G01 X56.2125 Y33.2698
G01 X56.3598 Y33.1225
G01 X56.5305 Y33.0031
G01 X56.7193 Y32.9150
G01 X56.9205 Y32.8611
G01 X57.1280 Y32.8430
G01 X57.3355 Y32.8611
G01 X57.5404 Y32.9160
G01 X57.5543 Y32.9189
G01 X57.5628 Y32.9198
G01 X57.5714 Y32.9201
G01 X57.6441 Y32.9184
G01 X57.6560 Y32.9175
G01 X57.6648 Y32.9161
G01 X57.6735 Y32.9140
G01 X57.6848 Y32.9102
G01 X57.6930 Y32.9067
G01 X57.7035 Y32.9010
G01 X57.7688 Y32.8569
G01 X57.7782 Y32.8495
G01 X57.7867 Y32.8413
G01 X57.7926 Y32.8345
G01 X57.7979 Y32.8273
G01 X57.8027 Y32.8198
G01 X57.8069 Y32.8119
G01 X57.8369 Y32.7423
G01 X57.8419 Y32.7283
G01 X57.8446 Y32.7168
G01 X57.8459 Y32.7081
G01 X57.8475 Y32.6803
G01 X57.8475 Y28.0606
G01 X57.8470 Y28.0521
G01 X57.8458 Y28.0436
G01 X57.8426 Y28.0297
G01 X57.8221 Y27.9598
G01 X57.8167 Y27.9459
G01 X57.8111 Y27.9354
G01 X57.8063 Y27.9279
G01 X57.8009 Y27.9207
G01 X57.7908 Y27.9098
G01 X57.7336 Y27.8600
G01 X57.7242 Y27.8526
G01 X57.7166 Y27.8477
G01 X57.7060 Y27.8421
G01 X57.6949 Y27.8375
G01 X57.6863 Y27.8349
G01 X57.6262 Y27.8217
G01 X57.6177 Y27.8203
G01 X57.6064 Y27.8195
G01 X55.0124 Y27.8195
G01 X54.9178 Y27.8093
G01 X54.8788 Y27.8008
G01 X54.7967 Y27.7735
G01 X54.7593 Y27.7496
G01 X54.7491 Y27.7444
G01 X54.7385 Y27.7402
G01 X54.6603 Y27.7172
G01 X54.6455 Y27.7146
G01 X54.6305 Y27.7139
G01 X54.6186 Y27.7147
G01 X54.6097 Y27.7160
G01 X54.5552 Y27.7278
G01 X54.5415 Y27.7317
G01 X54.5309 Y27.7359
G01 X54.4199 Y27.7866
G01 X54.3693 Y27.8015
G01 X54.2439 Y27.8195
G01 X52.9968 Y27.8196
G01 X52.9854 Y27.8207
G01 X52.9714 Y27.8236
G01 X52.9017 Y27.8440
G01 X52.8932 Y27.8469
G01 X52.8822 Y27.8516
G01 X52.8718 Y27.8574
G01 X52.8621 Y27.8642
G01 X52.8530 Y27.8720
G01 X52.8448 Y27.8806
G01 X52.7971 Y27.9357
G01 X52.7883 Y27.9478
G01 X52.7824 Y27.9583
G01 X52.7765 Y27.9721
G01 X52.7731 Y27.9836
G01 X52.7607 Y28.0408
G01 X52.7593 Y28.0493
G01 X52.7586 Y28.0578
G01 X52.7585 Y30.3991
G01 X52.7593 Y30.4134
G01 X52.7607 Y30.4218
G01 X52.7626 Y30.4302
G01 X52.7848 Y30.5055
G01 X52.7879 Y30.5135
G01 X52.7930 Y30.5239
G01 X52.7974 Y30.5313
G01 X52.8023 Y30.5384
G01 X52.8117 Y30.5493
G01 X52.8449 Y30.5839
G01 X52.8511 Y30.5899
G01 X52.8602 Y30.5973
G01 X52.8962 Y30.6225
G01 X53.0435 Y30.7698
G01 X53.1629 Y30.9405
G01 X53.2510 Y31.1293
G01 X53.3049 Y31.3305
G01 X53.3230 Y31.5380
G01 X53.3049 Y31.7455
G01 X53.2510 Y31.9467
G01 X53.1629 Y32.1355
G01 X53.0435 Y32.3062
G01 X52.8962 Y32.4535
G01 X52.7255 Y32.5729
G01 X52.5367 Y32.6610
G01 X52.3355 Y32.7149
G01 X52.1280 Y32.7330
G01 X51.9205 Y32.7149
G01 X51.7193 Y32.6610
G01 X51.5305 Y32.5729
G01 X51.3598 Y32.4535
G01 X51.2125 Y32.3062
G01 X51.1254 Y32.1818
G01 X51.0931 Y32.1355
G01 X51.0050 Y31.9467
G01 X50.9511 Y31.7455
G01 X50.9330 Y31.5380
G01 X50.9511 Y31.3305
G01 X51.0050 Y31.1293
G01 X51.0931 Y30.9405
G01 X51.2125 Y30.7698
G01 X51.3598 Y30.6225
G01 X51.3958 Y30.5973
G01 X51.4025 Y30.5920
G01 X51.4088 Y30.5862
G01 X51.4184 Y30.5756
G01 X51.4638 Y30.5188
G01 X51.4703 Y30.5093
G01 X51.4746 Y30.5018
G01 X51.4794 Y30.4913
G01 X51.4824 Y30.4832
G01 X51.4860 Y30.4693
G01 X51.4952 Y30.4223
G01 X51.4966 Y30.4137
G01 X51.4975 Y30.3991
G01 X51.4975 Y28.0606
G01 X51.4967 Y28.0493
G01 X51.4941 Y28.0352
G01 X51.4721 Y27.9598
G01 X51.4690 Y27.9514
G01 X51.4640 Y27.9406
G01 X51.4580 Y27.9303
G01 X51.4509 Y27.9207
G01 X51.4450 Y27.9140
G01 X51.4386 Y27.9078
G01 X51.3836 Y27.8600
G01 X51.3717 Y27.8509
G01 X51.3614 Y27.8448
G01 X51.3477 Y27.8386
G01 X51.3334 Y27.8341
G01 X51.2762 Y27.8217
G01 X51.2621 Y27.8198
G01 X51.2535 Y27.8195
G01 X48.9139 Y27.8195
G01 X48.8193 Y27.8093
G01 X48.7803 Y27.8008
G01 X48.6982 Y27.7735
G01 X48.6608 Y27.7496
G01 X48.6506 Y27.7444
G01 X48.6400 Y27.7402
G01 X48.5618 Y27.7172
G01 X48.5470 Y27.7146
G01 X48.5320 Y27.7139
G01 X48.5201 Y27.7147
G01 X48.5112 Y27.7160
G01 X48.4567 Y27.7278
G01 X48.4430 Y27.7317
G01 X48.4324 Y27.7359
G01 X48.3214 Y27.7866
G01 X48.2708 Y27.8015
G01 X48.1454 Y27.8195
G01 X46.1016 Y27.8195
G01 X46.0874 Y27.8207
G01 X46.0762 Y27.8229
G01 X46.0008 Y27.8449
G01 X45.9924 Y27.8480
G01 X45.9816 Y27.8530
G01 X45.9713 Y27.8590
G01 X45.9617 Y27.8661
G01 X45.9550 Y27.8720
G01 X45.9488 Y27.8784
G01 X45.9010 Y27.9334
G01 X45.8919 Y27.9453
G01 X45.8858 Y27.9556
G01 X45.8796 Y27.9693
G01 X45.8751 Y27.9836
G01 X45.8627 Y28.0408
G01 X45.8608 Y28.0549
G01 X45.8605 Y28.0635
G01 X45.8605 Y29.1483
G01 X45.8624 Y29.1779
G01 X45.8645 Y29.1935
G01 X45.8612 Y29.2315
G01 X45.8605 Y29.2486
G01 X45.8572 Y29.2779
G01 X45.8511 Y29.3474
G01 X45.8501 Y29.3518
G01 X45.8251 Y29.4207
G01 X45.8031 Y29.4869
G01 X45.8016 Y29.4901
G01 X45.7609 Y29.5523
G01 X45.7243 Y29.6117
G01 X45.7214 Y29.6152
G01 X45.6668 Y29.6668
G01 X43.3949 Y31.9388
G01 X43.3753 Y31.9610
G01 X43.3657 Y31.9736
G01 X43.3365 Y31.9982
G01 X43.3240 Y32.0097
G01 X43.3009 Y32.0281
G01 X43.2474 Y32.0729
G01 X43.2436 Y32.0753
G01 X43.1804 Y32.1048
G01 X43.1148 Y32.1377
G01 X43.1116 Y32.1388
G01 X43.0422 Y32.1533
G01 X42.9709 Y32.1701
G01 X42.9664 Y32.1706
G01 X42.8913 Y32.1685
G01 X40.8209 Y32.1685
G01 X40.8095 Y32.1690
G01 X40.7982 Y32.1707
G01 X40.7871 Y32.1734
G01 X40.7200 Y32.1930
G01 X40.7118 Y32.1958
G01 X40.7039 Y32.1991
G01 X40.6936 Y32.2044
G01 X40.6863 Y32.2090
G01 X40.6794 Y32.2141
G01 X40.6707 Y32.2217
G01 X40.6361 Y32.2549
G01 X40.6301 Y32.2611
G01 X40.6227 Y32.2702
G01 X40.5975 Y32.3062
G01 X40.4502 Y32.4535
G01 X40.2795 Y32.5729
G01 X40.0907 Y32.6610
G01 X39.8895 Y32.7149
G01 X39.6820 Y32.7330
G01 X39.4745 Y32.7149
G01 X39.2733 Y32.6610
G01 X39.0845 Y32.5729
G01 X38.9138 Y32.4535
G01 X38.7665 Y32.3062
G01 X38.6471 Y32.1355
G01 X38.5590 Y31.9467
G01 X38.5051 Y31.7455
G01 X38.4870 Y31.5380
G01 X38.5051 Y31.3305
G01 X38.5590 Y31.1293
G01 X38.6471 Y30.9405
G01 X38.7665 Y30.7698
G01 X38.9138 Y30.6225
G01 X39.0845 Y30.5031
G01 X39.2733 Y30.4150
G01 X39.4745 Y30.3611
G01 X39.6820 Y30.3430
G01 X39.8895 Y30.3611
G01 X40.0907 Y30.4150
G01 X40.2795 Y30.5031
G01 X40.4502 Y30.6225
G01 X40.5975 Y30.7698
G01 X40.6227 Y30.8058
G01 X40.6280 Y30.8125
G01 X40.6338 Y30.8188
G01 X40.6444 Y30.8284
G01 X40.7012 Y30.8738
G01 X40.7083 Y30.8787
G01 X40.7182 Y30.8846
G01 X40.7287 Y30.8894
G01 X40.7368 Y30.8924
G01 X40.7479 Y30.8954
G01 X40.8006 Y30.9058
G01 X40.8121 Y30.9072
G01 X40.8209 Y30.9075
G01 X42.5446 Y30.9075
G01 X42.5588 Y30.9063
G01 X42.5728 Y30.9034
G01 X42.6454 Y30.8821
G01 X42.6591 Y30.8767
G01 X42.6696 Y30.8713
G01 X42.6794 Y30.8648
G01 X42.7047 Y30.8446
G01 X42.7143 Y30.8360
G01 X44.5280 Y29.0223
G01 X44.5357 Y29.0139
G01 X44.5441 Y29.0023
G01 X44.5485 Y28.9950
G01 X44.5820 Y28.9336
G01 X44.5859 Y28.9257
G01 X44.5893 Y28.9176
G01 X44.5928 Y28.9063
G01 X44.5952 Y28.8948
G01 X44.5988 Y28.8626
G01 X44.5995 Y28.8530
G01 X44.5994 Y28.0578
G01 X44.5983 Y28.0464
G01 X44.5954 Y28.0324
G01 X44.5750 Y27.9627
G01 X44.5699 Y27.9487
G01 X44.5660 Y27.9406
G01 X44.5616 Y27.9328
G01 X44.5565 Y27.9254
G01 X44.5510 Y27.9184
G01 X44.5406 Y27.9078
G01 X44.4833 Y27.8581
G01 X44.4762 Y27.8526
G01 X44.4660 Y27.8462
G01 X44.4525 Y27.8397
G01 X44.4383 Y27.8349
G01 X44.3782 Y27.8217
G01 X44.3641 Y27.8198
G01 X44.3555 Y27.8195
G01 X42.3124 Y27.8195
G01 X42.2178 Y27.8093
G01 X42.1788 Y27.8008
G01 X42.0967 Y27.7735
G01 X42.0593 Y27.7496
G01 X42.0491 Y27.7444
G01 X42.0385 Y27.7402
G01 X41.9603 Y27.7172
G01 X41.9455 Y27.7146
G01 X41.9335 Y27.7139
G01 X41.9216 Y27.7144
G01 X41.9097 Y27.7160
G01 X41.8552 Y27.7278
G01 X41.8442 Y27.7308
G01 X41.8309 Y27.7359
G01 X41.7199 Y27.7866
G01 X41.6693 Y27.8015
G01 X41.5439 Y27.8195
G01 X36.7065 Y27.8195
G01 X36.6923 Y27.8203
G01 X36.6782 Y27.8229
G01 X36.6028 Y27.8449
G01 X36.5917 Y27.8491
G01 X36.5784 Y27.8559
G01 X36.5684 Y27.8625
G01 X36.5570 Y27.8720
G01 X36.5488 Y27.8806
G01 X36.5030 Y27.9334
G01 X36.4974 Y27.9404
G01 X36.4923 Y27.9478
G01 X36.4878 Y27.9556
G01 X36.4838 Y27.9637
G01 X36.4805 Y27.9721
G01 X36.4779 Y27.9807
G01 X36.4647 Y28.0408
G01 X36.4633 Y28.0493
G01 X36.4625 Y28.0606
G01 X36.4625 Y39.3883
G01 X36.4644 Y39.4179
G01 X36.4665 Y39.4335
G01 X36.4632 Y39.4715
G01 X36.4625 Y39.4886
G01 X36.4592 Y39.5179
G01 X36.4531 Y39.5874
G01 X36.4521 Y39.5918
G01 X36.4271 Y39.6607
G01 X36.4051 Y39.7269
G01 X36.4036 Y39.7301
G01 X36.3648 Y39.7893
G01 X36.3263 Y39.8517
G01 X36.3234 Y39.8552
G01 X36.2688 Y39.9068
G01 X34.8371 Y41.3386
G01 X34.8294 Y41.3470
G01 X34.8226 Y41.3562
G01 X34.8166 Y41.3659
G01 X34.7805 Y41.4324
G01 X34.7770 Y41.4404
G01 X34.7740 Y41.4486
G01 X34.7717 Y41.4570
G01 X34.7700 Y41.4656
G01 X34.7687 Y41.4771
G01 X34.7663 Y41.5143
G01 X34.7662 Y41.5264
G01 X34.7810 Y41.6980
G01 X34.7629 Y41.9055
G01 X34.7090 Y42.1067
G01 X34.6209 Y42.2955
G01 X34.5015 Y42.4662
G01 X34.3542 Y42.6135
G01 X34.1835 Y42.7329
G01 X33.9947 Y42.8210
G01 X33.7935 Y42.8749
G01 X33.5860 Y42.8930
G01 X33.3785 Y42.8749
G01 X33.1773 Y42.8210
G01 X32.9885 Y42.7329
G01 X32.8178 Y42.6135
G01 X32.6705 Y42.4662
G01 X32.5511 Y42.2955
G01 X32.4630 Y42.1067
G01 X32.4091 Y41.9055
G01 X32.3910 Y41.6980
G01 X32.4091 Y41.4905
G01 X32.4630 Y41.2893
G01 X32.5511 Y41.1005
G01 X32.6705 Y40.9298
G01 X32.8178 Y40.7825
G01 X32.9885 Y40.6631
G01 X33.1773 Y40.5750
G01 X33.3785 Y40.5211
G01 X33.5860 Y40.5030
G01 X33.7516 Y40.5174
G01 X33.7630 Y40.5179
G01 X33.7716 Y40.5175
G01 X33.7857 Y40.5155
G01 X33.8542 Y40.5018
G01 X33.8627 Y40.4998
G01 X33.8738 Y40.4961
G01 X33.8818 Y40.4927
G01 X33.8921 Y40.4872
G01 X33.8994 Y40.4825
G01 X33.9341 Y40.4569
G01 X33.9454 Y40.4469
G01 X35.1320 Y39.2603
G01 X35.1395 Y39.2516
G01 X35.1476 Y39.2399
G01 X35.1840 Y39.1736
G01 X35.1879 Y39.1657
G01 X35.1913 Y39.1576
G01 X35.1940 Y39.1492
G01 X35.1961 Y39.1406
G01 X35.1976 Y39.1319
G01 X35.2008 Y39.1026
G01 X35.2015 Y39.0898
G01 X35.2015 Y28.0635
G01 X35.2007 Y28.0493
G01 X35.1981 Y28.0352
G01 X35.1770 Y27.9627
G01 X35.1719 Y27.9487
G01 X35.1666 Y27.9380
G01 X35.1603 Y27.9279
G01 X35.1530 Y27.9184
G01 X35.1426 Y27.9078
G01 X35.0853 Y27.8581
G01 X35.0732 Y27.8493
G01 X35.0627 Y27.8434
G01 X35.0489 Y27.8375
G01 X35.0374 Y27.8341
G01 X34.9802 Y27.8217
G01 X34.9717 Y27.8203
G01 X34.9632 Y27.8196
G01 X30.1204 Y27.8195
G01 X30.0258 Y27.8093
G01 X29.9868 Y27.8008
G01 X29.9047 Y27.7735
G01 X29.8663 Y27.7490
G01 X29.8561 Y27.7437
G01 X29.8455 Y27.7395
G01 X29.7672 Y27.7165
G01 X29.7525 Y27.7139
G01 X29.7405 Y27.7132
G01 X29.7285 Y27.7137
G01 X29.7166 Y27.7154
G01 X29.6622 Y27.7272
G01 X29.6512 Y27.7301
G01 X29.6379 Y27.7353
G01 X29.5254 Y27.7866
G01 X29.4748 Y27.8015
G01 X29.3494 Y27.8195
G01 X24.5088 Y27.8196
G01 X24.4946 Y27.8212
G01 X24.4834 Y27.8236
G01 X24.4137 Y27.8440
G01 X24.3997 Y27.8491
G01 X24.3916 Y27.8530
G01 X24.3838 Y27.8574
G01 X24.3764 Y27.8625
G01 X24.3694 Y27.8680
G01 X24.3588 Y27.8784
G01 X24.3091 Y27.9357
G01 X24.3036 Y27.9428
G01 X24.2987 Y27.9504
G01 X24.2944 Y27.9583
G01 X24.2907 Y27.9665
G01 X24.2876 Y27.9749
G01 X24.2851 Y27.9836
G01 X24.2727 Y28.0408
G01 X24.2710 Y28.0521
G01 X24.2705 Y28.0635
G01 X24.2705 Y38.8803
G01 X24.2724 Y38.9099
G01 X24.2745 Y38.9255
G01 X24.2712 Y38.9635
G01 X24.2705 Y38.9806
G01 X24.2672 Y39.0099
G01 X24.2611 Y39.0794
G01 X24.2603 Y39.0827
G01 X24.2362 Y39.1494
G01 X24.2131 Y39.2189
G01 X24.2116 Y39.2221
G01 X24.1728 Y39.2813
G01 X24.1343 Y39.3437
G01 X24.1314 Y39.3472
G01 X24.0769 Y39.3988
G01 X22.1371 Y41.3386
G01 X22.1294 Y41.3470
G01 X22.1242 Y41.3538
G01 X22.1166 Y41.3659
G01 X22.0805 Y41.4324
G01 X22.0770 Y41.4404
G01 X22.0740 Y41.4486
G01 X22.0717 Y41.4570
G01 X22.0700 Y41.4656
G01 X22.0687 Y41.4771
G01 X22.0663 Y41.5143
G01 X22.0662 Y41.5264
G01 X22.0810 Y41.6980
G01 X22.0629 Y41.9055
G01 X22.0090 Y42.1067
G01 X21.9209 Y42.2955
G01 X21.8015 Y42.4662
G01 X21.6542 Y42.6135
G01 X21.4835 Y42.7329
G01 X21.2947 Y42.8210
G01 X21.0935 Y42.8749
G01 X20.8860 Y42.8930
G01 X20.6785 Y42.8749
G01 X20.4773 Y42.8210
G01 X20.2885 Y42.7329
G01 X20.1178 Y42.6135
G01 X19.9705 Y42.4662
G01 X19.8511 Y42.2955
G01 X19.7630 Y42.1067
G01 X19.7091 Y41.9055
G01 X19.6910 Y41.6980
G01 X19.7091 Y41.4905
G01 X19.7630 Y41.2893
G01 X19.8511 Y41.1005
G01 X19.9705 Y40.9298
G01 X20.1178 Y40.7825
G01 X20.2885 Y40.6631
G01 X20.4773 Y40.5750
G01 X20.6785 Y40.5211
G01 X20.8860 Y40.5030
G01 X21.0545 Y40.5177
G01 X21.0659 Y40.5178
G01 X21.0801 Y40.5165
G01 X21.1571 Y40.5012
G01 X21.1655 Y40.4989
G01 X21.1738 Y40.4961
G01 X21.1870 Y40.4901
G01 X21.1970 Y40.4841
G01 X21.2341 Y40.4569
G01 X21.2454 Y40.4469
G01 X22.9400 Y38.7523
G01 X22.9492 Y38.7414
G01 X22.9556 Y38.7319
G01 X22.9934 Y38.6630
G01 X22.9982 Y38.6523
G01 X23.0012 Y38.6440
G01 X23.0035 Y38.6355
G01 X23.0052 Y38.6268
G01 X23.0088 Y38.5946
G01 X23.0095 Y38.5818
G01 X23.0095 Y28.0635
G01 X23.0092 Y28.0549
G01 X23.0083 Y28.0464
G01 X23.0068 Y28.0380
G01 X23.0046 Y28.0297
G01 X22.9850 Y27.9627
G01 X22.9799 Y27.9487
G01 X22.9731 Y27.9354
G01 X22.9665 Y27.9254
G01 X22.9590 Y27.9162
G01 X22.9506 Y27.9078
G01 X22.8910 Y27.8562
G01 X22.8786 Y27.8477
G01 X22.8680 Y27.8421
G01 X22.8569 Y27.8375
G01 X22.8425 Y27.8334
G01 X22.7882 Y27.8217
G01 X22.7769 Y27.8200
G01 X22.7684 Y27.8195
G01 X17.9259 Y27.8195
G01 X17.8313 Y27.8093
G01 X17.7923 Y27.8008
G01 X17.7102 Y27.7735
G01 X17.6728 Y27.7496
G01 X17.6626 Y27.7444
G01 X17.6520 Y27.7402
G01 X17.5738 Y27.7172
G01 X17.5590 Y27.7146
G01 X17.5440 Y27.7139
G01 X17.5351 Y27.7144
G01 X17.5232 Y27.7160
G01 X17.4687 Y27.7278
G01 X17.4550 Y27.7317
G01 X17.4444 Y27.7359
G01 X17.3334 Y27.7866
G01 X17.2828 Y27.8015
G01 X17.1574 Y27.8195
G01 X15.6616 Y27.8195
G01 X15.6474 Y27.8207
G01 X15.6334 Y27.8236
G01 X15.5637 Y27.8440
G01 X15.5497 Y27.8491
G01 X15.5390 Y27.8544
G01 X15.5313 Y27.8590
G01 X15.5217 Y27.8661
G01 X15.5129 Y27.8741
G01 X15.5068 Y27.8806
G01 X15.4610 Y27.9334
G01 X15.4554 Y27.9404
G01 X15.4503 Y27.9478
G01 X15.4458 Y27.9556
G01 X15.4418 Y27.9637
G01 X15.4385 Y27.9721
G01 X15.4359 Y27.9807
G01 X15.4227 Y28.0408
G01 X15.4213 Y28.0493
G01 X15.4206 Y28.0578
G01 X15.4205 Y30.3991
G01 X15.4210 Y30.4105
G01 X15.4222 Y30.4190
G01 X15.4246 Y30.4302
G01 X15.4459 Y30.5027
G01 X15.4488 Y30.5109
G01 X15.4523 Y30.5188
G01 X15.4564 Y30.5264
G01 X15.4610 Y30.5337
G01 X15.4661 Y30.5406
G01 X15.4717 Y30.5472
G01 X15.5110 Y30.5880
G01 X15.5222 Y30.5973
G01 X15.5582 Y30.6225
G01 X15.7055 Y30.7698
G01 X15.8249 Y30.9405
G01 X15.9130 Y31.1293
G01 X15.9669 Y31.3305
G01 X15.9850 Y31.5380
G01 X15.9669 Y31.7455
G01 X15.9130 Y31.9467
G01 X15.8249 Y32.1355
G01 X15.7055 Y32.3062
G01 X15.5582 Y32.4535
G01 X15.3875 Y32.5729
G01 X15.1987 Y32.6610
G01 X14.9975 Y32.7149
G01 X14.7900 Y32.7330
G01 X14.5825 Y32.7149
G01 X14.3813 Y32.6610
G01 X14.1925 Y32.5729
G01 X14.0218 Y32.4535
G01 X13.8745 Y32.3062
G01 X13.7551 Y32.1355
G01 X13.6670 Y31.9467
G01 X13.6131 Y31.7455
G01 X13.5950 Y31.5380
G01 X13.6131 Y31.3305
G01 X13.6670 Y31.1293
G01 X13.7551 Y30.9405
G01 X13.8745 Y30.7698
G01 X14.0218 Y30.6225
G01 X14.0578 Y30.5973
G01 X14.0645 Y30.5920
G01 X14.0708 Y30.5862
G01 X14.0804 Y30.5756
G01 X14.1258 Y30.5188
G01 X14.1323 Y30.5093
G01 X14.1379 Y30.4992
G01 X14.1414 Y30.4913
G01 X14.1452 Y30.4805
G01 X14.1480 Y30.4693
G01 X14.1572 Y30.4223
G01 X14.1592 Y30.4079
G01 X14.1595 Y30.3991
G01 X14.1595 Y26.9852
G01 X14.1592 Y26.9762
G01 X14.1581 Y26.9672
G01 X14.1495 Y26.9187
G01 X14.1474 Y26.9099
G01 X14.1446 Y26.9014
G01 X10.5873 Y17.1780
G01 X10.5670 Y17.1027
G01 X10.5613 Y17.0705
G01 X10.5545 Y16.9928
G01 X10.5545 Y6.9904
G00 Z1.0000
G00 X10.6245 Y6.9942
G01 F30.00
G01 Z0.0000
G01 F100.00
G01 X10.6339 Y6.9070
G01 X10.6408 Y6.8754
G01 X10.6641 Y6.8051
G01 X10.7217 Y6.7156
G01 X10.7496 Y6.6834
G01 X10.8274 Y6.6159
G01 X10.9211 Y6.5731
G01 X10.9621 Y6.5611
G01 X11.0776 Y6.5445
G01 X23.2518 Y6.5445
G01 X23.3390 Y6.5539
G01 X23.3706 Y6.5608
G01 X23.4409 Y6.5841
G01 X23.4660 Y6.6003
G01 X23.4776 Y6.6072
G01 X23.4939 Y6.6151
G01 X23.5066 Y6.6200
G01 X23.5914 Y6.6449
G01 X23.6053 Y6.6477
G01 X23.6147 Y6.6490
G01 X23.6337 Y6.6501
G01 X23.6527 Y6.6494
G01 X23.6715 Y6.6467
G01 X23.7276 Y6.6346
G01 X23.7451 Y6.6299
G01 X23.7536 Y6.6269
G01 X23.7662 Y6.6217
G01 X23.8726 Y6.5731
G01 X23.9136 Y6.5611
G01 X24.0291 Y6.5445
G01 X35.4463 Y6.5445
G01 X35.5335 Y6.5539
G01 X35.5651 Y6.5608
G01 X35.6354 Y6.5841
G01 X35.6605 Y6.6003
G01 X35.6721 Y6.6072
G01 X35.6843 Y6.6133
G01 X35.7011 Y6.6200
G01 X35.7859 Y6.6449
G01 X35.8045 Y6.6484
G01 X35.8140 Y6.6494
G01 X35.8282 Y6.6501
G01 X35.8472 Y6.6494
G01 X35.8660 Y6.6467
G01 X35.9221 Y6.6346
G01 X35.9396 Y6.6299
G01 X35.9524 Y6.6253
G01 X35.9607 Y6.6217
G01 X36.0671 Y6.5731
G01 X36.1081 Y6.5611
G01 X36.2236 Y6.5445
G01 X48.1438 Y6.5445
G01 X48.2310 Y6.5539
G01 X48.2626 Y6.5608
G01 X48.3329 Y6.5841
G01 X48.3580 Y6.6003
G01 X48.3696 Y6.6072
G01 X48.3818 Y6.6133
G01 X48.3986 Y6.6200
G01 X48.4834 Y6.6449
G01 X48.4927 Y6.6469
G01 X48.5067 Y6.6490
G01 X48.5257 Y6.6501
G01 X48.5447 Y6.6494
G01 X48.5635 Y6.6467
G01 X48.6196 Y6.6346
G01 X48.6371 Y6.6299
G01 X48.6456 Y6.6269
G01 X48.6582 Y6.6217
G01 X48.7646 Y6.5731
G01 X48.8056 Y6.5611
G01 X48.9211 Y6.5445
G01 X60.3383 Y6.5445
G01 X60.4255 Y6.5539
G01 X60.4571 Y6.5608
G01 X60.5274 Y6.5841
G01 X60.5525 Y6.6003
G01 X60.5641 Y6.6072
G01 X60.5763 Y6.6133
G01 X60.5931 Y6.6200
G01 X60.6779 Y6.6449
G01 X60.6965 Y6.6484
G01 X60.7060 Y6.6494
G01 X60.7202 Y6.6501
G01 X60.7392 Y6.6494
G01 X60.7580 Y6.6467
G01 X60.8141 Y6.6346
G01 X60.8316 Y6.6299
G01 X60.8401 Y6.6269
G01 X60.8527 Y6.6217
G01 X60.9591 Y6.5731
G01 X61.0001 Y6.5611
G01 X61.1156 Y6.5445
G01 X73.0358 Y6.5445
G01 X73.1230 Y6.5539
G01 X73.1546 Y6.5608
G01 X73.2249 Y6.5841
G01 X73.2500 Y6.6003
G01 X73.2616 Y6.6072
G01 X73.2779 Y6.6151
G01 X73.2906 Y6.6200
G01 X73.3754 Y6.6449
G01 X73.3940 Y6.6484
G01 X73.4082 Y6.6498
G01 X73.4177 Y6.6501
G01 X73.4367 Y6.6494
G01 X73.4555 Y6.6467
G01 X73.5116 Y6.6346
G01 X73.5291 Y6.6299
G01 X73.5376 Y6.6269
G01 X73.5502 Y6.6217
G01 X73.6566 Y6.5731
G01 X73.6976 Y6.5611
G01 X73.8131 Y6.5445
G01 X85.2303 Y6.5445
G01 X85.3175 Y6.5539
G01 X85.3491 Y6.5608
G01 X85.4194 Y6.5841
G01 X85.4445 Y6.6003
G01 X85.4561 Y6.6072
G01 X85.4724 Y6.6151
G01 X85.4851 Y6.6200
G01 X85.5699 Y6.6449
G01 X85.5885 Y6.6484
G01 X85.5980 Y6.6494
G01 X85.6122 Y6.6501
G01 X85.6312 Y6.6494
G01 X85.6500 Y6.6467
G01 X85.7061 Y6.6346
G01 X85.7236 Y6.6299
G01 X85.7321 Y6.6269
G01 X85.7447 Y6.6217
G01 X85.8511 Y6.5731
G01 X85.8921 Y6.5611
G01 X86.0076 Y6.5445
G01 X97.9278 Y6.5445
G01 X98.0150 Y6.5539
G01 X98.0466 Y6.5608
G01 X98.1169 Y6.5841
G01 X98.1420 Y6.6003
G01 X98.1536 Y6.6072
G01 X98.1658 Y6.6133
G01 X98.1826 Y6.6200
G01 X98.2674 Y6.6449
G01 X98.2860 Y6.6484
G01 X98.3002 Y6.6498
G01 X98.3097 Y6.6501
G01 X98.3287 Y6.6494
G01 X98.3475 Y6.6467
G01 X98.4036 Y6.6346
G01 X98.4211 Y6.6299
G01 X98.4296 Y6.6269
G01 X98.4422 Y6.6217
G01 X98.5486 Y6.5731
G01 X98.5896 Y6.5611
G01 X98.7051 Y6.5445
G01 X110.6278 Y6.5445
G01 X110.7150 Y6.5539
G01 X110.7466 Y6.5608
G01 X110.8169 Y6.5841
G01 X110.9064 Y6.6417
G01 X110.9387 Y6.6696
G01 X111.0061 Y6.7474
G01 X111.0489 Y6.8411
G01 X111.0609 Y6.8821
G01 X111.0775 Y6.9976
G01 X111.0775 Y16.9806
G01 X111.0670 Y17.0729
G01 X111.0593 Y17.1062
G01 X111.0283 Y17.1938
G01 X106.0052 Y27.4910
G01 X105.9431 Y27.5837
G01 X105.9160 Y27.6142
G01 X105.8416 Y27.6778
G01 X105.7474 Y27.7209
G01 X105.7064 Y27.7329
G01 X105.5909 Y27.7495
G01 X102.7865 Y27.7495
G01 X102.7684 Y27.7504
G01 X102.7550 Y27.7521
G01 X102.7373 Y27.7560
G01 X102.6614 Y27.7783
G01 X102.6525 Y27.7814
G01 X102.6395 Y27.7868
G01 X102.6269 Y27.7933
G01 X102.6148 Y27.8006
G01 X102.6033 Y27.8089
G01 X102.5959 Y27.8148
G01 X102.5889 Y27.8211
G01 X102.5790 Y27.8312
G01 X102.5270 Y27.8912
G01 X102.5157 Y27.9064
G01 X102.5083 Y27.9186
G01 X102.5017 Y27.9312
G01 X102.4962 Y27.9443
G01 X102.4916 Y27.9578
G01 X102.4891 Y27.9670
G01 X102.4751 Y28.0320
G01 X102.4734 Y28.0454
G01 X102.4726 Y28.0590
G01 X102.4725 Y30.3991
G01 X102.4730 Y30.4127
G01 X102.4744 Y30.4262
G01 X102.4768 Y30.4395
G01 X102.4790 Y30.4483
G01 X102.4999 Y30.5197
G01 X102.5042 Y30.5327
G01 X102.5094 Y30.5453
G01 X102.5156 Y30.5575
G01 X102.5226 Y30.5693
G01 X102.5304 Y30.5805
G01 X102.5421 Y30.5945
G01 X102.5849 Y30.6389
G01 X102.5918 Y30.6450
G01 X102.6026 Y30.6537
G01 X102.6350 Y30.6764
G01 X102.7736 Y30.8150
G01 X102.8861 Y30.9756
G01 X102.9689 Y31.1533
G01 X103.0197 Y31.3427
G01 X103.0368 Y31.5380
G01 X103.0197 Y31.7333
G01 X102.9689 Y31.9227
G01 X102.8861 Y32.1004
G01 X102.7736 Y32.2610
G01 X102.6350 Y32.3996
G01 X102.4744 Y32.5121
G01 X102.2967 Y32.5949
G01 X102.1073 Y32.6457
G01 X101.9120 Y32.6628
G01 X101.7167 Y32.6457
G01 X101.5273 Y32.5949
G01 X101.3496 Y32.5121
G01 X101.1890 Y32.3996
G01 X101.0504 Y32.2610
G01 X100.9668 Y32.1416
G01 X100.9379 Y32.1004
G01 X100.8551 Y31.9227
G01 X100.8043 Y31.7333
G01 X100.7872 Y31.5380
G01 X100.8043 Y31.3427
G01 X100.8551 Y31.1533
G01 X100.9379 Y30.9756
G01 X101.0504 Y30.8150
G01 X101.1890 Y30.6764
G01 X101.2249 Y30.6510
G01 X101.2353 Y30.6423
G01 X101.2451 Y30.6329
G01 X101.2570 Y30.6193
G01 X101.3007 Y30.5648
G01 X101.3113 Y30.5500
G01 X101.3184 Y30.5383
G01 X101.3246 Y30.5261
G01 X101.3299 Y30.5135
G01 X101.3343 Y30.5005
G01 X101.3377 Y30.4873
G01 X101.3479 Y30.4358
G01 X101.3495 Y30.4267
G01 X101.3510 Y30.4130
G01 X101.3515 Y30.3991
G01 X101.3515 Y28.0635
G01 X101.3510 Y28.0499
G01 X101.3489 Y28.0320
G01 X101.3450 Y28.0143
G01 X101.3212 Y27.9339
G01 X101.3161 Y27.9208
G01 X101.3100 Y27.9080
G01 X101.3029 Y27.8957
G01 X101.2950 Y27.8840
G01 X101.2831 Y27.8694
G01 X101.2698 Y27.8560
G01 X101.2134 Y27.8071
G01 X101.2023 Y27.7982
G01 X101.1906 Y27.7901
G01 X101.1741 Y27.7808
G01 X101.1567 Y27.7732
G01 X101.1386 Y27.7673
G01 X101.0690 Y27.7521
G01 X101.0556 Y27.7504
G01 X101.0375 Y27.7495
G01 X98.7017 Y27.7495
G01 X98.6145 Y27.7401
G01 X98.5829 Y27.7332
G01 X98.5126 Y27.7099
G01 X98.4875 Y27.6937
G01 X98.4759 Y27.6868
G01 X98.4637 Y27.6807
G01 X98.4469 Y27.6740
G01 X98.3621 Y27.6491
G01 X98.3481 Y27.6463
G01 X98.3387 Y27.6450
G01 X98.3245 Y27.6440
G01 X98.3150 Y27.6439
G01 X98.2961 Y27.6451
G01 X98.2820 Y27.6473
G01 X98.2259 Y27.6594
G01 X98.2084 Y27.6641
G01 X98.1956 Y27.6687
G01 X98.1873 Y27.6723
G01 X98.0809 Y27.7209
G01 X98.0399 Y27.7329
G01 X97.9244 Y27.7495
G01 X95.3760 Y27.7496
G01 X95.3579 Y27.7508
G01 X95.3490 Y27.7521
G01 X95.3357 Y27.7549
G01 X95.2599 Y27.7769
G01 X95.2421 Y27.7831
G01 X95.2250 Y27.7910
G01 X95.2088 Y27.8006
G01 X95.1973 Y27.8089
G01 X95.1829 Y27.8211
G01 X95.1699 Y27.8348
G01 X95.1241 Y27.8876
G01 X95.1181 Y27.8949
G01 X95.1097 Y27.9064
G01 X95.1023 Y27.9186
G01 X95.0957 Y27.9312
G01 X95.0902 Y27.9443
G01 X95.0856 Y27.9578
G01 X95.0820 Y27.9716
G01 X95.0708 Y28.0231
G01 X95.0691 Y28.0320
G01 X95.0674 Y28.0454
G01 X95.0665 Y28.0635
G01 X95.0665 Y29.9103
G01 X95.0667 Y29.9195
G01 X95.0683 Y29.9421
G01 X95.0701 Y29.9576
G01 X95.0674 Y29.9889
G01 X95.0666 Y30.0056
G01 X95.0635 Y30.0328
G01 X95.0579 Y30.0964
G01 X95.0361 Y30.1564
G01 X95.0148 Y30.2203
G01 X94.9798 Y30.2737
G01 X94.9443 Y30.3311
G01 X94.8934 Y30.3793
G01 X93.3834 Y31.8893
G01 X93.3770 Y31.8960
G01 X93.3622 Y31.9130
G01 X93.3525 Y31.9253
G01 X93.3284 Y31.9455
G01 X93.3161 Y31.9567
G01 X93.2946 Y31.9738
G01 X93.2458 Y32.0148
G01 X93.1847 Y32.0434
G01 X93.1276 Y32.0720
G01 X93.0651 Y32.0849
G01 X92.9995 Y32.1004
G01 X92.9293 Y32.0985
G01 X90.6049 Y32.0985
G01 X90.5868 Y32.0994
G01 X90.5689 Y32.1019
G01 X90.5513 Y32.1062
G01 X90.4843 Y32.1259
G01 X90.4713 Y32.1302
G01 X90.4587 Y32.1354
G01 X90.4465 Y32.1416
G01 X90.4347 Y32.1486
G01 X90.4235 Y32.1564
G01 X90.4095 Y32.1681
G01 X90.3651 Y32.2109
G01 X90.3560 Y32.2213
G01 X90.3504 Y32.2286
G01 X90.3276 Y32.2610
G01 X90.1890 Y32.3996
G01 X90.0284 Y32.5121
G01 X89.8507 Y32.5949
G01 X89.6613 Y32.6457
G01 X89.4660 Y32.6628
G01 X89.2707 Y32.6457
G01 X89.0813 Y32.5949
G01 X88.9036 Y32.5121
G01 X88.7430 Y32.3996
G01 X88.6044 Y32.2610
G01 X88.4919 Y32.1004
G01 X88.4091 Y31.9227
G01 X88.3583 Y31.7333
G01 X88.3412 Y31.5380
G01 X88.3583 Y31.3427
G01 X88.4091 Y31.1533
G01 X88.4919 Y30.9756
G01 X88.6044 Y30.8150
G01 X88.7430 Y30.6764
G01 X88.9036 Y30.5639
G01 X89.0813 Y30.4811
G01 X89.2707 Y30.4303
G01 X89.4660 Y30.4132
G01 X89.6613 Y30.4303
G01 X89.8507 Y30.4811
G01 X90.0284 Y30.5639
G01 X90.1890 Y30.6764
G01 X90.3276 Y30.8150
G01 X90.3530 Y30.8509
G01 X90.3587 Y30.8579
G01 X90.3679 Y30.8679
G01 X90.3812 Y30.8802
G01 X90.4428 Y30.9295
G01 X90.4540 Y30.9374
G01 X90.4657 Y30.9444
G01 X90.4821 Y30.9525
G01 X90.4948 Y30.9575
G01 X90.5035 Y30.9603
G01 X90.5167 Y30.9637
G01 X90.5773 Y30.9755
G01 X90.5910 Y30.9770
G01 X90.6049 Y30.9775
G01 X92.5843 Y30.9774
G01 X92.5978 Y30.9766
G01 X92.6068 Y30.9756
G01 X92.6202 Y30.9732
G01 X92.6333 Y30.9698
G01 X92.7092 Y30.9473
G01 X92.7265 Y30.9403
G01 X92.7390 Y30.9340
G01 X92.7510 Y30.9267
G01 X92.7624 Y30.9186
G01 X92.7906 Y30.8959
G01 X92.8018 Y30.8855
G01 X93.8567 Y29.8306
G01 X93.8657 Y29.8204
G01 X93.8713 Y29.8133
G01 X93.8765 Y29.8059
G01 X93.8837 Y29.7945
G01 X93.9216 Y29.7251
G01 X93.9275 Y29.7124
G01 X93.9310 Y29.7037
G01 X93.9366 Y29.6859
G01 X93.9404 Y29.6677
G01 X93.9449 Y29.6270
G01 X93.9455 Y29.6118
G01 X93.9453 Y28.0545
G01 X93.9442 Y28.0409
G01 X93.9429 Y28.0320
G01 X93.9390 Y28.0143
G01 X93.9181 Y27.9429
G01 X93.9119 Y27.9251
G01 X93.9040 Y27.9080
G01 X93.8969 Y27.8957
G01 X93.8917 Y27.8879
G01 X93.8861 Y27.8803
G01 X93.8771 Y27.8694
G01 X93.8638 Y27.8560
G01 X93.8001 Y27.8011
G01 X93.7846 Y27.7901
G01 X93.7681 Y27.7808
G01 X93.7551 Y27.7749
G01 X93.7462 Y27.7715
G01 X93.7280 Y27.7661
G01 X93.6675 Y27.7529
G01 X93.6496 Y27.7504
G01 X93.6315 Y27.7495
G01 X92.1002 Y27.7495
G01 X92.0130 Y27.7401
G01 X91.9814 Y27.7332
G01 X91.9111 Y27.7099
G01 X91.8860 Y27.6937
G01 X91.8744 Y27.6868
G01 X91.8622 Y27.6807
G01 X91.8454 Y27.6740
G01 X91.7606 Y27.6491
G01 X91.7466 Y27.6463
G01 X91.7372 Y27.6450
G01 X91.7183 Y27.6439
G01 X91.6993 Y27.6446
G01 X91.6805 Y27.6473
G01 X91.6244 Y27.6594
G01 X91.6069 Y27.6641
G01 X91.5941 Y27.6687
G01 X91.5858 Y27.6723
G01 X91.4794 Y27.7209
G01 X91.4384 Y27.7329
G01 X91.3229 Y27.7495
G01 X84.2445 Y27.7495
G01 X84.2309 Y27.7500
G01 X84.2219 Y27.7508
G01 X84.2130 Y27.7521
G01 X84.1997 Y27.7549
G01 X84.1239 Y27.7769
G01 X84.1105 Y27.7814
G01 X84.0932 Y27.7889
G01 X84.0767 Y27.7981
G01 X84.0613 Y27.8089
G01 X84.0469 Y27.8211
G01 X84.0339 Y27.8348
G01 X83.9821 Y27.8949
G01 X83.9737 Y27.9064
G01 X83.9687 Y27.9145
G01 X83.9597 Y27.9312
G01 X83.9525 Y27.9488
G01 X83.9483 Y27.9624
G01 X83.9460 Y27.9716
G01 X83.9331 Y28.0320
G01 X83.9314 Y28.0454
G01 X83.9305 Y28.0635
G01 X83.9306 Y40.5637
G01 X83.9318 Y40.5817
G01 X83.9339 Y40.5951
G01 X83.9359 Y40.6039
G01 X83.9592 Y40.6841
G01 X83.9639 Y40.6969
G01 X83.9694 Y40.7094
G01 X83.9782 Y40.7254
G01 X83.9857 Y40.7368
G01 X83.9941 Y40.7476
G01 X84.0001 Y40.7545
G01 X84.0396 Y40.7957
G01 X84.0498 Y40.8050
G01 X84.0570 Y40.8109
G01 X84.0930 Y40.8364
G01 X84.2316 Y40.9750
G01 X84.3441 Y41.1356
G01 X84.4269 Y41.3133
G01 X84.4777 Y41.5027
G01 X84.4948 Y41.6980
G01 X84.4777 Y41.8933
G01 X84.4269 Y42.0827
G01 X84.3441 Y42.2604
G01 X84.2316 Y42.4210
G01 X84.0930 Y42.5596
G01 X83.9324 Y42.6721
G01 X83.7547 Y42.7549
G01 X83.5653 Y42.8057
G01 X83.3700 Y42.8228
G01 X83.1747 Y42.8057
G01 X82.9853 Y42.7549
G01 X82.8076 Y42.6721
G01 X82.6470 Y42.5596
G01 X82.5084 Y42.4210
G01 X82.3959 Y42.2604
G01 X82.3131 Y42.0827
G01 X82.2623 Y41.8933
G01 X82.2452 Y41.6980
G01 X82.2623 Y41.5027
G01 X82.3131 Y41.3133
G01 X82.3959 Y41.1356
G01 X82.5084 Y40.9750
G01 X82.6470 Y40.8364
G01 X82.6829 Y40.8110
G01 X82.6933 Y40.8023
G01 X82.7031 Y40.7929
G01 X82.7150 Y40.7793
G01 X82.7587 Y40.7248
G01 X82.7693 Y40.7100
G01 X82.7764 Y40.6983
G01 X82.7826 Y40.6861
G01 X82.7879 Y40.6735
G01 X82.7923 Y40.6605
G01 X82.7957 Y40.6473
G01 X82.8059 Y40.5958
G01 X82.8081 Y40.5822
G01 X82.8090 Y40.5730
G01 X82.8095 Y40.5591
G01 X82.8095 Y35.3957
G01 X82.8086 Y35.3776
G01 X82.8076 Y35.3687
G01 X82.8052 Y35.3553
G01 X82.8018 Y35.3422
G01 X82.7807 Y35.2706
G01 X82.7776 Y35.2617
G01 X82.7722 Y35.2487
G01 X82.7657 Y35.2360
G01 X82.7584 Y35.2240
G01 X82.7501 Y35.2124
G01 X82.7442 Y35.2051
G01 X82.7346 Y35.1947
G01 X82.7242 Y35.1851
G01 X82.6678 Y35.1363
G01 X82.6604 Y35.1304
G01 X82.6487 Y35.1224
G01 X82.6323 Y35.1131
G01 X82.6194 Y35.1073
G01 X82.6017 Y35.1009
G01 X82.5834 Y35.0964
G01 X82.4956 Y35.0838
G01 X82.4769 Y35.0830
G01 X82.4675 Y35.0832
G01 X82.4535 Y35.0845
G01 X82.4397 Y35.0868
G01 X82.4142 Y35.0924
G01 X82.2153 Y35.1457
G01 X82.0200 Y35.1628
G01 X81.8247 Y35.1457
G01 X81.6353 Y35.0949
G01 X81.4576 Y35.0121
G01 X81.2970 Y34.8996
G01 X81.1584 Y34.7610
G01 X81.0459 Y34.6004
G01 X80.9631 Y34.4227
G01 X80.9123 Y34.2333
G01 X80.8952 Y34.0380
G01 X80.9123 Y33.8427
G01 X80.9631 Y33.6533
G01 X81.0459 Y33.4756
G01 X81.1584 Y33.3150
G01 X81.2970 Y33.1764
G01 X81.4576 Y33.0639
G01 X81.6353 Y32.9811
G01 X81.8247 Y32.9303
G01 X82.0200 Y32.9132
G01 X82.2153 Y32.9303
G01 X82.4142 Y32.9836
G01 X82.4275 Y32.9866
G01 X82.4409 Y32.9887
G01 X82.4499 Y32.9896
G01 X82.4634 Y32.9901
G01 X82.5425 Y32.9882
G01 X82.5613 Y32.9863
G01 X82.5752 Y32.9837
G01 X82.5934 Y32.9787
G01 X82.6066 Y32.9737
G01 X82.6194 Y32.9677
G01 X82.6318 Y32.9609
G01 X82.7015 Y32.9139
G01 X82.7163 Y32.9022
G01 X82.7298 Y32.8891
G01 X82.7391 Y32.8784
G01 X82.7476 Y32.8671
G01 X82.7552 Y32.8551
G01 X82.7618 Y32.8426
G01 X82.7951 Y32.7655
G01 X82.7983 Y32.7567
G01 X82.8024 Y32.7433
G01 X82.8055 Y32.7296
G01 X82.8075 Y32.7157
G01 X82.8092 Y32.6916
G01 X82.8095 Y32.6803
G01 X82.8093 Y28.0545
G01 X82.8076 Y28.0365
G01 X82.8041 Y28.0187
G01 X82.7807 Y27.9384
G01 X82.7759 Y27.9251
G01 X82.7701 Y27.9122
G01 X82.7609 Y27.8957
G01 X82.7530 Y27.8840
G01 X82.7411 Y27.8694
G01 X82.7278 Y27.8560
G01 X82.6714 Y27.8071
G01 X82.6603 Y27.7982
G01 X82.6486 Y27.7901
G01 X82.6321 Y27.7808
G01 X82.6147 Y27.7732
G01 X82.5966 Y27.7673
G01 X82.5270 Y27.7521
G01 X82.5091 Y27.7500
G01 X82.4955 Y27.7495
G01 X79.9082 Y27.7495
G01 X79.8210 Y27.7401
G01 X79.7894 Y27.7332
G01 X79.7191 Y27.7099
G01 X79.6930 Y27.6931
G01 X79.6813 Y27.6861
G01 X79.6651 Y27.6782
G01 X79.6524 Y27.6733
G01 X79.5676 Y27.6485
G01 X79.5583 Y27.6465
G01 X79.5442 Y27.6444
G01 X79.5300 Y27.6433
G01 X79.5205 Y27.6432
G01 X79.5063 Y27.6440
G01 X79.4875 Y27.6466
G01 X79.4313 Y27.6588
G01 X79.4139 Y27.6634
G01 X79.4053 Y27.6664
G01 X79.3928 Y27.6716
G01 X79.2849 Y27.7209
G01 X79.2439 Y27.7329
G01 X79.1284 Y27.7495
G01 X71.7940 Y27.7496
G01 X71.7804 Y27.7504
G01 X71.7670 Y27.7521
G01 X71.7581 Y27.7538
G01 X71.7450 Y27.7572
G01 X71.6689 Y27.7798
G01 X71.6558 Y27.7849
G01 X71.6389 Y27.7933
G01 X71.6268 Y27.8006
G01 X71.6153 Y27.8089
G01 X71.6044 Y27.8179
G01 X71.5975 Y27.8244
G01 X71.5879 Y27.8348
G01 X71.5361 Y27.8949
G01 X71.5251 Y27.9104
G01 X71.5158 Y27.9269
G01 X71.5082 Y27.9443
G01 X71.5036 Y27.9578
G01 X71.5000 Y27.9716
G01 X71.4879 Y28.0275
G01 X71.4854 Y28.0454
G01 X71.4845 Y28.0635
G01 X71.4847 Y40.5682
G01 X71.4864 Y40.5862
G01 X71.4899 Y40.6039
G01 X71.5132 Y40.6841
G01 X71.5196 Y40.7011
G01 X71.5254 Y40.7135
G01 X71.5322 Y40.7254
G01 X71.5397 Y40.7368
G01 X71.5481 Y40.7476
G01 X71.5541 Y40.7545
G01 X71.5936 Y40.7957
G01 X71.6038 Y40.8050
G01 X71.6110 Y40.8109
G01 X71.6470 Y40.8364
G01 X71.7856 Y40.9750
G01 X71.8981 Y41.1356
G01 X71.9809 Y41.3133
G01 X72.0317 Y41.5027
G01 X72.0488 Y41.6980
G01 X72.0317 Y41.8933
G01 X71.9809 Y42.0827
G01 X71.8981 Y42.2604
G01 X71.7856 Y42.4210
G01 X71.6470 Y42.5596
G01 X71.4864 Y42.6721
G01 X71.3087 Y42.7549
G01 X71.1193 Y42.8057
G01 X70.9240 Y42.8228
G01 X70.7287 Y42.8057
G01 X70.5393 Y42.7549
G01 X70.3616 Y42.6721
G01 X70.2010 Y42.5596
G01 X70.0624 Y42.4210
G01 X69.9499 Y42.2604
G01 X69.8671 Y42.0827
G01 X69.8163 Y41.8933
G01 X69.7992 Y41.6980
G01 X69.8163 Y41.5027
G01 X69.8671 Y41.3133
G01 X69.9499 Y41.1356
G01 X70.0624 Y40.9750
G01 X70.2010 Y40.8364
G01 X70.2369 Y40.8110
G01 X70.2439 Y40.8053
G01 X70.2539 Y40.7961
G01 X70.2632 Y40.7863
G01 X70.2690 Y40.7793
G01 X70.3182 Y40.7175
G01 X70.3258 Y40.7061
G01 X70.3326 Y40.6943
G01 X70.3402 Y40.6777
G01 X70.3449 Y40.6649
G01 X70.3487 Y40.6517
G01 X70.3507 Y40.6428
G01 X70.3608 Y40.5913
G01 X70.3626 Y40.5776
G01 X70.3635 Y40.5591
G01 X70.3635 Y35.3957
G01 X70.3630 Y35.3821
G01 X70.3616 Y35.3687
G01 X70.3592 Y35.3553
G01 X70.3558 Y35.3422
G01 X70.3347 Y35.2706
G01 X70.3281 Y35.2530
G01 X70.3220 Y35.2402
G01 X70.3149 Y35.2279
G01 X70.3070 Y35.2162
G01 X70.2982 Y35.2051
G01 X70.2886 Y35.1947
G01 X70.2782 Y35.1851
G01 X70.2254 Y35.1393
G01 X70.2106 Y35.1277
G01 X70.1946 Y35.1176
G01 X70.1821 Y35.1111
G01 X70.1646 Y35.1039
G01 X70.1466 Y35.0984
G01 X70.1281 Y35.0948
G01 X70.0543 Y35.0843
G01 X70.0449 Y35.0834
G01 X70.0309 Y35.0830
G01 X70.0122 Y35.0840
G01 X69.9983 Y35.0859
G01 X69.9682 Y35.0924
G01 X69.7693 Y35.1457
G01 X69.5740 Y35.1628
G01 X69.3787 Y35.1457
G01 X69.1893 Y35.0949
G01 X69.0116 Y35.0121
G01 X68.8510 Y34.8996
G01 X68.7124 Y34.7610
G01 X68.5999 Y34.6004
G01 X68.5171 Y34.4227
G01 X68.4663 Y34.2333
G01 X68.4492 Y34.0380
G01 X68.4663 Y33.8427
G01 X68.5171 Y33.6533
G01 X68.5999 Y33.4756
G01 X68.7124 Y33.3150
G01 X68.8510 Y33.1764
G01 X69.0116 Y33.0639
G01 X69.1893 Y32.9811
G01 X69.3787 Y32.9303
G01 X69.5740 Y32.9132
G01 X69.7693 Y32.9303
G01 X69.9682 Y32.9836
G01 X69.9815 Y32.9866
G01 X69.9949 Y32.9887
G01 X70.0039 Y32.9896
G01 X70.0174 Y32.9901
G01 X70.0965 Y32.9882
G01 X70.1153 Y32.9863
G01 X70.1292 Y32.9837
G01 X70.1474 Y32.9787
G01 X70.1606 Y32.9737
G01 X70.1734 Y32.9677
G01 X70.1858 Y32.9609
G01 X70.2555 Y32.9139
G01 X70.2703 Y32.9022
G01 X70.2838 Y32.8891
G01 X70.2931 Y32.8784
G01 X70.2989 Y32.8709
G01 X70.3067 Y32.8592
G01 X70.3137 Y32.8468
G01 X70.3198 Y32.8341
G01 X70.3473 Y32.7698
G01 X70.3523 Y32.7567
G01 X70.3552 Y32.7478
G01 X70.3586 Y32.7342
G01 X70.3609 Y32.7203
G01 X70.3623 Y32.7063
G01 X70.3635 Y32.6803
G01 X70.3633 Y28.0545
G01 X70.3616 Y28.0365
G01 X70.3581 Y28.0187
G01 X70.3347 Y27.9384
G01 X70.3299 Y27.9251
G01 X70.3241 Y27.9122
G01 X70.3174 Y27.8998
G01 X70.3124 Y27.8918
G01 X70.3012 Y27.8766
G01 X70.2919 Y27.8659
G01 X70.2852 Y27.8592
G01 X70.2254 Y27.8071
G01 X70.2143 Y27.7982
G01 X70.2026 Y27.7901
G01 X70.1903 Y27.7830
G01 X70.1775 Y27.7768
G01 X70.1642 Y27.7715
G01 X70.1506 Y27.7673
G01 X70.0899 Y27.7538
G01 X70.0721 Y27.7508
G01 X70.0631 Y27.7500
G01 X70.0495 Y27.7495
G01 X67.4622 Y27.7495
G01 X67.3750 Y27.7401
G01 X67.3434 Y27.7332
G01 X67.2731 Y27.7099
G01 X67.2470 Y27.6931
G01 X67.2353 Y27.6861
G01 X67.2191 Y27.6782
G01 X67.2064 Y27.6733
G01 X67.1216 Y27.6485
G01 X67.1123 Y27.6465
G01 X67.0982 Y27.6444
G01 X67.0840 Y27.6433
G01 X67.0745 Y27.6432
G01 X67.0603 Y27.6440
G01 X67.0415 Y27.6466
G01 X66.9853 Y27.6588
G01 X66.9679 Y27.6634
G01 X66.9593 Y27.6664
G01 X66.9468 Y27.6716
G01 X66.8389 Y27.7209
G01 X66.7979 Y27.7329
G01 X66.6824 Y27.7495
G01 X59.3480 Y27.7496
G01 X59.3389 Y27.7500
G01 X59.3255 Y27.7514
G01 X59.3121 Y27.7538
G01 X59.2990 Y27.7572
G01 X59.2229 Y27.7798
G01 X59.2055 Y27.7868
G01 X59.1929 Y27.7933
G01 X59.1808 Y27.8006
G01 X59.1693 Y27.8089
G01 X59.1584 Y27.8179
G01 X59.1515 Y27.8244
G01 X59.1419 Y27.8348
G01 X59.0901 Y27.8949
G01 X59.0791 Y27.9104
G01 X59.0698 Y27.9269
G01 X59.0622 Y27.9443
G01 X59.0576 Y27.9578
G01 X59.0540 Y27.9716
G01 X59.0419 Y28.0275
G01 X59.0394 Y28.0454
G01 X59.0385 Y28.0635
G01 X59.0387 Y40.5682
G01 X59.0404 Y40.5862
G01 X59.0439 Y40.6039
G01 X59.0672 Y40.6841
G01 X59.0719 Y40.6969
G01 X59.0774 Y40.7094
G01 X59.0862 Y40.7254
G01 X59.0937 Y40.7368
G01 X59.1021 Y40.7476
G01 X59.1081 Y40.7545
G01 X59.1476 Y40.7957
G01 X59.1543 Y40.8020
G01 X59.1650 Y40.8109
G01 X59.2010 Y40.8364
G01 X59.3396 Y40.9750
G01 X59.4521 Y41.1356
G01 X59.5349 Y41.3133
G01 X59.5857 Y41.5027
G01 X59.6028 Y41.6980
G01 X59.5857 Y41.8933
G01 X59.5349 Y42.0827
G01 X59.4521 Y42.2604
G01 X59.3396 Y42.4210
G01 X59.2010 Y42.5596
G01 X59.0404 Y42.6721
G01 X58.8627 Y42.7549
G01 X58.6733 Y42.8057
G01 X58.4780 Y42.8228
G01 X58.2827 Y42.8057
G01 X58.0933 Y42.7549
G01 X57.9156 Y42.6721
G01 X57.7550 Y42.5596
G01 X57.6164 Y42.4210
G01 X57.5039 Y42.2604
G01 X57.4211 Y42.0827
G01 X57.3703 Y41.8933
G01 X57.3532 Y41.6980
G01 X57.3703 Y41.5027
G01 X57.4211 Y41.3133
G01 X57.5039 Y41.1356
G01 X57.6164 Y40.9750
G01 X57.7550 Y40.8364
G01 X57.7909 Y40.8110
G01 X57.7979 Y40.8053
G01 X57.8079 Y40.7961
G01 X57.8142 Y40.7896
G01 X57.8230 Y40.7793
G01 X57.8722 Y40.7175
G01 X57.8798 Y40.7061
G01 X57.8866 Y40.6943
G01 X57.8925 Y40.6819
G01 X57.8989 Y40.6649
G01 X57.9027 Y40.6517
G01 X57.9047 Y40.6428
G01 X57.9148 Y40.5913
G01 X57.9166 Y40.5776
G01 X57.9175 Y40.5591
G01 X57.9175 Y35.3957
G01 X57.9170 Y35.3821
G01 X57.9156 Y35.3687
G01 X57.9132 Y35.3553
G01 X57.9098 Y35.3422
G01 X57.8887 Y35.2706
G01 X57.8821 Y35.2530
G01 X57.8760 Y35.2402
G01 X57.8689 Y35.2279
G01 X57.8610 Y35.2162
G01 X57.8522 Y35.2051
G01 X57.8426 Y35.1947
G01 X57.8322 Y35.1851
G01 X57.7794 Y35.1393
G01 X57.7646 Y35.1277
G01 X57.7486 Y35.1176
G01 X57.7318 Y35.1091
G01 X57.7142 Y35.1023
G01 X57.7006 Y35.0984
G01 X57.6821 Y35.0948
G01 X57.6083 Y35.0843
G01 X57.5989 Y35.0834
G01 X57.5849 Y35.0830
G01 X57.5662 Y35.0840
G01 X57.5523 Y35.0859
G01 X57.5222 Y35.0924
G01 X57.3233 Y35.1457
G01 X57.1280 Y35.1628
G01 X56.9327 Y35.1457
G01 X56.7433 Y35.0949
G01 X56.5656 Y35.0121
G01 X56.4050 Y34.8996
G01 X56.2664 Y34.7610
G01 X56.1539 Y34.6004
G01 X56.0711 Y34.4227
G01 X56.0203 Y34.2333
G01 X56.0032 Y34.0380
G01 X56.0203 Y33.8427
G01 X56.0711 Y33.6533
G01 X56.1539 Y33.4756
G01 X56.2664 Y33.3150
G01 X56.4050 Y33.1764
G01 X56.5656 Y33.0639
G01 X56.7433 Y32.9811
G01 X56.9327 Y32.9303
G01 X57.1280 Y32.9132
G01 X57.3233 Y32.9303
G01 X57.5222 Y32.9836
G01 X57.5355 Y32.9866
G01 X57.5489 Y32.9887
G01 X57.5579 Y32.9896
G01 X57.5714 Y32.9901
G01 X57.6505 Y32.9882
G01 X57.6693 Y32.9863
G01 X57.6832 Y32.9837
G01 X57.6969 Y32.9801
G01 X57.7102 Y32.9755
G01 X57.7274 Y32.9677
G01 X57.7398 Y32.9609
G01 X57.8095 Y32.9139
G01 X57.8243 Y32.9022
G01 X57.8378 Y32.8891
G01 X57.8441 Y32.8820
G01 X57.8529 Y32.8709
G01 X57.8607 Y32.8592
G01 X57.8677 Y32.8468
G01 X57.8738 Y32.8341
G01 X57.9013 Y32.7698
G01 X57.9063 Y32.7567
G01 X57.9092 Y32.7478
G01 X57.9126 Y32.7342
G01 X57.9149 Y32.7203
G01 X57.9163 Y32.7063
G01 X57.9175 Y32.6803
G01 X57.9174 Y28.0590
G01 X57.9166 Y28.0454
G01 X57.9156 Y28.0365
G01 X57.9132 Y28.0231
G01 X57.9098 Y28.0100
G01 X57.8872 Y27.9339
G01 X57.8802 Y27.9165
G01 X57.8714 Y27.8998
G01 X57.8637 Y27.8879
G01 X57.8552 Y27.8766
G01 X57.8491 Y27.8694
G01 X57.8392 Y27.8592
G01 X57.7794 Y27.8071
G01 X57.7645 Y27.7954
G01 X57.7525 Y27.7877
G01 X57.7401 Y27.7808
G01 X57.7227 Y27.7732
G01 X57.7092 Y27.7686
G01 X57.6954 Y27.7650
G01 X57.6395 Y27.7529
G01 X57.6261 Y27.7508
G01 X57.6080 Y27.7496
G01 X55.0162 Y27.7495
G01 X54.9290 Y27.7401
G01 X54.8974 Y27.7332
G01 X54.8271 Y27.7099
G01 X54.8020 Y27.6937
G01 X54.7904 Y27.6868
G01 X54.7782 Y27.6807
G01 X54.7614 Y27.6740
G01 X54.6766 Y27.6491
G01 X54.6673 Y27.6471
G01 X54.6532 Y27.6450
G01 X54.6390 Y27.6440
G01 X54.6295 Y27.6439
G01 X54.6106 Y27.6451
G01 X54.5965 Y27.6473
G01 X54.5404 Y27.6594
G01 X54.5229 Y27.6641
G01 X54.5143 Y27.6671
G01 X54.5018 Y27.6723
G01 X54.3954 Y27.7209
G01 X54.3544 Y27.7329
G01 X54.2389 Y27.7495
G01 X52.9935 Y27.7497
G01 X52.9755 Y27.7514
G01 X52.9577 Y27.7549
G01 X52.8819 Y27.7769
G01 X52.8685 Y27.7814
G01 X52.8555 Y27.7868
G01 X52.8388 Y27.7956
G01 X52.8230 Y27.8060
G01 X52.8084 Y27.8179
G01 X52.7950 Y27.8312
G01 X52.7430 Y27.8912
G01 X52.7372 Y27.8987
G01 X52.7291 Y27.9104
G01 X52.7198 Y27.9269
G01 X52.7122 Y27.9443
G01 X52.7090 Y27.9533
G01 X52.7051 Y27.9670
G01 X52.6919 Y28.0275
G01 X52.6898 Y28.0409
G01 X52.6887 Y28.0545
G01 X52.6885 Y30.3991
G01 X52.6887 Y30.4082
G01 X52.6898 Y30.4217
G01 X52.6919 Y30.4351
G01 X52.6950 Y30.4483
G01 X52.7187 Y30.5284
G01 X52.7236 Y30.5411
G01 X52.7294 Y30.5535
G01 X52.7362 Y30.5654
G01 X52.7464 Y30.5805
G01 X52.7581 Y30.5945
G01 X52.8009 Y30.6389
G01 X52.8078 Y30.6450
G01 X52.8186 Y30.6537
G01 X52.8510 Y30.6764
G01 X52.9896 Y30.8150
G01 X53.1021 Y30.9756
G01 X53.1849 Y31.1533
G01 X53.2357 Y31.3427
G01 X53.2528 Y31.5380
G01 X53.2357 Y31.7333
G01 X53.1849 Y31.9227
G01 X53.1021 Y32.1004
G01 X52.9896 Y32.2610
G01 X52.8510 Y32.3996
G01 X52.6904 Y32.5121
G01 X52.5127 Y32.5949
G01 X52.3233 Y32.6457
G01 X52.1280 Y32.6628
G01 X51.9327 Y32.6457
G01 X51.7433 Y32.5949
G01 X51.5656 Y32.5121
G01 X51.4050 Y32.3996
G01 X51.2664 Y32.2610
G01 X51.1828 Y32.1416
G01 X51.1539 Y32.1004
G01 X51.0711 Y31.9227
G01 X51.0203 Y31.7333
G01 X51.0032 Y31.5380
G01 X51.0203 Y31.3427
G01 X51.0711 Y31.1533
G01 X51.1539 Y30.9756
G01 X51.2664 Y30.8150
G01 X51.4050 Y30.6764
G01 X51.4409 Y30.6510
G01 X51.4513 Y30.6423
G01 X51.4611 Y30.6329
G01 X51.4730 Y30.6193
G01 X51.5167 Y30.5648
G01 X51.5248 Y30.5538
G01 X51.5321 Y30.5422
G01 X51.5386 Y30.5302
G01 X51.5442 Y30.5177
G01 X51.5489 Y30.5049
G01 X51.5515 Y30.4961
G01 X51.5547 Y30.4828
G01 X51.5639 Y30.4358
G01 X51.5661 Y30.4222
G01 X51.5670 Y30.4130
G01 X51.5675 Y30.3991
G01 X51.5674 Y28.0590
G01 X51.5666 Y28.0454
G01 X51.5656 Y28.0365
G01 X51.5621 Y28.0187
G01 X51.5372 Y27.9339
G01 X51.5302 Y27.9165
G01 X51.5237 Y27.9039
G01 X51.5137 Y27.8879
G01 X51.5052 Y27.8766
G01 X51.4959 Y27.8659
G01 X51.4858 Y27.8560
G01 X51.4258 Y27.8040
G01 X51.4106 Y27.7927
G01 X51.3943 Y27.7830
G01 X51.3815 Y27.7768
G01 X51.3727 Y27.7732
G01 X51.3546 Y27.7673
G01 X51.2895 Y27.7529
G01 X51.2805 Y27.7514
G01 X51.2671 Y27.7500
G01 X51.2535 Y27.7495
G01 X48.9177 Y27.7495
G01 X48.8305 Y27.7401
G01 X48.7989 Y27.7332
G01 X48.7286 Y27.7099
G01 X48.7035 Y27.6937
G01 X48.6919 Y27.6868
G01 X48.6756 Y27.6789
G01 X48.6629 Y27.6740
G01 X48.5781 Y27.6491
G01 X48.5688 Y27.6471
G01 X48.5547 Y27.6450
G01 X48.5405 Y27.6440
G01 X48.5310 Y27.6439
G01 X48.5121 Y27.6451
G01 X48.4980 Y27.6473
G01 X48.4419 Y27.6594
G01 X48.4244 Y27.6641
G01 X48.4158 Y27.6671
G01 X48.4033 Y27.6723
G01 X48.2969 Y27.7209
G01 X48.2559 Y27.7329
G01 X48.1404 Y27.7495
G01 X46.1000 Y27.7496
G01 X46.0819 Y27.7508
G01 X46.0730 Y27.7521
G01 X46.0597 Y27.7549
G01 X45.9749 Y27.7798
G01 X45.9618 Y27.7849
G01 X45.9449 Y27.7933
G01 X45.9328 Y27.8006
G01 X45.9176 Y27.8118
G01 X45.9069 Y27.8211
G01 X45.8970 Y27.8312
G01 X45.8481 Y27.8876
G01 X45.8364 Y27.9025
G01 X45.8263 Y27.9186
G01 X45.8178 Y27.9355
G01 X45.8142 Y27.9443
G01 X45.8096 Y27.9578
G01 X45.8060 Y27.9716
G01 X45.7948 Y28.0231
G01 X45.7924 Y28.0365
G01 X45.7910 Y28.0499
G01 X45.7905 Y28.0635
G01 X45.7905 Y29.1483
G01 X45.7907 Y29.1575
G01 X45.7923 Y29.1801
G01 X45.7941 Y29.1956
G01 X45.7914 Y29.2269
G01 X45.7906 Y29.2436
G01 X45.7875 Y29.2708
G01 X45.7819 Y29.3344
G01 X45.7601 Y29.3944
G01 X45.7388 Y29.4584
G01 X45.7019 Y29.5147
G01 X45.6683 Y29.5691
G01 X45.6173 Y29.6173
G01 X43.3454 Y31.8893
G01 X43.3390 Y31.8960
G01 X43.3242 Y31.9130
G01 X43.3145 Y31.9253
G01 X43.2904 Y31.9455
G01 X43.2781 Y31.9567
G01 X43.2566 Y31.9738
G01 X43.2078 Y32.0148
G01 X43.1467 Y32.0434
G01 X43.0896 Y32.0720
G01 X43.0271 Y32.0849
G01 X42.9615 Y32.1004
G01 X42.8913 Y32.0985
G01 X40.8209 Y32.0985
G01 X40.8028 Y32.0994
G01 X40.7849 Y32.1019
G01 X40.7673 Y32.1062
G01 X40.7003 Y32.1259
G01 X40.6873 Y32.1302
G01 X40.6747 Y32.1354
G01 X40.6625 Y32.1416
G01 X40.6507 Y32.1486
G01 X40.6395 Y32.1564
G01 X40.6255 Y32.1681
G01 X40.5811 Y32.2109
G01 X40.5750 Y32.2178
G01 X40.5664 Y32.2286
G01 X40.5436 Y32.2610
G01 X40.4050 Y32.3996
G01 X40.2444 Y32.5121
G01 X40.0667 Y32.5949
G01 X39.8773 Y32.6457
G01 X39.6820 Y32.6628
G01 X39.4867 Y32.6457
G01 X39.2973 Y32.5949
G01 X39.1196 Y32.5121
G01 X38.9590 Y32.3996
G01 X38.8204 Y32.2610
G01 X38.7079 Y32.1004
G01 X38.6251 Y31.9227
G01 X38.5743 Y31.7333
G01 X38.5572 Y31.5380
G01 X38.5743 Y31.3427
G01 X38.6251 Y31.1533
G01 X38.7079 Y30.9756
G01 X38.8204 Y30.8150
G01 X38.9590 Y30.6764
G01 X39.1196 Y30.5639
G01 X39.2973 Y30.4811
G01 X39.4867 Y30.4303
G01 X39.6820 Y30.4132
G01 X39.8773 Y30.4303
G01 X40.0667 Y30.4811
G01 X40.2444 Y30.5639
G01 X40.4050 Y30.6764
G01 X40.5436 Y30.8150
G01 X40.5690 Y30.8509
G01 X40.5747 Y30.8579
G01 X40.5839 Y30.8679
G01 X40.5972 Y30.8802
G01 X40.6588 Y30.9295
G01 X40.6700 Y30.9374
G01 X40.6817 Y30.9444
G01 X40.6981 Y30.9525
G01 X40.7108 Y30.9575
G01 X40.7239 Y30.9615
G01 X40.7327 Y30.9637
G01 X40.7887 Y30.9748
G01 X40.8070 Y30.9770
G01 X40.8209 Y30.9775
G01 X42.5463 Y30.9774
G01 X42.5598 Y30.9766
G01 X42.5688 Y30.9756
G01 X42.5822 Y30.9732
G01 X42.5909 Y30.9710
G01 X42.6668 Y30.9487
G01 X42.6799 Y30.9440
G01 X42.6927 Y30.9383
G01 X42.7090 Y30.9292
G01 X42.7206 Y30.9214
G01 X42.7526 Y30.8959
G01 X42.7638 Y30.8855
G01 X44.5775 Y29.0718
G01 X44.5868 Y29.0619
G01 X44.5925 Y29.0549
G01 X44.6030 Y29.0402
G01 X44.6099 Y29.0285
G01 X44.6456 Y28.9631
G01 X44.6497 Y28.9547
G01 X44.6550 Y28.9417
G01 X44.6606 Y28.9239
G01 X44.6644 Y28.9057
G01 X44.6684 Y28.8701
G01 X44.6694 Y28.8549
G01 X44.6693 Y28.0545
G01 X44.6676 Y28.0365
G01 X44.6641 Y28.0187
G01 X44.6421 Y27.9429
G01 X44.6376 Y27.9295
G01 X44.6341 Y27.9208
G01 X44.6280 Y27.9080
G01 X44.6209 Y27.8957
G01 X44.6157 Y27.8879
G01 X44.6072 Y27.8766
G01 X44.5979 Y27.8659
G01 X44.5878 Y27.8560
G01 X44.5278 Y27.8040
G01 X44.5165 Y27.7954
G01 X44.5045 Y27.7877
G01 X44.4963 Y27.7830
G01 X44.4835 Y27.7768
G01 X44.4702 Y27.7715
G01 X44.4612 Y27.7686
G01 X44.4474 Y27.7650
G01 X44.3959 Y27.7538
G01 X44.3825 Y27.7514
G01 X44.3736 Y27.7504
G01 X44.3555 Y27.7495
G01 X42.3162 Y27.7495
G01 X42.2290 Y27.7401
G01 X42.1974 Y27.7332
G01 X42.1271 Y27.7099
G01 X42.1020 Y27.6937
G01 X42.0904 Y27.6868
G01 X42.0782 Y27.6807
G01 X42.0614 Y27.6740
G01 X41.9766 Y27.6491
G01 X41.9579 Y27.6456
G01 X41.9485 Y27.6446
G01 X41.9343 Y27.6439
G01 X41.9153 Y27.6446
G01 X41.8965 Y27.6473
G01 X41.8404 Y27.6594
G01 X41.8229 Y27.6641
G01 X41.8101 Y27.6687
G01 X41.8018 Y27.6723
G01 X41.6954 Y27.7209
G01 X41.6544 Y27.7329
G01 X41.5389 Y27.7495
G01 X36.7065 Y27.7495
G01 X36.6975 Y27.7497
G01 X36.6839 Y27.7508
G01 X36.6661 Y27.7538
G01 X36.6530 Y27.7572
G01 X36.5814 Y27.7783
G01 X36.5638 Y27.7849
G01 X36.5469 Y27.7933
G01 X36.5309 Y27.8033
G01 X36.5233 Y27.8089
G01 X36.5124 Y27.8179
G01 X36.4990 Y27.8312
G01 X36.4501 Y27.8876
G01 X36.4441 Y27.8949
G01 X36.4357 Y27.9064
G01 X36.4260 Y27.9227
G01 X36.4198 Y27.9355
G01 X36.4145 Y27.9488
G01 X36.4103 Y27.9624
G01 X36.3959 Y28.0275
G01 X36.3934 Y28.0454
G01 X36.3926 Y28.0590
G01 X36.3925 Y39.3883
G01 X36.3927 Y39.3975
G01 X36.3943 Y39.4201
G01 X36.3961 Y39.4356
G01 X36.3934 Y39.4669
G01 X36.3926 Y39.4836
G01 X36.3895 Y39.5108
G01 X36.3839 Y39.5744
G01 X36.3621 Y39.6344
G01 X36.3408 Y39.6984
G01 X36.3039 Y39.7547
G01 X36.2703 Y39.8091
G01 X36.2193 Y39.8573
G01 X34.7876 Y41.2891
G01 X34.7754 Y41.3024
G01 X34.7646 Y41.3169
G01 X34.7552 Y41.3324
G01 X34.7217 Y41.3937
G01 X34.7155 Y41.4060
G01 X34.7103 Y41.4188
G01 X34.7059 Y41.4319
G01 X34.7036 Y41.4408
G01 X34.7009 Y41.4544
G01 X34.6992 Y41.4681
G01 X34.6965 Y41.5099
G01 X34.6962 Y41.5289
G01 X34.7108 Y41.6980
G01 X34.6937 Y41.8933
G01 X34.6429 Y42.0827
G01 X34.5601 Y42.2604
G01 X34.4476 Y42.4210
G01 X34.3090 Y42.5596
G01 X34.1484 Y42.6721
G01 X33.9707 Y42.7549
G01 X33.7813 Y42.8057
G01 X33.5860 Y42.8228
G01 X33.3907 Y42.8057
G01 X33.2013 Y42.7549
G01 X33.0236 Y42.6721
G01 X32.8630 Y42.5596
G01 X32.7244 Y42.4210
G01 X32.6119 Y42.2604
G01 X32.5291 Y42.0827
G01 X32.4783 Y41.8933
G01 X32.4612 Y41.6980
G01 X32.4783 Y41.5027
G01 X32.5291 Y41.3133
G01 X32.6119 Y41.1356
G01 X32.7244 Y40.9750
